<?xml version="1.0" encoding="UTF-8"?>
<map version="1.10" tiledversion="1.11.0" orientation="orthogonal" renderorder="right-down" width="40" height="60" tilewidth="128" tileheight="128" infinite="1" nextlayerid="31" nextobjectid="1">
 <editorsettings>
  <export target="town_1/worldMap.csv" format="csv"/>
 </editorsettings>
 <tileset firstgid="1" source="../../../../shiny-octo-umbrella/Tiled/doodl_plat.tsx"/>
 <tileset firstgid="1" source="tileset_original.tsx"/>
 <tileset firstgid="171" source="../../../../Snippets_1/TiledProjects/blockers.tsx"/>
 <layer id="2" name="grassUnderWorld" width="40" height="60" visible="0" locked="1">
  <data encoding="csv">
   <chunk x="0" y="-48" width="16" height="16">
0,0,0,0,0,0,0,0,0,0,0,0,0,0,0,0,
0,0,0,0,0,0,0,0,0,0,0,0,0,0,0,0,
0,0,0,0,0,0,0,0,0,0,0,0,0,0,0,0,
0,0,0,0,0,0,0,0,0,0,0,0,0,0,0,0,
0,0,0,0,0,0,0,0,0,0,0,0,0,0,0,0,
0,0,0,0,0,0,0,0,0,0,0,0,0,0,0,0,
0,0,0,0,0,0,0,0,0,0,0,0,0,0,0,0,
0,0,0,0,0,0,0,0,0,0,0,0,0,0,0,0,
0,0,93,93,93,93,93,93,93,93,93,93,93,93,93,93,
0,0,93,93,93,93,93,93,93,93,93,93,93,93,93,93,
93,93,93,93,93,93,93,93,93,93,93,93,93,93,93,93,
93,93,93,93,93,93,93,93,93,93,93,93,93,93,93,93,
93,93,93,93,93,93,93,93,93,93,93,93,93,93,93,93,
93,93,93,93,93,93,93,93,93,93,93,93,93,93,93,93,
93,93,93,93,93,93,93,93,93,93,93,93,93,93,93,93,
93,93,93,93,93,93,93,93,93,93,93,93,93,93,93,93
</chunk>
   <chunk x="16" y="-48" width="16" height="16">
0,0,0,0,0,0,0,0,0,0,0,0,0,0,0,0,
0,0,0,0,0,0,0,0,0,0,0,0,0,0,0,0,
0,0,0,0,0,0,0,0,0,0,0,0,0,0,0,0,
0,0,0,0,0,0,0,0,0,0,0,0,0,0,0,0,
0,0,0,0,0,0,0,0,0,0,0,0,0,0,0,0,
0,0,0,0,0,0,0,0,0,0,0,0,0,0,0,0,
0,0,0,0,0,0,0,0,0,0,0,0,0,0,0,0,
0,0,0,0,0,0,0,0,0,0,0,0,0,0,0,0,
93,93,93,93,93,93,93,93,93,93,93,93,0,0,0,0,
93,93,93,93,93,93,93,93,93,93,93,93,0,0,0,0,
93,93,93,93,93,93,93,93,93,93,93,93,93,93,0,0,
93,93,93,93,93,93,93,93,93,93,93,93,93,93,0,0,
93,93,93,93,93,93,93,93,93,93,93,93,93,93,0,0,
93,93,93,93,93,93,93,93,93,93,93,93,93,93,0,0,
93,93,93,93,93,93,93,93,93,93,93,93,93,93,93,93,
93,93,93,93,93,93,93,93,93,93,93,93,93,93,93,93
</chunk>
   <chunk x="32" y="-48" width="16" height="16">
0,0,0,0,0,0,0,0,0,0,0,0,0,0,0,0,
0,0,0,0,0,0,0,0,0,0,0,0,0,0,0,0,
0,0,0,0,0,0,0,0,0,0,0,0,0,0,0,0,
0,0,0,0,0,0,0,0,0,0,0,0,0,0,0,0,
0,0,0,0,0,0,0,0,0,0,0,0,0,0,0,0,
0,0,0,0,0,0,0,0,0,0,0,0,0,0,0,0,
0,0,0,0,0,0,0,0,0,0,0,0,0,0,0,0,
0,0,0,0,0,0,0,0,0,0,0,0,0,0,0,0,
0,0,0,0,0,0,0,0,0,0,0,0,0,0,0,0,
0,0,0,0,0,0,0,0,0,0,0,0,0,0,0,0,
0,0,93,93,93,93,93,93,93,93,93,93,0,0,0,0,
0,0,93,93,93,93,93,93,93,93,93,93,0,0,0,0,
0,0,93,93,93,93,93,93,93,93,93,93,93,93,0,0,
0,0,93,93,93,93,93,93,93,93,93,93,93,93,0,0,
93,93,93,93,93,93,93,93,93,93,93,93,93,93,0,0,
93,93,93,93,93,93,93,93,93,93,93,93,93,93,0,0
</chunk>
   <chunk x="0" y="-32" width="16" height="16">
93,93,93,93,93,93,93,93,93,93,93,93,93,93,93,93,
93,93,93,93,93,93,93,93,93,93,93,93,93,93,93,93,
93,93,93,93,93,93,93,93,93,93,93,93,93,93,93,93,
93,93,93,93,93,93,93,93,93,93,93,93,93,93,93,93,
93,93,93,93,93,93,93,93,93,93,93,93,93,93,93,93,
93,93,93,93,93,93,93,93,93,93,93,93,93,93,93,93,
93,93,93,93,93,93,93,93,93,93,93,93,93,93,93,93,
93,93,93,93,93,93,93,93,93,93,93,93,93,93,93,93,
0,0,93,93,93,93,93,93,93,93,93,93,93,93,93,93,
0,0,93,93,93,93,93,93,93,93,93,93,93,93,93,93,
0,0,93,93,93,93,93,93,0,0,0,0,0,0,0,0,
0,0,93,93,93,93,93,93,0,0,0,0,0,0,0,0,
93,93,93,93,93,93,93,93,93,93,93,93,93,93,93,93,
93,93,93,93,93,93,93,93,93,93,93,93,93,93,93,93,
93,93,93,93,93,93,93,93,93,93,93,93,93,93,93,93,
93,93,93,93,93,93,93,93,93,93,93,93,93,93,93,93
</chunk>
   <chunk x="16" y="-32" width="16" height="16">
93,93,93,93,93,93,93,93,93,93,93,93,93,93,93,93,
93,93,93,93,93,93,93,93,93,93,93,93,93,93,93,93,
93,93,93,93,93,93,93,93,93,93,93,93,93,93,93,93,
93,93,93,93,93,93,93,93,93,93,93,93,93,93,93,93,
93,93,93,93,93,93,93,93,93,93,93,93,93,93,93,93,
93,93,93,93,93,93,93,93,93,93,93,93,93,93,93,93,
93,93,93,93,93,93,93,93,93,93,93,93,93,93,0,0,
93,93,93,93,93,93,93,93,93,93,93,93,93,93,0,0,
93,93,93,93,93,93,93,93,93,93,93,93,93,93,0,0,
93,93,93,93,93,93,93,93,93,93,93,93,93,93,0,0,
0,0,0,0,0,0,0,0,0,0,0,0,0,0,0,0,
0,0,0,0,0,0,0,0,0,0,0,0,0,0,0,0,
93,93,93,93,0,0,0,0,0,0,0,0,0,0,0,0,
93,93,93,93,0,0,0,0,0,0,0,0,0,0,0,0,
93,93,93,93,0,0,0,0,0,0,0,0,0,0,0,0,
93,93,93,93,0,0,0,0,0,0,0,0,0,0,0,0
</chunk>
   <chunk x="32" y="-32" width="16" height="16">
93,93,93,93,93,93,93,93,93,93,93,93,93,93,0,0,
93,93,93,93,93,93,93,93,93,93,93,93,93,93,0,0,
93,93,93,93,93,93,93,93,93,93,93,93,93,93,0,0,
93,93,93,93,93,93,93,93,93,93,93,93,93,93,0,0,
93,93,93,93,93,93,93,93,93,93,93,93,93,93,0,0,
93,93,93,93,93,93,93,93,93,93,93,93,93,93,0,0,
0,0,93,93,93,93,93,93,93,93,93,93,0,0,0,0,
0,0,93,93,93,93,93,93,93,93,93,93,0,0,0,0,
0,0,93,93,93,93,93,93,93,93,93,93,0,0,0,0,
0,0,93,93,93,93,93,93,93,93,93,93,0,0,0,0,
0,0,0,0,0,0,0,0,0,0,0,0,0,0,0,0,
0,0,0,0,0,0,0,0,0,0,0,0,0,0,0,0,
0,0,0,0,0,0,0,0,0,0,0,0,0,0,0,0,
0,0,0,0,0,0,0,0,0,0,0,0,0,0,0,0,
0,0,0,0,0,0,0,0,0,0,0,0,0,0,0,0,
0,0,0,0,0,0,0,0,0,0,0,0,0,0,0,0
</chunk>
   <chunk x="0" y="-16" width="16" height="16">
93,93,93,93,93,93,93,93,93,93,93,93,93,93,93,93,
93,93,93,93,93,93,93,93,93,93,93,93,93,93,93,93,
93,93,93,93,93,93,93,93,93,93,93,93,93,93,93,93,
93,93,93,93,93,93,93,93,93,93,93,93,93,93,93,93,
93,93,93,93,93,93,93,93,93,93,93,93,93,93,93,93,
93,93,93,93,93,93,93,93,93,93,93,93,93,93,93,93,
93,93,93,93,93,93,93,93,93,93,93,93,93,93,93,93,
93,93,93,93,93,93,93,93,93,93,93,93,93,93,93,93,
93,93,93,93,93,93,93,93,93,93,93,93,93,93,93,93,
93,93,93,93,93,93,93,93,93,93,93,93,93,93,93,93,
93,93,93,93,93,93,93,93,93,93,93,93,93,93,93,93,
93,93,93,93,93,93,93,93,93,93,93,93,93,93,93,93,
93,93,93,93,93,93,93,93,93,93,93,93,93,93,93,93,
93,93,93,93,93,93,93,93,93,93,93,93,93,93,93,93,
93,93,93,93,93,93,93,93,93,93,93,93,93,93,93,93,
93,93,93,93,93,93,93,93,93,93,93,93,93,93,93,93
</chunk>
   <chunk x="16" y="-16" width="16" height="16">
93,93,93,93,0,0,0,0,0,0,0,0,0,0,0,0,
93,93,93,93,0,0,0,0,0,0,0,0,0,0,0,0,
93,93,93,93,0,0,0,0,0,0,0,0,0,0,0,0,
93,93,93,93,0,0,0,0,0,0,0,0,0,0,0,0,
93,93,93,93,0,0,0,0,0,0,0,0,0,0,0,0,
93,93,93,93,0,0,0,0,0,0,0,0,0,0,0,0,
93,93,93,93,0,0,0,0,0,0,0,0,0,0,0,0,
93,93,93,93,0,0,0,0,0,0,0,0,0,0,0,0,
93,93,93,93,0,0,0,0,0,0,0,0,0,0,0,0,
93,93,93,93,0,0,0,0,0,0,0,0,0,0,0,0,
93,93,93,93,0,0,0,0,0,0,0,0,0,0,0,0,
93,93,93,93,0,0,0,0,0,0,0,0,0,0,0,0,
93,93,93,93,0,0,0,0,0,0,0,0,0,0,0,0,
93,93,93,93,0,0,0,0,0,0,0,0,0,0,0,0,
93,93,93,93,0,0,0,0,0,0,0,0,0,0,0,0,
93,93,93,93,0,0,0,0,0,0,0,0,0,0,0,0
</chunk>
   <chunk x="0" y="0" width="16" height="16">
0,0,0,0,0,0,0,0,0,0,93,93,93,93,93,93,
0,0,0,0,0,0,0,0,0,0,93,93,93,93,93,93,
0,0,0,0,0,0,0,0,0,0,93,93,93,93,93,93,
0,0,0,0,0,0,0,0,0,0,93,93,93,93,93,93,
0,0,93,93,93,93,93,93,93,93,93,93,93,93,93,93,
0,0,93,93,93,93,93,93,93,93,93,93,93,93,93,93,
93,93,93,93,93,93,93,93,93,93,93,93,93,93,93,93,
93,93,93,93,93,93,93,93,93,93,93,93,93,93,93,93,
93,93,93,93,93,93,93,93,93,93,93,93,93,93,93,93,
93,93,93,93,93,93,93,93,93,93,93,93,93,93,93,93,
93,93,93,93,93,93,93,93,93,93,93,93,93,93,93,93,
93,93,93,93,93,93,93,93,93,93,93,93,93,93,93,93,
93,93,93,93,93,93,93,93,93,93,93,93,93,93,93,93,
93,93,93,93,93,93,93,93,93,93,93,93,93,93,93,93,
93,93,93,93,93,93,93,93,93,93,93,93,93,93,93,93,
93,93,93,93,93,93,93,93,93,93,93,93,93,93,93,93
</chunk>
   <chunk x="16" y="0" width="16" height="16">
93,93,0,0,0,0,0,0,0,0,0,0,0,0,0,0,
93,93,0,0,0,0,0,0,0,0,0,0,0,0,0,0,
93,93,93,93,0,0,0,0,0,0,0,0,0,0,0,0,
93,93,93,93,0,0,0,0,0,0,0,0,0,0,0,0,
93,93,93,93,0,0,0,0,0,0,0,0,0,0,0,0,
93,93,93,93,0,0,0,0,0,0,0,0,0,0,0,0,
93,93,93,93,0,0,0,0,0,0,0,0,0,0,0,0,
93,93,93,93,0,0,0,0,0,0,0,0,0,0,0,0,
93,93,93,93,0,0,0,0,0,0,0,0,0,0,0,0,
93,93,93,93,0,0,0,0,0,0,0,0,0,0,0,0,
93,93,93,93,0,0,0,0,0,0,0,0,0,0,0,0,
93,93,93,93,0,0,0,0,0,0,0,0,0,0,0,0,
93,93,93,93,0,0,0,0,0,0,0,0,0,0,0,0,
93,93,93,93,0,0,0,0,0,0,0,0,0,0,0,0,
93,93,0,0,0,0,0,0,0,0,0,0,0,0,0,0,
93,93,0,0,0,0,0,0,0,0,0,0,0,0,0,0
</chunk>
   <chunk x="-32" y="16" width="16" height="16">
0,0,0,0,0,0,0,0,0,0,0,0,0,0,0,0,
0,0,0,0,0,0,0,0,0,0,0,0,0,0,0,0,
0,0,0,0,0,0,0,0,0,0,0,0,0,0,0,0,
0,0,0,0,0,0,0,0,0,0,0,0,0,0,0,0,
0,0,0,0,0,0,0,0,0,0,0,0,0,0,0,0,
0,0,0,0,0,0,0,0,0,0,0,0,0,0,0,0,
0,0,0,0,0,0,0,0,0,0,0,0,0,0,0,0,
0,0,0,0,0,0,0,0,0,0,0,0,0,0,0,0,
0,0,0,0,0,0,0,0,0,0,0,0,0,0,0,0,
0,0,0,0,0,0,0,0,0,0,0,0,0,0,0,0,
0,0,0,0,0,0,0,0,0,0,0,0,0,0,0,0,
0,0,0,0,0,0,0,0,0,0,0,0,0,0,0,0,
0,0,0,0,0,0,0,0,0,0,0,0,0,0,0,0,
0,0,0,0,0,0,0,0,0,0,0,0,0,0,0,0,
0,0,0,0,0,0,0,0,93,93,0,0,0,0,93,93,
0,0,0,0,93,93,93,93,93,93,93,93,93,93,93,93
</chunk>
   <chunk x="-16" y="16" width="16" height="16">
0,0,0,0,0,0,0,0,0,0,0,0,0,0,0,0,
0,0,0,0,0,0,0,0,0,0,0,0,0,0,0,0,
0,0,0,0,0,0,0,0,0,0,0,0,0,0,0,0,
0,0,0,0,0,0,0,0,0,0,0,0,0,0,0,0,
0,0,0,0,0,0,93,93,93,93,93,93,93,93,93,93,
0,0,0,0,0,0,93,93,93,93,93,93,93,93,93,93,
0,0,0,0,0,0,93,93,93,93,93,93,93,93,93,93,
0,0,0,0,0,0,93,93,93,93,93,93,93,93,93,93,
0,0,0,0,0,0,93,93,93,93,93,93,93,93,93,93,
0,0,0,0,0,0,93,93,93,93,93,93,93,93,93,93,
0,0,0,0,0,0,93,93,93,93,93,93,93,93,93,93,
0,0,0,0,0,0,93,93,93,93,93,93,93,93,93,93,
0,0,0,0,0,0,93,93,93,93,93,93,93,93,93,93,
0,0,0,0,0,0,93,93,93,93,93,93,93,93,93,93,
93,93,93,93,93,93,93,93,93,93,93,93,93,93,93,93,
93,93,93,93,93,93,93,93,93,93,93,93,93,93,93,93
</chunk>
   <chunk x="0" y="16" width="16" height="16">
93,93,93,93,93,93,93,93,93,93,93,93,0,0,0,0,
93,93,93,93,93,93,93,93,93,93,93,93,0,0,0,0,
93,93,93,93,93,93,93,93,0,0,0,0,0,0,0,0,
93,93,93,93,93,93,93,93,0,0,0,0,0,0,0,0,
93,93,93,93,93,93,93,93,93,93,93,93,93,93,93,93,
93,93,93,93,93,93,93,93,93,93,93,93,93,93,93,93,
93,93,93,93,93,93,93,93,93,93,93,93,93,93,93,93,
93,93,93,93,93,93,93,93,93,93,93,93,93,93,93,93,
93,93,93,93,93,93,93,93,93,93,93,93,93,93,93,93,
93,93,93,93,93,93,93,93,93,93,93,93,93,93,93,93,
93,93,93,93,93,93,93,93,93,93,93,93,93,93,93,93,
93,93,93,93,93,93,93,93,93,93,93,93,93,93,93,93,
93,93,93,93,93,93,93,93,93,93,93,93,93,93,93,93,
93,93,93,93,93,93,93,93,93,93,93,93,93,93,93,93,
93,93,93,93,93,93,93,93,93,93,93,93,93,93,93,93,
93,93,93,93,93,93,93,93,93,93,93,93,93,93,93,93
</chunk>
   <chunk x="16" y="16" width="16" height="16">
0,0,0,0,0,0,0,0,0,0,0,0,0,0,0,0,
0,0,0,0,0,0,0,0,0,0,0,0,0,0,0,0,
0,0,0,0,0,0,0,0,0,0,0,0,0,0,0,0,
0,0,0,0,0,0,0,0,0,0,0,0,0,0,0,0,
93,93,93,93,0,0,0,0,0,0,0,0,0,0,0,0,
93,93,93,93,0,0,0,0,0,0,0,0,0,0,0,0,
93,93,93,93,0,0,0,0,0,0,0,0,0,0,0,0,
93,93,93,93,0,0,0,0,0,0,0,0,0,0,0,0,
93,93,93,93,0,0,0,0,0,0,0,0,0,0,0,0,
93,93,93,93,0,0,0,0,0,0,0,0,0,0,0,0,
93,93,93,93,0,0,0,0,0,0,0,0,0,0,0,0,
93,93,93,93,0,0,0,0,0,0,0,0,0,0,0,0,
93,93,93,93,0,0,0,0,0,0,0,0,0,0,0,0,
93,93,93,93,0,0,0,0,0,0,0,0,0,0,0,0,
93,93,93,93,75,75,75,75,75,75,93,93,93,93,93,93,
93,93,93,93,75,75,75,75,75,75,93,93,93,93,93,93
</chunk>
   <chunk x="32" y="16" width="16" height="16">
0,0,0,0,0,0,0,0,0,0,0,0,0,0,0,0,
0,0,0,0,0,0,0,0,0,0,0,0,0,0,0,0,
0,0,0,0,0,0,0,0,0,0,0,0,0,0,0,0,
0,0,0,0,0,0,0,0,0,0,0,0,0,0,0,0,
0,0,0,0,0,0,0,0,0,0,0,0,0,0,0,0,
0,0,0,0,0,0,0,0,0,0,0,0,0,0,0,0,
0,0,0,0,0,0,0,0,0,0,0,0,0,0,0,0,
0,0,0,0,0,0,0,0,0,0,0,0,0,0,0,0,
0,0,0,0,0,0,0,0,0,0,0,0,0,0,0,0,
0,0,0,0,0,0,0,0,0,0,0,0,0,0,0,0,
0,0,0,0,0,0,0,0,0,0,0,0,0,0,0,0,
0,0,0,0,0,0,0,0,0,0,0,0,0,0,0,0,
0,0,0,0,0,0,0,0,0,0,0,0,0,0,0,0,
0,0,0,0,0,0,0,0,0,0,0,0,0,0,0,0,
93,93,75,75,75,75,75,75,0,0,0,0,0,0,0,0,
93,93,75,75,75,75,75,75,0,0,0,0,0,0,0,0
</chunk>
   <chunk x="-32" y="32" width="16" height="16">
0,0,0,0,93,93,93,93,93,93,93,93,93,93,93,93,
0,0,0,0,93,93,93,93,93,93,93,93,93,93,93,93,
0,0,0,0,93,93,93,93,93,93,93,93,93,93,93,93,
0,0,0,93,93,93,93,93,93,93,93,93,93,93,93,93,
0,0,0,93,93,93,93,93,93,93,93,93,93,93,93,93,
0,0,0,93,93,93,93,93,93,93,93,93,93,93,93,93,
0,0,0,93,93,93,93,93,93,93,93,93,93,93,93,93,
0,0,0,93,93,93,93,93,93,93,93,93,93,93,93,93,
0,0,0,93,93,93,93,93,93,93,93,93,93,93,93,93,
0,0,93,93,93,93,93,93,93,93,93,93,93,93,93,93,
0,0,93,93,93,93,93,93,93,93,93,93,93,93,93,93,
0,0,93,93,93,93,93,93,93,93,93,93,93,93,93,93,
0,0,93,93,93,93,93,93,93,93,93,93,93,93,93,93,
0,0,93,93,93,93,93,93,93,93,93,93,93,93,93,93,
0,0,93,93,93,93,93,93,93,93,93,93,93,93,93,93,
0,0,93,93,93,93,93,93,93,93,93,93,93,93,93,93
</chunk>
   <chunk x="-16" y="32" width="16" height="16">
93,93,93,93,93,93,93,93,93,93,93,93,93,93,93,93,
93,93,93,93,93,93,93,93,93,93,93,93,93,93,93,93,
93,93,93,93,93,93,93,93,93,93,93,93,93,93,93,93,
93,93,93,93,93,93,93,93,93,93,93,93,93,93,93,93,
93,93,93,93,93,93,93,93,93,93,93,93,93,93,93,93,
93,93,93,93,93,93,93,93,93,93,93,93,93,93,93,93,
93,93,93,93,0,0,93,93,93,93,93,93,93,93,93,93,
93,93,93,93,0,0,93,93,93,93,93,93,93,93,93,93,
93,93,93,93,93,0,93,93,93,93,93,93,93,93,93,93,
93,93,93,93,93,0,93,93,93,93,93,93,93,93,93,93,
93,93,93,93,93,0,93,93,93,93,93,93,93,93,93,93,
93,93,93,93,93,0,93,93,93,93,93,93,93,93,93,93,
93,93,93,93,93,0,93,93,93,93,93,93,93,93,93,93,
93,93,93,93,93,0,93,93,93,93,93,93,93,93,93,93,
93,93,93,93,93,0,93,93,93,93,93,93,93,93,93,93,
93,93,93,93,93,0,93,93,93,93,93,93,93,93,93,93
</chunk>
   <chunk x="0" y="32" width="16" height="16">
93,93,93,93,93,93,93,93,93,93,93,93,93,93,93,93,
93,93,93,93,93,93,93,93,93,93,93,93,93,93,93,93,
93,93,93,93,93,93,93,93,93,93,93,93,93,93,93,93,
93,93,93,93,93,93,93,93,93,93,93,93,93,93,93,93,
93,93,93,93,93,93,93,93,93,93,93,93,93,93,93,93,
93,93,93,93,93,93,93,93,93,93,93,93,93,93,93,93,
93,93,93,93,93,93,93,93,93,93,93,93,93,93,93,93,
93,93,93,93,93,93,93,93,93,93,93,93,93,93,93,93,
93,93,93,93,93,93,93,93,93,93,93,93,93,93,93,93,
93,93,93,93,93,93,93,93,93,93,93,93,93,93,93,93,
93,93,93,93,93,93,93,93,93,93,93,93,93,93,93,93,
93,93,93,93,93,93,93,93,93,93,93,93,93,93,93,93,
93,93,93,93,93,93,93,93,93,93,93,93,93,93,93,93,
93,93,93,93,93,93,93,93,93,93,93,93,93,93,93,93,
93,93,93,93,93,93,93,93,93,93,93,93,93,93,93,93,
93,93,93,93,93,93,93,93,93,93,93,93,93,93,93,93
</chunk>
   <chunk x="16" y="32" width="16" height="16">
93,93,93,93,75,75,75,75,93,93,93,93,93,93,93,93,
93,93,93,93,75,75,75,75,93,93,93,93,93,93,93,93,
93,93,93,93,75,75,75,75,93,93,93,93,93,93,93,93,
93,93,93,93,75,75,75,75,93,93,93,93,93,93,93,93,
93,93,93,93,93,93,93,93,93,93,93,93,93,93,93,93,
93,93,93,93,93,93,93,93,93,93,93,93,93,93,93,93,
93,93,93,93,93,93,93,93,93,93,93,93,93,93,93,93,
93,93,93,93,93,93,93,93,93,93,93,93,93,93,93,93,
93,93,93,93,93,93,93,93,93,93,93,93,93,93,93,93,
93,93,93,93,93,93,93,93,93,93,93,93,93,93,93,93,
93,93,93,93,93,93,93,93,93,93,93,93,93,93,93,93,
93,93,93,93,93,93,93,93,93,93,93,93,93,93,93,93,
93,93,93,93,75,75,75,75,75,75,93,93,93,93,93,93,
93,93,93,93,75,75,75,75,75,75,93,93,93,93,93,93,
93,93,93,93,75,75,75,75,75,75,75,75,93,93,93,93,
93,93,93,93,75,75,75,75,75,75,75,75,93,93,93,93
</chunk>
   <chunk x="32" y="32" width="16" height="16">
93,93,93,93,75,75,75,75,0,0,0,0,0,0,0,0,
93,93,93,93,75,75,75,75,0,0,0,0,0,0,0,0,
93,93,93,93,93,93,93,93,0,0,0,0,0,0,0,0,
93,93,93,93,93,93,93,93,0,0,0,0,0,0,0,0,
93,93,93,93,93,93,93,93,0,0,0,0,0,0,0,0,
93,93,93,93,93,93,93,93,0,0,0,0,0,0,0,0,
93,93,93,93,93,93,93,93,0,0,0,0,0,0,0,0,
93,93,93,93,93,93,93,93,0,0,0,0,0,0,0,0,
93,93,93,93,93,93,93,93,0,0,0,0,0,0,0,0,
93,93,93,93,93,93,93,93,0,0,0,0,0,0,0,0,
93,93,93,93,93,93,93,93,0,0,0,0,0,0,0,0,
93,93,93,93,93,93,93,93,0,0,0,0,0,0,0,0,
93,93,93,93,93,93,93,93,0,0,0,0,0,0,0,0,
93,93,93,93,93,93,93,93,0,0,0,0,0,0,0,0,
93,93,93,93,93,93,93,93,0,0,0,0,0,0,0,0,
93,93,93,93,93,93,93,93,0,0,0,0,0,0,0,0
</chunk>
   <chunk x="-32" y="48" width="16" height="16">
0,0,93,93,93,93,93,93,93,93,93,93,93,93,93,93,
0,0,93,93,93,93,93,93,93,93,93,93,93,93,93,93,
0,0,93,93,93,93,93,93,93,93,93,93,93,93,93,93,
0,0,0,0,93,93,93,93,93,93,93,93,93,93,93,93,
0,0,93,93,93,93,93,93,93,93,93,93,93,93,93,0,
0,0,93,93,93,93,93,93,93,93,93,93,93,93,93,0,
0,0,0,93,93,93,93,93,93,93,93,93,93,93,93,93,
0,0,0,93,93,93,93,93,93,93,93,93,93,93,93,93,
0,0,93,93,93,93,93,93,93,93,93,93,93,93,93,0,
0,0,93,93,93,93,93,93,93,93,93,93,93,93,93,0,
0,0,0,93,93,93,93,93,93,93,93,93,93,93,93,0,
0,0,0,93,93,93,93,93,93,93,93,93,93,93,93,0,
0,0,0,0,0,0,0,0,0,0,0,0,0,0,0,0,
0,0,0,0,0,0,0,0,0,0,0,0,0,0,0,0,
0,0,0,0,0,0,0,0,0,0,0,0,0,0,0,0,
0,0,0,0,0,0,0,0,0,0,0,0,0,0,0,0
</chunk>
   <chunk x="-16" y="48" width="16" height="16">
93,93,93,0,0,0,93,93,93,93,93,93,93,93,93,93,
93,0,0,0,0,0,93,93,93,93,93,93,93,93,93,93,
93,0,0,0,0,0,0,0,0,0,0,0,0,0,0,0,
93,0,0,0,0,0,0,0,0,0,0,0,0,0,0,0,
0,0,0,0,0,0,0,0,0,0,0,0,0,0,0,0,
0,0,0,0,0,0,0,0,0,0,0,0,0,0,0,0,
0,0,0,0,0,0,0,0,0,0,0,0,0,0,0,0,
0,0,0,0,0,0,0,0,0,0,0,0,0,0,0,0,
0,0,0,0,0,0,0,0,0,0,0,0,0,0,0,0,
0,0,0,0,0,0,0,0,0,0,0,0,0,0,0,0,
0,0,0,0,0,0,0,0,0,0,0,0,0,0,0,0,
0,0,0,0,0,0,0,0,0,0,0,0,0,0,0,0,
0,0,0,0,0,0,0,0,0,0,0,0,0,0,0,0,
0,0,0,0,0,0,0,0,0,0,0,0,0,0,0,0,
0,0,0,0,0,0,0,0,0,0,0,0,0,0,0,0,
0,0,0,0,0,0,0,0,0,0,0,0,0,0,0,0
</chunk>
   <chunk x="0" y="48" width="16" height="16">
93,93,93,93,93,93,93,93,93,93,93,93,93,93,93,93,
93,93,93,93,93,93,93,93,93,93,93,93,93,93,93,93,
75,75,75,75,75,75,75,75,75,75,75,75,75,75,75,75,
75,75,75,75,75,75,75,75,75,75,75,75,75,75,75,75,
75,75,75,75,75,75,75,75,75,75,75,75,75,75,75,75,
75,75,75,75,75,75,75,75,75,75,75,75,75,75,75,75,
75,75,75,75,75,75,75,75,75,75,75,75,75,75,75,75,
75,75,75,75,75,75,75,75,75,75,75,75,75,75,75,75,
75,75,75,75,75,75,75,75,75,75,75,75,75,75,75,75,
75,75,75,75,75,75,75,75,75,75,75,75,75,75,75,75,
75,75,75,75,75,75,75,75,75,75,75,75,75,75,75,75,
75,75,75,75,75,75,75,75,75,75,75,75,75,75,75,75,
75,75,75,75,75,75,75,75,75,75,75,75,75,75,75,75,
75,75,75,75,75,75,75,75,75,75,75,75,75,75,75,75,
75,75,75,75,75,75,75,75,75,75,75,75,75,75,75,75,
75,75,75,75,75,75,75,75,75,75,75,75,75,75,75,75
</chunk>
   <chunk x="16" y="48" width="16" height="16">
93,93,93,93,75,75,75,75,75,75,75,75,75,93,93,93,
93,93,93,93,75,75,75,75,75,75,75,75,75,93,93,93,
75,75,75,75,75,75,75,75,75,75,75,75,75,75,0,0,
75,75,75,75,75,75,75,75,75,75,75,75,75,75,0,0,
75,75,75,75,75,75,75,75,75,75,75,75,75,75,0,0,
75,75,75,75,75,75,75,75,75,75,75,75,75,75,0,0,
75,75,75,75,75,75,75,75,75,75,75,75,75,75,0,0,
75,75,75,75,75,75,75,75,75,75,75,75,75,75,0,0,
75,75,75,75,75,75,75,75,75,75,75,75,75,75,0,0,
68,69,68,69,68,69,68,69,68,69,75,75,75,75,0,0,
81,82,81,82,81,82,81,82,81,82,75,75,75,75,0,0,
93,94,93,94,93,94,93,94,93,94,75,75,75,75,0,0,
176,177,176,177,176,177,176,177,176,177,75,75,75,75,0,0,
68,69,68,69,68,69,68,69,68,69,75,75,75,75,0,0,
81,82,81,82,81,82,81,82,81,82,75,75,75,75,0,0,
75,75,75,75,93,94,93,94,93,94,75,75,75,75,0,0
</chunk>
   <chunk x="32" y="48" width="16" height="16">
93,93,93,93,93,93,93,93,0,0,0,0,0,0,0,0,
93,93,93,93,93,93,93,93,0,0,0,0,0,0,0,0,
0,0,0,0,0,0,0,0,0,0,0,0,0,0,0,0,
0,0,0,0,0,0,0,0,0,0,0,0,0,0,0,0,
0,0,0,0,0,0,0,0,0,0,0,0,0,0,0,0,
0,0,0,0,0,0,0,0,0,0,0,0,0,0,0,0,
0,0,0,0,0,0,0,0,0,0,0,0,0,0,0,0,
0,0,0,0,0,0,0,0,0,0,0,0,0,0,0,0,
0,0,0,0,0,0,0,0,0,0,0,0,0,0,0,0,
0,0,0,0,0,0,0,0,0,0,0,0,0,0,0,0,
0,0,0,0,0,0,0,0,0,0,0,0,0,0,0,0,
0,0,0,0,0,0,0,0,0,0,0,0,0,0,0,0,
0,0,0,0,0,0,0,0,0,0,0,0,0,0,0,0,
0,0,0,0,0,0,0,0,0,0,0,0,0,0,0,0,
0,0,0,0,0,0,0,0,0,0,0,0,0,0,0,0,
0,0,0,0,0,0,0,0,0,0,0,0,0,0,0,0
</chunk>
   <chunk x="0" y="64" width="16" height="16">
75,75,75,75,75,75,75,75,75,75,75,75,75,75,75,75,
75,68,69,71,68,69,71,68,69,71,75,75,75,75,75,75,
75,81,82,83,81,82,83,81,82,83,75,75,75,75,75,75,
75,93,94,95,93,94,95,93,94,95,75,75,75,75,75,75,
75,176,177,178,176,177,178,176,177,178,75,75,75,75,75,75,
75,68,69,71,68,69,71,68,69,71,75,75,75,75,75,75,
75,81,82,83,81,82,83,81,82,83,75,75,75,75,75,75,
75,93,94,95,93,94,95,93,94,95,75,75,75,75,75,75,
75,176,177,178,176,177,178,176,177,178,75,75,75,75,75,75,
75,75,75,75,75,75,75,75,75,75,75,75,75,75,75,75,
75,75,75,75,75,75,75,75,75,75,75,68,69,68,69,68,
75,75,75,75,75,75,75,75,75,75,75,81,82,81,82,81,
75,75,75,75,75,75,75,75,75,75,75,93,94,93,94,93,
75,75,75,75,75,75,75,75,75,75,75,176,177,176,177,176,
75,75,75,75,75,75,75,75,75,75,75,68,69,68,69,68,
75,75,75,75,75,75,75,75,75,75,75,75,75,75,75,75
</chunk>
   <chunk x="16" y="64" width="16" height="16">
75,75,75,75,176,177,176,177,176,177,75,75,75,75,0,0,
75,75,75,75,68,69,68,69,68,69,75,75,75,75,0,0,
75,75,75,75,81,82,81,82,81,82,75,75,75,75,0,0,
75,75,75,75,93,94,93,94,93,94,75,75,75,75,0,0,
75,75,75,75,176,177,176,177,176,177,75,75,75,75,0,0,
75,75,75,75,68,69,68,69,68,69,75,75,75,75,0,0,
75,75,75,75,81,82,81,82,81,82,75,75,75,75,0,0,
75,75,75,75,93,94,93,94,93,94,75,75,75,75,0,0,
75,75,75,75,75,75,75,75,75,75,75,75,75,75,0,0,
75,75,75,75,75,75,75,75,75,75,75,75,75,75,0,0,
69,68,69,68,69,68,69,71,75,75,75,75,75,75,0,0,
82,81,82,81,82,81,82,83,75,75,75,75,75,75,0,0,
94,93,94,93,94,93,94,95,75,75,75,75,75,75,0,0,
177,176,177,176,177,176,177,178,75,75,75,75,75,75,0,0,
69,68,69,68,69,68,69,71,75,75,75,75,75,75,0,0,
75,75,75,75,75,75,75,75,75,75,75,75,75,75,0,0
</chunk>
   <chunk x="0" y="80" width="16" height="16">
75,75,75,75,75,75,75,75,75,75,75,75,75,75,75,75,
75,75,75,75,75,75,75,75,75,75,75,75,75,75,75,75,
75,75,75,75,75,75,75,75,75,75,75,75,75,75,75,75,
75,75,75,75,75,75,75,75,75,75,75,75,75,75,75,75,
75,75,75,75,75,75,75,75,75,75,75,75,75,75,75,75,
75,75,75,75,75,75,75,75,75,75,75,75,75,75,75,75,
75,75,75,75,75,75,75,75,75,75,75,75,75,75,75,75,
75,75,75,75,75,75,75,75,75,75,75,75,75,75,75,75,
75,75,75,75,75,75,75,75,75,75,75,75,75,75,75,75,
75,75,75,75,75,75,75,75,75,75,75,75,75,75,75,75,
75,75,75,75,75,75,75,75,75,75,75,75,75,75,75,75,
75,75,75,75,75,75,75,75,75,75,75,75,75,75,75,75,
75,75,75,75,75,75,75,75,75,75,75,75,75,75,75,75,
75,75,75,75,75,75,75,75,75,75,75,75,75,75,75,75,
75,75,75,75,75,75,75,75,75,75,75,75,75,75,75,75,
75,75,75,75,75,75,75,75,75,75,75,75,75,75,75,75
</chunk>
   <chunk x="16" y="80" width="16" height="16">
75,75,75,75,75,75,75,75,75,75,75,75,75,75,0,0,
75,75,75,75,75,75,75,75,75,75,75,75,75,75,0,0,
75,75,75,75,75,75,75,75,75,75,75,75,75,75,0,0,
75,75,75,75,75,75,75,75,75,75,75,75,75,75,0,0,
75,75,75,75,75,75,75,75,75,75,75,75,75,75,0,0,
75,75,75,75,75,75,75,75,75,75,75,75,75,75,0,0,
75,75,75,75,75,75,75,75,75,75,75,75,75,75,0,0,
75,75,75,75,75,75,75,75,75,75,75,75,75,75,0,0,
75,75,75,75,75,75,75,75,75,75,75,75,75,75,0,0,
75,75,75,75,75,75,75,75,75,75,75,75,75,75,0,0,
75,75,75,75,75,75,75,75,75,75,75,75,75,75,0,0,
75,75,75,75,75,75,75,75,75,75,75,75,75,75,0,0,
75,75,75,75,75,75,75,75,75,75,75,75,75,75,0,0,
75,75,75,75,75,75,75,75,75,75,75,75,75,75,0,0,
75,75,75,75,75,75,75,75,75,75,75,75,75,75,0,0,
75,75,75,75,75,75,75,75,75,75,75,75,75,75,0,0
</chunk>
   <chunk x="0" y="96" width="16" height="16">
75,75,75,75,75,75,75,75,68,69,71,67,68,69,71,67,
75,75,75,75,75,75,75,79,81,82,83,79,81,82,83,79,
75,75,75,75,75,75,75,92,93,94,95,92,93,94,95,92,
75,75,75,75,75,75,75,175,176,177,178,175,176,177,178,175,
75,75,75,75,75,75,75,67,68,69,71,67,68,69,71,67,
75,75,75,75,75,75,75,79,81,82,83,79,81,82,83,79,
75,75,75,75,75,75,75,92,93,94,95,92,93,94,95,92,
75,75,75,75,75,75,75,75,176,177,178,175,176,177,178,175,
75,75,75,75,75,75,75,75,75,75,75,75,75,75,75,75,
75,75,75,75,75,75,75,75,75,75,75,75,75,75,75,75,
75,75,75,75,75,75,75,75,75,75,75,75,75,75,75,75,
75,75,75,75,75,75,75,75,75,75,75,75,75,75,75,75,
75,75,75,75,75,75,75,75,75,75,75,75,75,75,75,75,
75,75,75,75,75,75,75,75,75,75,75,75,75,75,75,75,
0,0,0,0,0,0,0,0,0,0,0,0,0,0,0,0,
0,0,0,0,0,0,0,0,0,0,0,0,0,0,0,0
</chunk>
   <chunk x="16" y="96" width="16" height="16">
68,69,75,75,75,75,75,75,75,75,75,75,75,75,0,0,
81,82,83,75,75,75,75,75,75,75,75,75,75,75,0,0,
93,94,95,75,75,75,75,75,75,75,75,75,75,75,0,0,
176,177,178,75,75,75,75,75,75,75,75,75,75,75,0,0,
68,69,71,75,75,75,75,75,75,75,75,75,75,75,0,0,
81,82,83,75,75,75,75,75,75,75,75,75,75,75,0,0,
93,94,95,75,75,75,75,75,75,75,75,75,75,75,0,0,
176,177,75,75,75,75,75,75,75,75,75,75,75,75,0,0,
75,75,75,75,75,75,75,75,75,75,75,75,75,75,0,0,
75,75,75,75,75,75,75,75,75,75,75,75,75,75,0,0,
75,75,75,75,75,75,75,75,75,75,75,75,75,75,0,0,
75,75,75,75,75,75,75,75,75,75,75,75,75,75,0,0,
75,75,75,75,75,75,75,75,75,75,75,75,75,75,0,0,
75,75,75,75,75,75,75,75,75,75,75,75,75,75,0,0,
0,0,0,0,0,0,0,0,0,0,0,0,0,0,0,0,
0,0,0,0,0,0,0,0,0,0,0,0,0,0,0,0
</chunk>
  </data>
 </layer>
 <layer id="15" name="full size map" width="40" height="60" visible="0">
  <data encoding="csv">
   <chunk x="48" y="-128" width="16" height="16">
0,0,0,0,0,0,0,0,0,0,0,0,0,0,0,0,
0,0,0,0,0,0,0,0,0,0,0,0,0,0,0,0,
0,0,0,0,0,0,0,0,0,0,0,0,0,0,0,0,
0,0,0,0,0,0,0,0,0,0,0,0,0,0,0,0,
0,0,0,0,0,0,0,0,0,0,0,0,0,0,0,0,
0,0,0,0,0,0,0,0,0,0,0,0,0,0,0,0,
0,0,0,0,0,0,0,0,0,0,0,0,0,0,0,0,
0,0,0,0,0,103,103,103,103,103,103,103,103,103,103,103,
0,0,0,0,0,103,103,103,103,103,103,103,103,103,103,103,
0,0,0,0,0,103,103,103,103,103,103,103,103,103,103,103,
0,0,0,0,0,103,103,103,103,103,103,103,103,103,103,103,
0,0,0,0,0,103,103,103,103,103,103,103,103,103,103,103,
0,0,0,0,0,103,103,103,103,103,103,103,103,103,103,103,
0,0,0,0,0,103,103,103,103,103,103,103,103,103,103,103,
0,0,0,0,0,103,103,103,103,103,103,103,103,103,103,103,
0,0,0,0,0,103,103,103,103,103,103,103,103,103,103,103
</chunk>
   <chunk x="64" y="-128" width="16" height="16">
0,0,0,0,0,0,0,0,0,0,0,0,0,0,0,0,
0,0,0,0,0,0,0,0,0,0,0,0,0,0,0,0,
0,0,0,0,0,0,0,0,0,0,0,0,0,0,0,0,
0,0,0,0,0,0,0,0,0,0,0,0,0,0,0,0,
0,0,0,0,0,0,0,0,0,0,0,0,0,0,0,0,
0,0,0,0,0,0,0,0,0,0,0,0,0,0,0,0,
0,0,0,0,0,0,0,0,0,0,0,0,0,0,0,0,
103,103,103,103,103,103,103,103,103,103,103,103,103,103,103,103,
103,103,103,103,103,103,103,103,103,103,103,103,103,103,103,103,
103,103,103,103,103,103,103,103,103,103,103,103,103,103,103,103,
103,103,103,103,103,103,103,103,103,103,103,103,103,103,103,103,
103,103,103,103,103,103,103,103,103,103,103,103,103,103,103,103,
103,103,103,103,103,103,103,103,103,103,103,103,103,103,103,103,
103,103,103,103,103,103,103,103,103,103,103,103,103,103,103,103,
103,103,103,103,103,103,103,103,103,103,103,103,103,103,103,103,
103,103,103,103,103,103,103,103,103,103,103,103,103,103,103,103
</chunk>
   <chunk x="80" y="-128" width="16" height="16">
0,0,0,0,0,0,0,0,0,0,0,0,0,0,0,0,
0,0,0,0,0,0,0,0,0,0,0,0,0,0,0,0,
0,0,0,0,0,0,0,0,0,0,0,0,0,0,0,0,
0,0,0,0,0,0,0,0,0,0,0,0,0,0,0,0,
0,0,0,0,0,0,0,0,0,0,0,0,0,0,0,0,
0,0,0,0,0,0,0,0,0,0,0,0,0,0,0,0,
0,0,0,0,0,0,0,0,0,0,0,0,0,0,0,0,
103,103,103,103,103,103,103,103,103,0,0,0,0,0,0,0,
103,103,103,103,103,103,103,103,103,0,0,0,0,0,0,0,
103,103,103,103,103,103,103,103,103,0,0,0,0,0,0,0,
103,103,103,103,103,103,103,103,103,0,0,0,0,0,0,0,
103,103,103,103,103,103,103,103,103,0,0,0,0,0,0,0,
103,103,103,103,103,103,103,103,103,0,0,0,0,0,0,0,
103,103,103,103,103,103,103,103,103,0,0,0,0,0,0,0,
103,103,103,103,103,103,103,103,103,0,0,0,0,0,0,0,
103,103,103,103,103,103,103,103,103,0,0,0,0,0,0,0
</chunk>
   <chunk x="48" y="-112" width="16" height="16">
0,0,0,0,0,103,103,103,103,103,103,103,103,103,103,103,
0,0,0,0,0,103,103,103,103,103,103,103,103,103,103,103,
0,0,0,0,0,103,103,103,103,103,103,103,103,103,103,103,
0,0,0,0,0,103,103,103,103,103,103,103,103,103,103,103,
0,0,0,0,0,103,103,103,103,103,103,103,103,103,103,103,
0,0,0,0,0,103,103,103,103,103,103,103,103,103,103,103,
0,0,0,0,0,103,103,103,103,103,103,103,103,103,103,103,
0,0,0,0,0,103,103,103,103,103,103,103,103,103,103,103,
0,0,0,0,0,103,103,103,103,103,103,103,103,103,103,103,
0,0,0,0,0,103,103,103,103,103,103,103,103,103,103,103,
0,0,0,0,0,103,103,103,103,103,103,103,103,103,103,103,
0,0,0,0,0,103,103,103,103,103,103,103,103,103,103,103,
0,0,0,0,0,103,103,103,103,103,103,103,103,103,103,103,
0,0,0,0,0,103,103,103,103,103,103,103,103,103,103,103,
0,0,0,0,0,103,103,103,103,103,103,103,103,103,103,103,
0,0,0,0,0,103,103,103,103,103,103,103,103,103,103,103
</chunk>
   <chunk x="64" y="-112" width="16" height="16">
103,103,103,103,103,103,103,103,103,103,103,103,103,103,103,103,
103,103,103,103,103,103,103,103,103,103,103,103,103,103,103,103,
103,103,103,103,103,103,103,103,103,103,103,103,103,103,103,103,
103,103,103,103,103,103,103,103,103,103,103,103,103,103,103,103,
103,103,103,103,103,103,103,103,103,103,103,103,103,103,103,103,
103,103,103,103,103,103,103,103,103,103,103,103,103,103,103,103,
103,103,103,103,103,103,103,103,103,103,103,103,103,103,103,103,
103,103,103,103,103,103,103,103,103,103,103,103,103,103,103,103,
103,103,103,103,103,103,103,103,103,103,103,103,103,103,103,103,
103,103,103,103,103,103,103,103,103,103,103,103,103,103,103,103,
103,103,103,103,103,103,103,103,103,103,103,103,103,103,103,103,
103,103,103,103,103,103,103,103,103,103,103,103,103,103,103,103,
103,103,103,103,103,103,103,103,103,103,103,103,103,103,103,103,
103,103,103,103,103,103,103,103,103,103,103,103,103,103,103,103,
103,103,103,103,103,103,103,103,103,103,103,103,103,103,103,103,
103,103,103,103,103,103,103,103,103,103,103,103,103,103,103,103
</chunk>
   <chunk x="80" y="-112" width="16" height="16">
103,103,103,103,103,103,103,103,103,0,0,0,0,0,0,0,
103,103,103,103,103,103,103,103,103,0,0,0,0,0,0,0,
103,103,103,103,103,103,103,103,103,0,0,0,0,0,0,0,
103,103,103,103,103,103,103,103,103,0,0,0,0,0,0,0,
103,103,103,103,103,103,103,103,103,0,0,0,0,0,0,0,
103,103,103,103,103,103,103,103,103,0,0,0,0,0,0,0,
103,103,103,103,103,103,103,103,103,0,0,0,0,0,0,0,
103,103,103,103,103,103,103,103,103,0,0,0,0,0,0,0,
103,103,103,103,103,103,103,103,103,0,0,0,0,0,0,0,
103,103,103,103,103,103,103,103,103,0,0,0,0,0,0,0,
103,103,103,103,103,103,103,103,103,0,0,0,0,0,0,0,
103,103,103,103,103,103,103,103,103,0,0,0,0,0,0,0,
103,103,103,103,103,103,103,103,103,0,0,0,0,0,0,0,
103,103,103,103,103,103,103,103,103,0,0,0,0,0,0,0,
103,103,103,103,103,103,103,103,103,0,0,0,0,0,0,0,
103,103,103,103,103,103,103,103,103,0,0,0,0,0,0,0
</chunk>
   <chunk x="48" y="-96" width="16" height="16">
0,0,0,0,0,103,103,103,103,103,103,103,103,103,103,103,
0,0,0,0,0,103,103,103,103,103,103,103,103,103,103,103,
0,0,0,0,0,103,103,103,103,103,103,103,103,103,103,103,
0,0,0,0,0,103,103,103,103,103,103,103,103,103,103,103,
0,0,0,0,0,103,103,103,103,103,103,103,103,103,103,103,
0,0,0,0,0,103,103,103,103,103,103,103,103,103,103,103,
0,0,0,0,0,103,103,103,103,103,103,103,103,103,103,103,
0,0,0,0,0,103,103,103,103,103,103,103,103,103,103,103,
0,0,0,0,0,103,103,103,103,103,103,103,103,103,103,103,
0,0,0,0,0,103,103,103,103,103,103,103,103,103,103,103,
0,0,0,0,0,103,103,103,103,103,103,103,103,103,103,103,
0,0,0,0,0,103,103,103,103,103,103,103,103,103,103,103,
0,0,0,0,0,103,103,103,103,103,103,103,103,103,103,103,
0,0,0,0,0,103,103,103,103,103,103,103,103,103,103,103,
0,0,0,0,0,103,103,103,103,103,103,103,103,103,103,103,
0,0,0,0,0,103,103,103,103,103,103,103,103,103,103,103
</chunk>
   <chunk x="64" y="-96" width="16" height="16">
103,103,103,103,103,103,103,103,103,103,103,103,103,103,103,103,
103,103,103,103,103,103,103,103,103,103,103,103,103,103,103,103,
103,103,103,103,103,103,103,103,103,103,103,103,103,103,103,103,
103,103,103,103,103,103,103,103,103,103,103,103,103,103,103,103,
103,103,103,103,103,103,103,103,103,103,103,103,103,103,103,103,
103,103,103,103,103,103,103,103,103,103,103,103,103,103,103,103,
103,103,103,103,103,103,103,103,103,103,103,103,103,103,103,103,
103,103,103,103,103,103,103,103,103,103,103,103,103,103,103,103,
103,103,103,103,103,103,103,103,103,103,103,103,103,103,103,103,
103,103,103,103,103,103,103,103,103,103,103,103,103,103,103,103,
103,103,103,103,103,103,103,103,103,103,103,103,103,103,103,103,
103,103,103,103,103,103,103,103,103,103,103,103,103,103,103,103,
103,103,103,103,103,103,103,103,103,103,103,103,103,103,103,103,
103,103,103,103,103,103,103,103,103,103,103,103,103,103,103,103,
103,103,103,103,103,103,103,103,103,103,103,103,103,103,103,103,
103,103,103,103,103,103,103,103,103,103,103,103,103,103,103,103
</chunk>
   <chunk x="80" y="-96" width="16" height="16">
103,103,103,103,103,103,103,103,103,0,0,0,0,0,0,0,
103,103,103,103,103,103,103,103,103,0,0,0,0,0,0,0,
103,103,103,103,103,103,103,103,103,0,0,0,0,0,0,0,
103,103,103,103,103,103,103,103,103,0,0,0,0,0,0,0,
103,103,103,103,103,103,103,103,103,0,0,0,0,0,0,0,
103,103,103,103,103,103,103,103,103,0,0,0,0,0,0,0,
103,103,103,103,103,103,103,103,103,0,0,0,0,0,0,0,
103,103,103,103,103,103,103,103,103,0,0,0,0,0,0,0,
103,103,103,103,103,103,103,103,103,0,0,0,0,0,0,0,
103,103,103,103,103,103,103,103,103,0,0,0,0,0,0,0,
103,103,103,103,103,103,103,103,103,0,0,0,0,0,0,0,
103,103,103,103,103,103,103,103,103,0,0,0,0,0,0,0,
103,103,103,103,103,103,103,103,103,0,0,0,0,0,0,0,
103,103,103,103,103,103,103,103,103,0,0,0,0,0,0,0,
103,103,103,103,103,103,103,103,103,0,0,0,0,0,0,0,
103,103,103,103,103,103,103,103,103,0,0,0,0,0,0,0
</chunk>
   <chunk x="-128" y="-80" width="16" height="16">
0,0,0,0,0,0,0,0,0,0,0,103,103,103,103,103,
0,0,0,0,0,0,0,0,0,0,0,103,103,103,103,103,
0,0,0,0,0,0,0,0,0,0,0,103,103,103,103,103,
0,0,0,0,0,0,0,0,0,0,0,103,103,103,103,103,
0,0,0,0,0,0,0,0,0,0,0,103,103,103,103,103,
0,0,0,0,0,0,0,0,0,0,0,103,103,103,103,103,
0,0,0,0,0,0,0,0,0,0,0,103,103,103,103,103,
0,0,0,0,0,0,0,0,0,0,0,103,103,103,103,103,
0,0,0,0,0,0,0,0,0,0,0,103,103,103,103,103,
0,0,0,0,0,0,0,0,0,0,0,103,103,103,103,103,
0,0,0,0,0,0,0,0,0,0,0,103,103,103,103,103,
0,0,0,0,0,0,0,0,0,0,0,103,103,103,103,103,
0,0,0,0,0,0,0,0,0,0,0,103,103,103,103,103,
0,0,0,0,0,0,0,0,0,0,0,103,103,103,103,103,
0,0,0,0,0,0,0,0,0,0,0,103,103,103,103,103,
0,0,0,0,0,0,0,0,0,0,0,103,103,103,103,103
</chunk>
   <chunk x="-112" y="-80" width="16" height="16">
103,103,103,103,103,103,103,103,103,103,103,103,103,103,103,103,
103,103,103,103,103,103,103,103,103,103,103,103,103,103,103,103,
103,103,103,103,103,103,103,103,103,103,103,103,103,103,103,103,
103,103,103,103,103,103,103,103,103,103,103,103,103,103,103,103,
103,103,103,103,103,103,103,103,103,103,103,103,103,103,103,103,
103,103,103,103,103,103,103,103,103,103,103,103,103,103,103,103,
103,103,103,103,103,103,103,103,103,103,103,103,103,103,103,103,
103,103,103,103,103,103,103,103,103,103,103,103,103,103,103,103,
103,103,103,103,103,103,103,103,103,103,103,103,103,103,103,103,
103,103,103,103,103,103,103,103,103,103,103,103,103,103,103,103,
103,103,103,103,103,103,103,103,103,103,103,103,103,103,103,103,
103,103,103,103,103,103,103,103,103,103,103,103,103,103,103,103,
103,103,103,103,103,103,103,103,103,103,103,103,103,103,103,103,
103,103,103,103,103,103,103,103,103,103,103,103,103,103,103,103,
103,103,103,103,103,103,103,103,103,103,103,103,103,103,103,103,
103,103,103,103,103,103,103,103,103,103,103,103,103,103,103,103
</chunk>
   <chunk x="-96" y="-80" width="16" height="16">
103,103,103,103,103,103,103,103,103,103,103,103,103,103,103,0,
103,103,103,103,103,103,103,103,103,103,103,103,103,103,103,0,
103,103,103,103,103,103,103,103,103,103,103,103,103,103,103,0,
103,103,103,103,103,103,103,103,103,103,103,103,103,103,103,0,
103,103,103,103,103,103,103,103,103,103,103,103,103,103,103,0,
103,103,103,103,103,103,103,103,103,103,103,103,103,103,103,0,
103,103,103,103,103,103,103,103,103,103,103,103,103,103,103,0,
103,103,103,103,103,103,103,103,103,103,103,103,103,103,103,0,
103,103,103,103,103,103,103,103,103,103,103,103,103,103,103,0,
103,103,103,103,103,103,103,103,103,103,103,103,103,103,103,0,
103,103,103,103,103,103,103,103,103,103,103,103,103,103,103,0,
103,103,103,103,103,103,103,103,103,103,103,103,103,103,103,0,
103,103,103,103,103,103,103,103,103,103,103,103,103,103,103,0,
103,103,103,103,103,103,103,103,103,103,103,103,103,103,103,0,
103,103,103,103,103,103,103,103,103,103,103,103,103,103,103,0,
103,103,103,103,103,103,103,103,103,103,103,103,103,103,103,0
</chunk>
   <chunk x="48" y="-80" width="16" height="16">
0,0,0,0,0,103,103,103,103,103,103,103,103,103,103,103,
0,0,0,0,0,103,103,103,103,103,103,103,103,103,103,103,
0,0,0,0,0,103,103,103,103,103,103,103,103,103,103,103,
0,0,0,0,0,103,103,103,103,103,103,103,103,103,103,103,
0,0,0,0,0,103,103,103,103,103,103,103,103,103,103,103,
0,0,0,0,0,103,103,103,103,103,103,103,103,103,103,103,
0,0,0,0,0,103,103,103,103,103,103,103,103,103,103,103,
0,0,0,0,0,103,103,103,103,103,103,103,103,103,103,103,
0,0,0,0,0,103,103,103,103,103,103,103,103,103,103,103,
0,0,0,0,0,103,103,103,103,103,103,103,103,103,103,103,
0,0,0,0,0,103,103,103,103,103,103,103,103,103,103,103,
0,0,0,0,0,103,103,103,103,103,103,103,103,103,103,103,
0,0,0,0,0,103,103,103,103,103,103,103,103,103,103,103,
0,0,0,0,0,103,103,103,103,103,103,103,103,103,103,103,
0,0,0,0,0,103,103,103,103,103,103,103,103,103,103,103,
0,0,0,0,0,103,103,103,103,103,103,103,103,103,103,103
</chunk>
   <chunk x="64" y="-80" width="16" height="16">
103,103,103,103,103,103,103,103,103,103,103,103,103,103,103,103,
103,103,103,103,103,103,103,103,103,103,103,103,103,103,103,103,
103,103,103,103,103,103,103,103,103,103,103,103,103,103,103,103,
103,103,103,103,103,103,103,103,103,103,103,103,103,103,103,103,
103,103,103,103,103,103,103,103,103,103,103,103,103,103,103,103,
103,103,103,103,103,103,103,103,103,103,103,103,103,103,103,103,
103,103,103,103,103,103,103,103,103,103,103,103,103,103,103,103,
103,103,103,103,103,103,103,103,103,103,103,103,103,103,103,103,
103,103,103,103,103,103,103,103,103,103,103,103,103,103,103,103,
103,103,103,103,103,103,103,103,103,103,103,103,103,103,103,103,
103,103,103,103,103,103,103,103,103,103,103,103,103,103,103,103,
103,103,103,103,103,103,103,103,103,103,103,103,103,103,103,103,
103,103,103,103,103,103,103,103,103,103,103,103,103,103,103,103,
103,103,103,103,103,103,103,103,103,103,103,103,103,103,103,103,
103,103,103,103,103,103,103,103,103,103,103,103,103,103,103,103,
103,103,103,103,103,103,103,103,103,103,103,103,103,103,103,103
</chunk>
   <chunk x="80" y="-80" width="16" height="16">
103,103,103,103,103,103,103,103,103,0,0,0,0,0,0,0,
103,103,103,103,103,103,103,103,103,0,0,0,0,0,0,0,
103,103,103,103,103,103,103,103,103,0,0,0,0,0,0,0,
103,103,103,103,103,103,103,103,103,0,0,0,0,0,0,0,
103,103,103,103,103,103,103,103,103,0,0,0,0,0,0,0,
103,103,103,103,103,103,103,103,103,0,0,0,0,0,0,0,
103,103,103,103,103,103,103,103,103,0,0,0,0,0,0,0,
103,103,103,103,103,103,103,103,103,0,0,0,0,0,0,0,
103,103,103,103,103,103,103,103,103,0,0,0,0,0,0,0,
103,103,103,103,103,103,103,103,103,0,0,0,0,0,0,0,
103,103,103,103,103,103,103,103,103,0,0,0,0,0,0,0,
103,103,103,103,103,103,103,103,103,0,0,0,0,0,0,0,
103,103,103,103,103,103,103,103,103,0,0,0,0,0,0,0,
103,103,103,103,103,103,103,103,103,0,0,0,0,0,0,0,
103,103,103,103,103,103,103,103,103,0,0,0,0,0,0,0,
103,103,103,103,103,103,103,103,103,0,0,0,0,0,0,0
</chunk>
   <chunk x="-128" y="-64" width="16" height="16">
0,0,0,0,0,0,0,0,0,0,0,103,103,103,103,103,
0,0,0,0,0,0,0,0,0,0,0,103,103,103,103,103,
0,0,0,0,0,0,0,0,0,0,0,103,103,103,103,103,
0,0,0,0,0,0,0,0,0,0,0,103,103,103,103,103,
0,0,0,0,0,0,0,0,0,0,0,103,103,103,103,103,
0,0,0,0,0,0,0,0,0,0,0,103,103,103,103,103,
0,0,0,0,0,0,0,0,0,0,0,103,103,103,103,103,
0,0,0,0,0,0,0,0,0,0,0,103,103,103,103,103,
0,0,0,0,0,0,0,0,0,0,0,103,103,103,103,103,
0,0,0,0,0,0,0,0,0,0,0,103,103,103,103,103,
0,0,0,0,0,0,0,0,0,0,0,103,103,103,103,103,
0,0,0,0,0,0,0,0,0,0,0,103,103,103,103,103,
0,0,0,0,0,0,0,0,0,0,0,103,103,103,103,103,
0,0,0,0,0,0,0,0,0,0,0,103,103,103,103,103,
0,0,0,0,0,0,0,0,0,0,0,103,103,103,103,103,
0,0,0,0,0,0,0,0,0,0,0,103,103,103,103,103
</chunk>
   <chunk x="-112" y="-64" width="16" height="16">
103,103,103,103,103,103,103,103,103,103,103,103,103,103,103,103,
103,103,103,103,103,103,103,103,103,103,103,103,103,103,103,103,
103,103,103,103,103,103,103,103,103,103,103,103,103,103,103,103,
103,103,103,103,103,103,103,103,103,103,103,103,103,103,103,103,
103,103,103,103,103,103,103,103,103,103,103,103,103,103,103,103,
103,103,103,103,103,103,103,103,103,103,103,103,103,103,103,103,
103,103,103,103,103,103,103,103,103,103,103,103,103,103,103,103,
103,103,103,103,103,103,103,103,103,103,103,103,103,103,103,103,
103,103,103,103,103,103,103,103,103,103,103,103,103,103,103,103,
103,103,103,103,103,103,103,103,103,103,103,103,103,103,103,103,
103,103,103,103,103,103,103,103,103,103,103,103,103,103,103,103,
103,103,103,103,103,103,103,103,103,103,103,103,103,103,103,103,
103,103,103,103,103,103,103,103,103,103,103,103,103,103,103,103,
103,103,103,103,103,103,103,103,103,103,103,103,103,103,103,103,
103,103,103,103,103,103,103,103,103,103,103,103,103,103,103,103,
103,103,103,103,103,103,103,103,103,103,103,103,103,103,103,103
</chunk>
   <chunk x="-96" y="-64" width="16" height="16">
103,103,103,103,103,103,103,103,103,103,103,103,103,103,103,0,
103,103,103,103,103,103,103,103,103,103,103,103,103,103,103,0,
103,103,103,103,103,103,103,103,103,103,103,103,103,103,103,0,
103,103,103,103,103,103,103,103,103,103,103,103,103,103,103,0,
103,103,103,103,103,103,103,103,103,103,103,103,103,103,103,103,
103,103,103,103,103,103,103,103,103,103,103,103,103,103,103,103,
103,103,103,103,103,103,103,103,103,103,103,103,103,103,103,103,
103,103,103,103,103,103,103,103,103,103,103,103,103,103,103,103,
103,103,103,103,103,103,103,103,103,103,103,103,103,103,103,103,
103,103,103,103,103,103,103,103,103,103,103,103,103,103,103,103,
103,103,103,103,103,103,103,103,103,103,103,103,103,103,103,103,
103,103,103,103,103,103,103,103,103,103,103,103,103,103,103,103,
103,103,103,103,103,103,103,103,103,103,103,103,103,103,103,103,
103,103,103,103,103,103,103,103,103,103,103,103,103,103,103,103,
103,103,103,103,103,103,103,103,103,103,103,103,103,103,103,0,
103,103,103,103,103,103,103,103,103,103,103,103,103,103,103,0
</chunk>
   <chunk x="-80" y="-64" width="16" height="16">
0,0,0,0,0,0,0,0,0,0,0,0,0,0,0,0,
0,0,0,0,0,0,0,0,0,0,0,0,0,0,0,0,
0,0,0,0,0,0,0,0,0,0,0,0,0,0,0,0,
0,0,0,0,0,0,0,0,0,0,0,0,0,0,0,0,
103,103,103,103,103,103,103,103,103,103,103,103,103,103,103,103,
103,103,103,103,103,103,103,103,103,103,103,103,103,103,103,103,
103,103,103,103,103,103,103,103,103,103,103,103,103,103,103,103,
103,103,103,103,103,103,103,103,103,103,103,103,103,103,103,103,
103,103,103,103,103,103,103,103,103,103,103,103,103,103,103,103,
103,103,103,103,103,103,103,103,103,103,103,103,103,103,103,103,
103,103,103,103,103,103,103,103,103,103,103,103,103,103,103,103,
103,103,103,103,103,103,103,103,103,103,103,103,103,103,103,103,
103,103,103,103,103,103,103,103,103,103,103,103,103,103,103,103,
103,103,103,103,103,103,103,103,103,103,103,103,103,103,103,103,
0,0,0,0,0,0,0,0,0,0,0,0,0,0,0,0,
0,0,0,0,0,0,0,0,0,0,0,0,0,0,0,0
</chunk>
   <chunk x="-64" y="-64" width="16" height="16">
0,0,0,0,0,0,0,0,0,0,0,0,0,0,0,0,
0,0,0,0,0,0,0,0,0,0,0,0,0,0,0,0,
0,0,0,0,0,0,0,0,0,0,0,0,0,0,0,0,
0,0,0,0,0,0,0,0,0,0,0,0,0,0,0,0,
103,103,103,103,103,103,103,103,103,103,103,103,103,103,103,103,
103,103,103,103,103,103,103,103,103,103,103,103,103,103,103,103,
103,103,103,103,103,103,103,103,103,103,103,103,103,103,103,103,
103,103,103,103,103,103,103,103,103,103,103,103,103,103,103,103,
103,103,103,103,103,103,103,103,103,103,103,103,103,103,103,103,
103,103,103,103,103,103,103,103,103,103,103,103,103,103,103,103,
103,103,103,103,103,103,103,103,103,103,103,103,103,103,103,103,
103,103,103,103,103,103,103,103,103,103,103,103,103,103,103,103,
103,103,103,103,103,103,103,103,103,103,103,103,103,103,103,103,
103,103,103,103,103,103,103,103,103,103,103,103,103,103,103,103,
0,0,0,0,0,0,0,0,0,0,0,0,0,0,0,0,
0,0,0,0,0,0,0,0,0,0,0,0,0,0,0,0
</chunk>
   <chunk x="-48" y="-64" width="16" height="16">
0,0,0,0,0,0,0,0,0,0,0,0,0,0,0,0,
0,0,0,0,0,0,0,0,0,0,0,0,0,0,0,0,
0,0,0,0,0,0,0,0,0,0,0,0,0,0,0,0,
0,0,0,0,0,0,0,0,0,0,0,0,0,0,0,0,
103,103,103,103,103,103,103,103,103,103,103,103,103,103,103,103,
103,103,103,103,103,103,103,103,103,103,103,103,103,103,103,103,
103,103,103,103,103,103,103,103,103,103,103,103,103,103,103,103,
103,103,103,103,103,103,103,103,103,103,103,103,103,103,103,103,
103,103,103,103,103,103,103,103,103,103,103,103,103,103,103,103,
103,103,103,103,103,103,103,103,103,103,103,103,103,103,103,103,
103,103,103,103,103,103,103,103,103,103,103,103,103,103,103,103,
103,103,103,103,103,103,103,103,103,103,103,103,103,103,103,103,
103,103,103,103,103,103,103,103,103,103,103,103,103,103,103,103,
103,103,103,103,103,103,103,103,103,103,103,103,103,103,103,103,
0,0,0,0,0,0,0,0,0,0,0,0,0,0,0,0,
0,0,0,0,0,0,0,0,0,0,0,0,0,0,0,0
</chunk>
   <chunk x="-32" y="-64" width="16" height="16">
0,0,0,0,0,0,0,0,0,0,0,0,0,0,0,0,
0,0,0,0,0,0,0,0,0,0,0,0,0,0,0,0,
0,0,0,0,0,0,0,0,0,0,0,0,0,0,0,0,
0,0,0,0,0,0,0,0,0,0,0,0,0,0,0,0,
103,103,103,103,103,103,103,103,103,103,103,103,0,0,0,0,
103,103,103,103,103,103,103,103,103,103,103,103,0,0,0,0,
103,103,103,103,103,103,103,103,103,103,103,103,0,0,0,0,
103,103,103,103,103,103,103,103,103,103,103,103,0,0,0,0,
103,103,103,103,103,103,103,103,103,103,103,103,0,0,0,0,
103,103,103,103,103,103,103,103,103,103,103,103,0,0,0,0,
103,103,103,103,103,103,103,103,103,103,103,103,0,0,0,0,
103,103,103,103,103,103,103,103,103,103,103,103,0,0,0,0,
103,103,103,103,103,103,103,103,103,103,103,103,0,0,0,0,
103,103,103,103,103,103,103,103,103,103,103,103,0,0,0,0,
0,0,0,103,103,103,103,103,103,103,103,103,0,0,0,0,
0,0,0,103,103,103,103,103,103,103,103,103,0,0,0,0
</chunk>
   <chunk x="48" y="-64" width="16" height="16">
0,0,0,0,0,103,103,103,103,103,103,103,103,103,103,103,
0,0,0,0,0,103,103,103,103,103,103,103,103,103,103,103,
0,0,0,0,0,103,103,103,103,103,103,103,103,103,103,103,
0,0,0,0,0,103,103,103,103,103,103,103,103,103,103,103,
0,0,0,0,0,103,103,103,103,103,103,103,103,103,103,103,
0,0,0,0,0,103,103,103,103,103,103,103,103,103,103,103,
0,0,0,0,0,103,103,103,103,103,103,103,103,103,103,103,
0,0,0,0,0,103,103,103,103,103,103,103,103,103,103,103,
0,0,0,0,0,103,103,103,103,103,103,103,103,103,103,103,
0,0,0,0,0,103,103,103,103,103,103,103,103,103,103,103,
0,0,0,0,0,103,103,103,103,103,103,103,103,103,103,103,
0,0,0,0,0,103,103,103,103,103,103,103,103,103,103,103,
0,0,0,0,0,103,103,103,103,103,103,103,103,103,103,103,
0,0,0,0,0,103,103,103,103,103,103,103,103,103,103,103,
0,0,0,0,0,103,103,103,103,103,103,103,103,103,103,103,
0,0,0,0,0,103,103,103,103,103,103,103,103,103,103,103
</chunk>
   <chunk x="64" y="-64" width="16" height="16">
103,103,103,103,103,103,103,103,103,103,103,103,103,103,103,103,
103,103,103,103,103,103,103,103,103,103,103,103,103,103,103,103,
103,103,103,103,103,103,103,103,103,103,103,103,103,103,103,103,
103,103,103,103,103,103,103,103,103,103,103,103,103,103,103,103,
103,103,103,103,103,103,103,103,103,103,103,103,103,103,103,103,
103,103,103,103,103,103,103,103,103,103,103,103,103,103,103,103,
103,103,103,103,103,103,103,103,103,103,103,103,103,103,103,103,
103,103,103,103,103,103,103,103,103,103,103,103,103,103,103,103,
103,103,103,103,103,103,103,103,103,103,103,103,103,103,103,103,
103,103,103,103,103,103,103,103,103,103,103,103,103,103,103,103,
103,103,103,103,103,103,103,103,103,103,103,103,103,103,103,103,
103,103,103,103,103,103,103,103,103,103,103,103,103,103,103,103,
103,103,103,103,103,103,103,103,103,103,103,103,103,103,103,103,
103,103,103,103,103,103,103,103,103,103,103,103,103,103,103,103,
103,103,103,103,103,103,103,103,103,103,103,103,103,103,103,103,
103,103,103,103,103,103,103,103,103,103,103,103,103,103,103,103
</chunk>
   <chunk x="80" y="-64" width="16" height="16">
103,103,103,103,103,103,103,103,103,0,0,0,0,0,0,0,
103,103,103,103,103,103,103,103,103,0,0,0,0,0,0,0,
103,103,103,103,103,103,103,103,103,0,0,0,0,0,0,0,
103,103,103,103,103,103,103,103,103,0,0,0,0,0,0,0,
103,103,103,103,103,103,103,103,103,0,0,0,0,0,0,0,
103,103,103,103,103,103,103,103,103,0,0,0,0,0,0,0,
103,103,103,103,103,103,103,103,103,0,0,0,0,0,0,0,
103,103,103,103,103,103,103,103,103,0,0,0,0,0,0,0,
103,103,103,103,103,103,103,103,103,0,0,0,0,0,0,0,
103,103,103,103,103,103,103,103,103,0,0,0,0,0,0,0,
103,103,103,103,103,103,103,103,103,0,0,0,0,0,0,0,
103,103,103,103,103,103,103,103,103,0,0,0,0,0,0,0,
103,103,103,103,103,103,103,103,103,0,0,0,0,0,0,0,
103,103,103,103,103,103,103,103,103,0,0,0,0,0,0,0,
103,103,103,103,103,103,103,103,103,0,0,0,0,0,0,0,
103,103,103,103,103,103,103,103,103,0,0,0,0,0,0,0
</chunk>
   <chunk x="-128" y="-48" width="16" height="16">
0,0,0,0,0,0,0,0,0,0,0,103,103,103,103,103,
0,0,0,0,0,0,0,0,0,0,0,103,103,103,103,103,
0,0,0,0,0,0,0,0,0,0,0,103,103,103,103,103,
0,0,0,0,0,0,0,0,0,0,0,103,103,103,103,103,
0,0,0,0,0,0,0,0,0,0,0,103,103,103,103,103,
0,0,0,0,0,0,0,0,0,0,0,103,103,103,103,103,
0,0,0,0,0,0,0,0,0,0,0,103,103,103,103,103,
0,0,0,0,0,0,0,0,0,0,0,103,103,103,103,103,
0,0,0,0,0,0,0,0,0,0,0,103,103,103,103,103,
0,0,0,0,0,0,0,0,0,0,0,103,103,103,103,103,
0,0,0,0,0,0,0,0,0,0,0,103,103,103,103,103,
0,0,0,0,0,0,0,0,0,0,0,103,103,103,103,103,
0,0,0,0,0,0,0,0,0,0,0,103,103,103,103,103,
0,0,0,0,0,0,0,0,0,0,0,103,103,103,103,103,
0,0,0,0,0,0,0,0,0,0,0,103,103,103,103,103,
0,0,0,0,0,0,0,0,0,0,0,103,103,103,103,103
</chunk>
   <chunk x="-112" y="-48" width="16" height="16">
103,103,103,103,103,103,103,103,103,103,103,103,103,103,103,103,
103,103,103,103,103,103,103,103,103,103,103,103,103,103,103,103,
103,103,103,103,103,103,103,103,103,103,103,103,103,103,103,103,
103,103,103,103,103,103,103,103,103,103,103,103,103,103,103,103,
103,103,103,103,103,103,103,103,103,103,103,103,103,103,103,103,
103,103,103,103,103,103,103,103,103,103,103,103,103,103,103,103,
103,103,103,103,103,103,103,103,103,103,103,103,103,103,103,103,
103,103,103,103,103,103,103,103,103,103,103,103,103,103,103,103,
103,103,103,103,103,103,103,103,103,103,103,103,103,103,103,103,
103,103,103,103,103,103,103,103,103,103,103,103,103,103,103,103,
103,103,103,103,103,103,103,103,103,103,103,103,103,103,103,103,
103,103,103,103,103,103,103,103,103,103,103,103,103,103,103,103,
103,103,103,103,103,103,103,103,103,103,103,103,103,103,103,103,
103,103,103,103,103,103,103,103,103,103,103,103,103,103,103,103,
103,103,103,103,103,103,103,103,103,103,103,103,103,103,103,103,
103,103,103,103,103,103,103,103,103,103,103,103,103,103,103,103
</chunk>
   <chunk x="-96" y="-48" width="16" height="16">
103,103,103,103,103,103,103,103,103,103,103,103,103,103,103,0,
103,103,103,103,103,103,103,103,103,103,103,103,103,103,103,0,
103,103,103,103,103,103,103,103,103,103,103,103,103,103,103,0,
103,103,103,103,103,103,103,103,103,103,103,103,103,103,103,0,
103,103,103,103,103,103,103,103,103,103,103,103,103,103,103,0,
103,103,103,103,103,103,103,103,103,103,103,103,103,103,103,0,
103,103,103,103,103,103,103,103,103,103,103,103,103,103,103,0,
103,103,103,103,103,103,103,103,103,103,103,103,103,103,103,0,
103,103,103,103,103,103,103,103,103,103,103,103,103,103,103,0,
103,103,103,103,103,103,103,103,103,103,103,103,103,103,103,0,
103,103,103,103,103,103,103,103,103,103,103,103,103,103,103,0,
103,103,103,103,103,103,103,103,103,103,103,103,103,103,103,0,
103,103,103,103,103,103,103,103,103,103,103,103,103,103,103,0,
103,103,103,103,103,103,103,103,103,103,103,103,103,103,103,0,
103,103,103,103,103,103,103,103,103,103,103,103,103,103,103,0,
103,103,103,103,103,103,103,103,103,103,103,103,103,103,103,0
</chunk>
   <chunk x="-48" y="-48" width="16" height="16">
0,0,0,0,0,0,0,0,0,0,0,0,0,0,0,0,
0,0,0,0,0,0,0,0,0,0,0,0,0,0,0,0,
0,0,0,0,0,0,0,0,0,0,0,0,0,0,0,0,
0,0,0,0,0,0,0,0,0,0,0,0,0,0,0,0,
0,0,0,0,0,0,0,0,0,0,0,0,0,0,0,0,
0,0,0,0,0,0,0,0,0,0,0,0,0,0,0,0,
0,0,0,0,0,0,0,0,0,0,0,0,0,0,0,0,
0,0,0,0,0,0,0,0,0,0,0,0,0,0,0,0,
0,0,0,0,0,0,0,0,0,0,0,0,0,0,0,0,
0,0,0,0,0,0,0,0,0,0,0,0,0,0,0,0,
0,0,0,0,0,0,0,0,0,0,0,0,0,0,0,103,
0,0,0,0,0,0,0,0,0,0,0,0,0,0,0,103,
0,0,0,0,0,0,0,0,0,0,0,0,0,0,0,103,
0,0,0,0,0,0,0,0,0,0,0,0,0,0,0,103,
0,0,0,0,0,0,0,0,0,0,0,0,0,0,0,103,
0,0,0,0,0,0,0,0,0,0,0,0,0,0,0,103
</chunk>
   <chunk x="-32" y="-48" width="16" height="16">
0,0,0,103,103,103,103,103,103,103,103,103,0,0,0,0,
0,0,0,103,103,103,103,103,103,103,103,103,0,0,0,0,
0,0,0,103,103,103,103,103,103,103,103,103,0,0,0,0,
0,0,0,103,103,103,103,103,103,103,103,103,0,0,0,0,
0,0,0,103,103,103,103,103,103,103,103,103,0,0,0,0,
0,0,0,103,103,103,103,103,103,103,103,103,0,0,0,0,
0,0,0,103,103,103,103,103,103,103,103,103,0,0,0,0,
0,0,0,103,103,103,103,103,103,103,103,103,0,0,0,0,
0,0,0,103,103,103,103,103,103,103,103,103,0,0,0,0,
0,0,0,103,103,103,103,103,103,103,103,103,0,0,0,0,
103,103,103,103,103,103,103,103,103,103,103,103,103,103,103,103,
103,103,103,103,103,103,103,103,103,103,103,103,103,103,103,103,
103,103,103,103,103,103,103,103,103,103,103,103,103,103,103,103,
103,103,103,103,103,103,103,103,103,103,103,103,103,103,103,103,
103,103,103,103,103,103,103,103,103,103,103,103,103,103,103,103,
103,103,103,103,103,103,103,103,103,103,103,103,103,103,103,103
</chunk>
   <chunk x="-16" y="-48" width="16" height="16">
0,0,0,0,0,0,0,0,0,0,0,0,0,0,0,0,
0,0,0,0,0,0,0,0,0,0,0,0,0,0,0,0,
0,0,0,0,0,0,0,0,0,0,0,0,0,0,0,0,
0,0,0,0,0,0,0,0,0,0,0,0,0,0,0,0,
0,0,0,0,0,0,0,0,0,0,0,0,0,0,0,0,
0,0,0,0,0,0,0,0,0,0,0,0,0,0,0,0,
0,0,0,0,0,0,0,0,0,0,0,0,0,0,0,0,
0,0,0,0,0,0,0,0,0,0,0,0,0,0,0,0,
0,0,0,0,0,0,0,0,0,0,0,0,0,0,0,0,
0,0,0,0,0,0,0,0,0,0,0,0,0,0,0,0,
103,103,103,103,103,103,103,103,103,103,103,103,103,103,103,103,
103,103,103,103,103,103,103,103,103,103,103,103,103,103,103,103,
103,103,103,103,103,103,103,103,103,103,103,103,103,103,103,103,
103,103,103,103,103,103,103,103,103,103,103,103,103,103,103,103,
103,103,103,103,103,103,103,103,103,103,103,103,103,103,103,103,
103,103,103,103,103,103,103,103,103,103,103,103,103,103,103,103
</chunk>
   <chunk x="0" y="-48" width="16" height="16">
0,0,0,0,0,0,0,0,0,0,0,0,0,0,0,0,
0,0,0,0,0,0,0,0,0,0,0,0,0,0,0,0,
0,0,0,0,0,0,0,0,0,0,0,0,0,0,0,0,
0,0,0,0,0,0,0,0,0,0,0,0,0,0,0,0,
0,0,0,0,0,0,0,0,0,0,0,0,0,0,0,0,
0,0,0,0,0,0,0,0,0,0,0,0,0,0,0,0,
0,0,0,0,0,0,0,0,0,0,0,0,0,0,0,0,
0,0,0,0,0,0,0,0,0,0,0,0,0,0,0,0,
0,0,0,0,0,0,0,0,0,0,0,0,0,0,0,0,
0,0,0,0,0,0,0,0,0,0,0,0,0,0,0,0,
103,103,103,103,103,103,0,0,0,0,0,0,0,0,0,0,
103,103,103,103,103,103,0,0,0,0,0,0,0,0,0,0,
103,103,103,103,103,103,0,0,0,0,0,0,0,0,0,0,
103,103,103,103,103,103,0,0,0,0,0,0,0,0,0,0,
103,103,103,103,103,103,0,0,0,0,0,0,0,0,0,0,
103,103,103,103,103,103,0,0,0,0,0,0,0,0,0,0
</chunk>
   <chunk x="48" y="-48" width="16" height="16">
0,0,0,0,0,103,103,103,103,103,103,103,103,103,103,103,
0,0,0,0,0,103,103,103,103,103,103,103,103,103,103,103,
0,0,0,0,0,103,103,103,103,103,103,103,103,103,103,103,
0,0,0,0,0,103,103,103,103,103,103,103,103,103,103,103,
0,0,0,0,0,103,103,103,103,103,103,103,103,103,103,103,
0,0,0,0,0,103,103,103,103,103,103,103,103,103,103,103,
0,0,0,0,0,103,103,103,103,103,103,103,103,103,103,103,
0,0,0,0,0,103,103,103,103,103,103,103,103,103,103,103,
0,0,0,0,0,103,103,103,103,103,103,103,103,103,103,103,
0,0,0,0,0,103,103,103,103,103,103,103,103,103,103,103,
0,0,0,0,0,103,103,103,103,103,103,103,103,103,103,103,
0,0,0,0,0,103,103,103,103,103,103,103,103,103,103,103,
0,0,0,0,0,103,103,103,103,103,103,103,103,103,103,103,
0,0,0,0,0,103,103,103,103,103,103,103,103,103,103,103,
0,0,0,0,0,103,103,103,103,103,103,103,103,103,103,103,
0,0,0,0,0,103,103,103,103,103,103,103,103,103,103,103
</chunk>
   <chunk x="64" y="-48" width="16" height="16">
103,103,103,103,103,103,103,103,103,103,103,103,103,103,103,103,
103,103,103,103,103,103,103,103,103,103,103,103,103,103,103,103,
103,103,103,103,103,103,103,103,103,103,103,103,103,103,103,103,
103,103,103,103,103,103,103,103,103,103,103,103,103,103,103,103,
103,103,103,103,103,103,103,103,103,103,103,103,103,103,103,103,
103,103,103,103,103,103,103,103,103,103,103,103,103,103,103,103,
103,103,103,103,103,103,103,103,103,103,103,103,103,103,103,103,
103,103,103,103,103,103,103,103,103,103,103,103,103,103,103,103,
103,103,103,103,103,103,103,103,103,103,103,103,103,103,103,103,
103,103,103,103,103,103,103,103,103,103,103,103,103,103,103,103,
103,103,103,103,103,103,103,103,103,103,103,103,103,103,103,103,
103,103,103,103,103,103,103,103,103,103,103,103,103,103,103,103,
103,103,103,103,103,103,103,103,103,103,103,103,103,103,103,103,
103,103,103,103,103,103,103,103,103,103,103,103,103,103,103,103,
103,103,103,103,103,103,103,103,103,103,103,103,103,103,103,103,
103,103,103,103,103,103,103,103,103,103,103,103,103,103,103,103
</chunk>
   <chunk x="80" y="-48" width="16" height="16">
103,103,103,103,103,103,103,103,103,0,0,0,0,0,0,0,
103,103,103,103,103,103,103,103,103,0,0,0,0,0,0,0,
103,103,103,103,103,103,103,103,103,0,0,0,0,0,0,0,
103,103,103,103,103,103,103,103,103,0,0,0,0,0,0,0,
103,103,103,103,103,103,103,103,103,0,0,0,0,0,0,0,
103,103,103,103,103,103,103,103,103,0,0,0,0,0,0,0,
103,103,103,103,103,103,103,103,103,0,0,0,0,0,0,0,
103,103,103,103,103,103,103,103,103,0,0,0,0,0,0,0,
103,103,103,103,103,103,103,103,103,0,0,0,0,0,0,0,
103,103,103,103,103,103,103,103,103,0,0,0,0,0,0,0,
103,103,103,103,103,103,103,103,103,0,0,0,0,0,0,0,
103,103,103,103,103,103,103,103,103,0,0,0,0,0,0,0,
103,103,103,103,103,103,103,103,103,0,0,0,0,0,0,0,
103,103,103,103,103,103,103,103,103,0,0,0,0,0,0,0,
103,103,103,103,103,103,103,103,103,0,0,0,0,0,0,0,
103,103,103,103,103,103,103,103,103,0,0,0,0,0,0,0
</chunk>
   <chunk x="-128" y="-32" width="16" height="16">
0,0,0,0,0,0,0,0,0,0,0,103,103,103,103,103,
0,0,0,0,0,0,0,0,0,0,0,103,103,103,103,103,
0,0,0,0,0,0,0,0,0,0,0,0,0,0,0,0,
0,0,0,0,0,0,0,0,0,0,0,0,0,0,0,0,
0,0,0,0,0,0,0,0,0,0,0,0,0,0,0,0,
0,0,0,0,0,0,0,0,0,0,0,0,0,0,0,0,
0,0,0,0,0,0,0,0,0,0,0,0,0,0,0,0,
0,0,0,0,0,0,0,0,0,0,0,0,0,0,0,0,
0,0,0,0,0,0,0,0,0,0,0,0,0,0,0,0,
0,0,0,0,0,0,0,0,0,0,0,0,0,0,0,0,
0,0,0,0,0,0,0,0,0,0,0,0,0,0,0,0,
0,0,0,0,0,0,0,0,0,0,0,0,0,0,0,0,
0,0,0,0,0,0,0,0,0,0,0,0,0,0,0,0,
0,0,0,0,0,0,0,0,0,0,0,0,0,0,0,0,
0,0,0,0,0,0,0,0,0,0,0,0,0,0,0,0,
0,0,0,0,0,0,0,0,0,0,0,0,0,0,0,0
</chunk>
   <chunk x="-112" y="-32" width="16" height="16">
103,103,103,103,103,103,103,103,103,103,103,103,103,103,103,103,
103,103,103,103,103,103,103,103,103,103,103,103,103,103,103,103,
0,0,0,0,0,0,0,0,0,0,0,0,0,0,0,0,
0,0,0,0,0,0,0,0,0,0,0,0,0,0,0,0,
0,0,0,0,0,0,0,0,0,0,0,0,0,0,0,0,
0,0,0,0,0,0,0,0,0,0,0,0,0,0,0,0,
0,0,0,0,0,0,0,0,0,0,0,0,0,0,0,0,
0,0,0,0,0,0,0,0,0,0,0,0,0,0,0,0,
0,0,0,0,0,0,0,0,0,0,0,0,0,0,0,0,
0,0,0,0,0,0,0,0,0,0,0,0,0,0,0,0,
0,0,0,0,0,0,0,0,0,0,0,0,0,0,0,0,
0,0,0,0,0,0,0,0,0,0,0,0,0,0,0,0,
0,0,0,0,0,0,0,0,0,0,0,0,0,0,0,0,
0,0,0,0,0,0,0,0,0,0,0,0,0,0,0,0,
0,0,0,0,0,0,0,0,0,0,0,0,0,0,0,0,
0,0,0,0,0,0,0,0,0,0,0,0,0,0,0,0
</chunk>
   <chunk x="-96" y="-32" width="16" height="16">
103,103,103,103,103,103,103,103,103,103,103,103,103,103,103,0,
103,103,103,103,103,103,103,103,103,103,103,103,103,103,103,0,
0,0,0,0,0,0,0,0,0,0,0,0,0,0,0,0,
0,0,0,0,0,0,0,0,0,0,0,0,0,0,0,0,
0,0,0,0,0,0,0,0,0,0,0,0,0,0,0,0,
0,0,0,0,0,0,0,0,0,0,0,0,0,0,0,0,
0,0,0,0,0,0,0,0,0,0,0,0,0,0,0,0,
0,0,0,0,0,0,0,0,0,0,0,0,0,0,0,0,
0,0,0,0,0,0,0,0,0,0,0,0,0,0,0,0,
0,0,0,0,0,0,0,0,0,0,0,0,0,0,0,0,
0,0,0,0,0,0,0,0,0,0,0,0,0,0,0,0,
0,0,0,0,0,0,0,0,0,0,0,0,0,0,0,0,
0,0,0,0,0,0,0,0,0,0,0,0,0,0,0,0,
0,0,0,0,0,0,0,0,0,0,0,0,0,0,0,0,
0,0,0,0,0,0,0,0,0,0,0,0,0,0,0,0,
0,0,0,0,0,0,0,0,0,0,0,0,0,0,0,0
</chunk>
   <chunk x="-48" y="-32" width="16" height="16">
0,0,0,0,0,0,0,0,0,0,0,0,0,0,0,103,
0,0,0,0,0,0,0,0,0,0,0,0,0,0,0,103,
0,0,0,0,0,0,0,0,0,0,0,0,0,0,0,103,
0,0,0,0,0,0,0,0,0,0,0,0,0,0,0,103,
0,0,0,0,0,0,0,0,0,0,0,0,0,0,0,103,
0,0,0,0,0,0,0,0,0,0,0,0,0,0,0,103,
0,0,0,0,0,0,0,0,0,0,0,0,0,0,0,103,
0,0,0,0,0,0,0,0,0,0,0,0,0,0,0,103,
0,0,0,0,0,0,0,0,0,0,0,0,0,0,0,103,
0,0,0,0,0,0,0,0,0,0,0,0,0,0,0,103,
0,0,0,0,0,0,0,0,0,0,0,0,0,0,0,103,
0,0,0,0,0,0,0,0,0,0,0,0,0,0,0,103,
0,0,0,0,0,0,0,0,0,0,0,0,0,0,0,103,
0,0,0,0,0,0,0,0,0,0,0,0,0,0,0,103,
0,0,0,0,0,0,0,0,0,0,0,0,0,0,0,103,
0,0,0,0,0,0,0,0,0,0,0,0,0,0,0,103
</chunk>
   <chunk x="-32" y="-32" width="16" height="16">
103,103,103,103,103,103,103,103,103,103,103,103,103,103,103,103,
103,103,103,103,103,103,103,103,103,103,103,103,103,103,103,103,
103,103,103,103,103,103,103,103,103,103,103,103,103,103,103,103,
103,103,103,103,103,103,103,103,103,103,103,103,103,103,103,103,
103,103,103,103,103,103,103,103,103,103,103,103,103,103,103,103,
103,103,103,103,103,103,103,103,103,103,103,103,103,103,103,103,
103,103,103,103,103,103,103,103,103,103,103,103,103,103,103,103,
103,103,103,103,103,103,103,103,103,103,103,103,103,103,103,103,
103,103,103,103,103,103,103,103,103,103,103,103,103,103,103,103,
103,103,103,103,103,103,103,103,103,103,103,103,103,103,103,103,
103,103,103,103,103,103,103,103,103,103,103,103,103,103,103,103,
103,103,103,103,103,103,103,103,103,103,103,103,103,103,103,103,
103,103,103,103,103,103,103,103,103,103,103,103,103,103,103,103,
103,103,103,103,103,103,103,103,103,103,103,103,103,103,103,103,
103,103,103,103,103,103,103,103,103,103,103,103,103,103,103,103,
103,103,103,103,103,103,103,103,103,103,103,103,103,103,103,103
</chunk>
   <chunk x="-16" y="-32" width="16" height="16">
103,103,103,103,103,103,103,103,103,103,103,103,103,103,103,103,
103,103,103,103,103,103,103,103,103,103,103,103,103,103,103,103,
103,103,103,103,103,103,103,103,103,103,103,103,103,103,103,103,
103,103,103,103,103,103,103,103,103,103,103,103,103,103,103,103,
103,103,103,103,103,103,103,103,103,103,103,103,103,103,103,103,
103,103,103,103,103,103,103,103,103,103,103,103,103,103,103,103,
103,103,103,103,103,103,103,103,103,103,103,103,103,103,103,103,
103,103,103,103,103,103,103,103,103,103,103,103,103,103,103,103,
103,103,103,103,103,103,103,103,103,103,103,103,103,103,103,103,
103,103,103,103,103,103,103,103,103,103,103,103,103,103,103,103,
103,103,103,103,103,103,103,103,103,103,103,103,103,103,103,103,
103,103,103,103,103,103,103,103,103,103,103,103,103,103,103,103,
103,103,103,103,103,103,103,103,103,103,103,103,103,103,103,103,
103,103,103,103,103,103,103,103,103,103,103,103,103,103,103,103,
103,103,103,103,103,103,103,103,103,103,103,103,103,103,103,103,
103,103,103,103,103,103,103,103,103,103,103,103,103,103,103,103
</chunk>
   <chunk x="0" y="-32" width="16" height="16">
103,103,103,103,103,103,0,0,0,0,0,0,0,0,0,0,
103,103,103,103,103,103,0,0,0,0,0,0,0,0,0,0,
103,103,103,103,103,103,0,0,0,0,0,0,0,0,0,0,
103,103,103,103,103,103,0,0,0,0,0,0,0,0,0,0,
103,103,103,103,103,103,0,0,0,0,0,0,0,0,0,0,
103,103,103,103,103,103,0,0,0,0,0,0,0,0,0,0,
103,103,103,103,103,103,0,0,0,0,0,0,0,0,0,0,
103,103,103,103,103,103,0,0,0,0,0,0,0,0,0,0,
103,103,103,103,103,103,0,0,0,0,0,0,0,0,0,0,
103,103,103,103,103,103,0,0,0,0,0,0,0,0,0,0,
103,103,103,103,103,103,0,0,0,0,0,0,0,0,0,0,
103,103,103,103,103,103,0,0,0,0,0,0,0,0,0,0,
103,103,103,103,103,103,0,0,0,0,0,0,0,0,0,0,
103,103,103,103,103,103,0,0,0,0,0,0,0,0,0,0,
103,103,103,103,103,103,0,0,0,0,0,0,0,0,0,0,
103,103,103,103,103,103,0,0,0,0,0,0,0,0,0,0
</chunk>
   <chunk x="48" y="-32" width="16" height="16">
0,0,0,0,0,103,103,103,103,103,103,103,103,103,103,103,
0,0,0,0,0,103,103,103,103,103,103,103,103,103,103,103,
0,0,0,0,0,103,103,103,103,103,103,103,103,103,103,103,
0,0,0,0,0,103,103,103,103,103,103,103,103,103,103,103,
0,0,0,0,0,103,103,103,103,103,103,103,103,103,103,103,
0,0,0,0,0,103,103,103,103,103,103,103,103,103,103,103,
0,0,0,0,0,103,103,103,103,103,103,103,103,103,103,103,
0,0,0,0,0,103,103,103,103,103,103,103,103,103,103,103,
0,0,0,0,0,103,103,103,103,103,103,103,103,103,103,103,
0,0,0,0,0,103,103,103,103,103,103,103,103,103,103,103,
0,0,0,0,0,103,103,103,103,103,103,103,103,103,103,103,
0,0,0,0,0,103,103,103,103,103,103,103,103,103,103,103,
0,0,0,0,0,103,103,103,103,103,103,103,103,103,103,103,
0,0,0,0,0,103,103,103,103,103,103,103,103,103,103,103,
0,0,0,0,0,103,103,103,103,103,103,103,103,103,103,103,
0,0,0,0,0,103,103,103,103,103,103,103,103,103,103,103
</chunk>
   <chunk x="64" y="-32" width="16" height="16">
103,103,103,103,103,103,103,103,103,103,103,103,103,103,103,103,
103,103,103,103,103,103,103,103,103,103,103,103,103,103,103,103,
103,103,103,103,103,103,103,103,103,103,103,103,103,103,103,103,
103,103,103,103,103,103,103,103,103,103,103,103,103,103,103,103,
103,103,103,103,103,103,103,103,103,103,103,103,103,103,103,103,
103,103,103,103,103,103,103,103,103,103,103,103,103,103,103,103,
103,103,103,103,103,103,103,103,103,103,103,103,103,103,103,103,
103,103,103,103,103,103,103,103,103,103,103,103,103,103,103,103,
103,103,103,103,103,103,103,103,103,103,103,103,103,103,103,103,
103,103,103,103,103,103,103,103,103,103,103,103,103,103,103,103,
103,103,103,103,103,103,103,103,103,103,103,103,103,103,103,103,
103,103,103,103,103,103,103,103,103,103,103,103,103,103,103,103,
103,103,103,103,103,103,103,103,103,103,103,103,103,103,103,103,
103,103,103,103,103,103,103,103,103,103,103,103,103,103,103,103,
103,103,103,103,103,103,103,103,103,103,103,103,103,103,103,103,
103,103,103,103,103,103,103,103,103,103,103,103,103,103,103,103
</chunk>
   <chunk x="80" y="-32" width="16" height="16">
103,103,103,103,103,103,103,103,103,0,0,0,0,0,0,0,
103,103,103,103,103,103,103,103,103,0,0,0,0,0,0,0,
103,103,103,103,103,103,103,103,103,0,0,0,0,0,0,0,
103,103,103,103,103,103,103,103,103,0,0,0,0,0,0,0,
103,103,103,103,103,103,103,103,103,0,0,0,0,0,0,0,
103,103,103,103,103,103,103,103,103,0,0,0,0,0,0,0,
103,103,103,103,103,103,103,103,103,0,0,0,0,0,0,0,
103,103,103,103,103,103,103,103,103,0,0,0,0,0,0,0,
103,103,103,103,103,103,103,103,103,0,0,0,0,0,0,0,
103,103,103,103,103,103,103,103,103,0,0,0,0,0,0,0,
103,103,103,103,103,103,103,103,103,0,0,0,0,0,0,0,
103,103,103,103,103,103,103,103,103,0,0,0,0,0,0,0,
103,103,103,103,103,103,103,103,103,0,0,0,0,0,0,0,
103,103,103,103,103,103,103,103,103,0,0,0,0,0,0,0,
103,103,103,103,103,103,103,103,103,0,0,0,0,0,0,0,
103,103,103,103,103,103,103,103,103,0,0,0,0,0,0,0
</chunk>
   <chunk x="-48" y="-16" width="16" height="16">
0,0,0,0,0,0,0,0,0,0,0,0,0,0,0,103,
0,0,0,0,0,0,0,0,0,0,0,0,0,0,0,103,
0,0,0,0,0,0,0,0,0,0,0,0,0,0,0,103,
0,0,0,0,0,0,0,0,0,0,0,0,0,0,0,103,
0,0,0,0,0,0,0,0,0,0,0,0,0,0,0,103,
0,0,0,0,0,0,0,0,0,0,0,0,0,0,0,103,
0,0,0,0,0,0,0,0,0,0,0,0,0,0,0,103,
0,0,0,0,0,0,0,0,0,0,0,0,0,0,0,103,
0,0,0,0,0,0,0,0,0,0,0,0,0,0,0,103,
0,0,0,0,0,0,0,0,0,0,0,0,0,0,0,103,
0,0,0,0,0,0,0,0,0,0,0,0,0,0,0,103,
0,0,0,0,0,0,0,0,0,0,0,0,0,0,0,103,
0,0,0,0,0,0,0,0,0,0,0,0,0,0,0,103,
0,0,0,0,0,0,0,0,0,0,0,0,0,0,0,103,
0,0,0,0,0,0,0,0,0,0,0,0,0,0,0,103,
0,0,0,0,0,0,0,0,0,0,0,0,0,0,0,0
</chunk>
   <chunk x="-32" y="-16" width="16" height="16">
103,103,103,103,103,103,103,103,103,103,103,103,103,103,103,103,
103,103,103,103,103,103,103,103,103,103,103,103,103,103,103,103,
103,103,103,103,103,103,103,103,103,103,103,103,103,103,103,103,
103,103,103,103,103,103,103,103,103,103,103,103,103,103,103,103,
103,103,103,103,103,103,103,103,103,103,103,103,103,103,103,103,
103,103,103,103,103,103,103,103,103,103,103,103,103,103,103,103,
103,103,103,103,103,103,103,103,103,103,103,103,103,103,103,103,
103,103,103,103,103,103,103,103,103,103,103,103,103,103,103,103,
103,103,103,103,103,103,103,103,103,103,103,103,103,103,103,103,
103,103,103,103,103,103,103,103,103,103,103,103,103,103,103,103,
103,103,103,103,103,103,103,103,103,103,103,103,103,103,103,103,
103,103,103,103,103,103,103,103,103,103,103,103,103,103,103,103,
103,103,103,103,103,103,103,103,103,103,103,103,103,103,103,103,
103,103,103,103,103,103,103,103,103,103,103,103,103,103,103,103,
103,103,103,103,103,103,103,103,103,103,103,103,103,103,103,103,
0,0,0,0,0,0,0,0,0,0,0,0,103,103,103,103
</chunk>
   <chunk x="-16" y="-16" width="16" height="16">
103,103,103,103,103,103,103,103,103,103,103,103,103,103,103,103,
103,103,103,103,103,103,103,103,103,103,103,103,103,103,103,103,
103,103,103,103,103,103,103,103,103,103,103,103,103,103,103,103,
103,103,103,103,103,103,103,103,103,103,103,103,103,103,103,103,
103,103,103,103,103,103,103,103,103,103,103,103,103,103,103,103,
103,103,103,103,103,103,103,103,103,103,103,103,103,103,103,103,
103,103,103,103,103,103,103,103,103,103,103,103,103,103,103,103,
103,103,103,103,103,103,103,103,103,103,103,103,103,103,103,103,
103,103,103,103,103,103,103,103,103,103,103,103,103,103,103,103,
103,103,103,103,103,103,103,103,103,103,103,103,103,103,103,103,
103,103,103,103,103,103,103,103,103,103,103,103,103,103,103,103,
103,103,103,103,103,103,103,103,103,103,103,103,103,103,103,103,
103,103,103,103,103,103,103,103,103,103,103,103,103,103,103,103,
103,103,103,103,103,103,103,103,103,103,103,103,103,103,103,103,
103,103,103,103,103,103,103,103,103,103,103,103,103,103,103,103,
103,103,103,103,103,103,0,0,0,0,0,0,0,0,0,0
</chunk>
   <chunk x="0" y="-16" width="16" height="16">
103,103,103,103,103,103,0,0,0,0,0,0,0,0,0,0,
103,103,103,103,103,103,0,0,0,0,0,0,0,0,0,0,
103,103,103,103,103,103,0,0,0,0,0,0,0,0,0,0,
103,103,103,103,103,103,0,0,0,0,0,0,0,0,0,0,
103,103,103,103,103,103,0,0,0,0,0,0,0,0,0,0,
103,103,103,103,103,103,0,0,0,0,0,0,0,0,0,0,
103,103,103,103,103,103,0,0,0,0,0,0,0,0,0,0,
103,103,103,103,103,103,0,0,0,0,0,0,0,0,0,0,
103,103,103,103,103,103,0,0,0,0,0,0,0,0,0,0,
103,103,103,103,103,103,0,0,0,0,0,0,0,0,0,0,
103,103,103,103,103,103,0,0,0,0,0,0,0,0,0,0,
103,103,103,103,103,103,0,0,0,0,0,0,0,0,0,0,
103,103,103,103,103,103,0,0,0,0,0,0,0,0,0,0,
103,103,103,103,103,103,0,0,0,0,0,0,0,0,0,0,
103,103,103,103,103,103,0,0,0,0,0,0,0,0,0,0,
0,0,0,0,0,0,0,0,0,0,0,0,0,0,0,0
</chunk>
   <chunk x="48" y="-16" width="16" height="16">
0,0,0,0,0,103,103,103,103,103,103,103,103,103,103,103,
0,0,0,0,0,103,103,103,103,103,103,103,103,103,103,103,
0,0,0,0,0,103,103,103,103,103,103,103,103,103,103,103,
0,0,0,0,0,103,103,103,103,103,103,103,103,103,103,103,
0,0,0,0,0,103,103,103,103,103,103,103,103,103,103,103,
0,0,0,0,0,103,103,103,103,103,103,103,103,103,103,103,
0,0,0,0,0,103,103,103,103,103,103,103,103,103,103,103,
0,0,0,0,0,103,103,103,103,103,103,103,103,103,103,103,
0,0,0,0,0,103,103,103,103,103,103,103,103,103,103,103,
0,0,0,0,0,103,103,103,103,103,103,103,103,103,103,103,
0,0,0,0,0,103,103,103,103,103,103,103,103,103,103,103,
0,0,0,0,0,103,103,103,103,103,103,103,103,103,103,103,
0,0,0,0,0,103,103,103,103,103,103,103,103,103,103,103,
0,0,0,0,0,103,103,103,103,103,103,103,103,103,103,103,
0,0,0,0,0,103,103,103,103,103,103,103,103,103,103,103,
0,0,0,0,0,103,103,103,103,103,103,103,103,103,103,103
</chunk>
   <chunk x="64" y="-16" width="16" height="16">
103,103,103,103,103,103,103,103,103,103,103,103,103,103,103,103,
103,103,103,103,103,103,103,103,103,103,103,103,103,103,103,103,
103,103,103,103,103,103,103,103,103,103,103,103,103,103,103,103,
103,103,103,103,103,103,103,103,103,103,103,103,103,103,103,103,
103,103,103,103,103,103,103,103,103,103,103,103,103,103,103,103,
103,103,103,103,103,103,103,103,103,103,103,103,103,103,103,103,
103,103,103,103,103,103,103,103,103,103,103,103,103,103,103,103,
103,103,103,103,103,103,103,103,103,103,103,103,103,103,103,103,
103,103,103,103,103,103,103,103,103,103,103,103,103,103,103,103,
103,103,103,103,103,103,103,103,103,103,103,103,103,103,103,103,
103,103,103,103,103,103,103,103,103,103,103,103,103,103,103,103,
103,103,103,103,103,103,103,103,103,103,103,103,103,103,103,103,
103,103,103,103,103,103,103,103,103,103,103,103,103,103,103,103,
103,103,103,103,103,103,103,103,103,103,103,103,103,103,103,103,
103,103,103,103,103,103,103,103,103,103,103,103,103,103,103,103,
103,103,103,103,103,103,103,103,103,103,103,103,103,103,103,103
</chunk>
   <chunk x="80" y="-16" width="16" height="16">
103,103,103,103,103,103,103,103,103,0,0,0,0,0,0,0,
103,103,103,103,103,103,103,103,103,0,0,0,0,0,0,0,
103,103,103,103,103,103,103,103,103,0,0,0,0,0,0,0,
103,103,103,103,103,103,103,103,103,0,0,0,0,0,0,0,
103,103,103,103,103,103,103,103,103,0,0,0,0,0,0,0,
103,103,103,103,103,103,103,103,103,0,0,0,0,0,0,0,
103,103,103,103,103,103,103,103,103,0,0,0,0,0,0,0,
103,103,103,103,103,103,103,103,103,0,0,0,0,0,0,0,
103,103,103,103,103,103,103,103,103,0,0,0,0,0,0,0,
103,103,103,103,103,103,103,103,103,0,0,0,0,0,0,0,
103,103,103,103,103,103,103,103,103,0,0,0,0,0,0,0,
103,103,103,103,103,103,103,103,103,0,0,0,0,0,0,0,
103,103,103,103,103,103,103,103,103,0,0,0,0,0,0,0,
103,103,103,103,103,103,103,103,103,0,0,0,0,0,0,0,
103,103,103,103,103,103,103,103,103,0,0,0,0,0,0,0,
103,103,103,103,103,103,103,103,103,0,0,0,0,0,0,0
</chunk>
   <chunk x="-32" y="0" width="16" height="16">
0,0,0,0,0,0,0,0,0,0,0,0,103,103,103,103,
0,0,0,0,0,0,0,0,0,0,0,0,103,103,103,103,
0,0,0,0,0,0,0,0,0,0,0,0,103,103,103,103,
0,0,0,0,0,0,0,0,0,0,0,0,103,103,103,103,
0,0,0,0,0,0,0,0,0,0,0,0,103,103,103,103,
0,0,0,0,0,0,0,0,0,0,0,0,103,103,103,103,
0,0,0,0,0,0,0,0,0,0,0,0,103,103,103,103,
0,0,0,0,0,0,0,0,0,0,0,0,103,103,103,103,
0,0,0,0,0,0,0,0,0,0,0,0,103,103,103,103,
0,0,0,0,0,0,0,0,0,0,0,0,103,103,103,103,
0,0,0,0,0,0,0,0,0,0,0,0,103,103,103,103,
0,0,0,0,0,0,0,0,0,0,0,0,103,103,103,103,
0,0,0,0,0,0,0,0,0,0,0,0,103,103,103,103,
0,0,0,0,0,0,0,0,0,0,0,0,103,103,103,103,
0,0,0,0,0,0,0,0,0,0,0,0,103,103,103,103,
0,0,0,0,0,0,0,0,0,0,0,0,103,103,103,103
</chunk>
   <chunk x="-16" y="0" width="16" height="16">
103,103,103,103,103,103,0,0,0,0,0,0,0,0,0,0,
103,103,103,103,103,103,0,0,0,0,0,0,0,0,0,0,
103,103,103,103,103,103,0,0,0,0,0,0,0,0,0,0,
103,103,103,103,103,103,0,0,0,0,0,0,0,0,0,0,
103,103,103,103,103,103,0,0,0,0,0,0,0,0,0,0,
103,103,103,103,103,103,0,0,0,0,0,0,0,0,0,0,
103,103,103,103,103,103,0,0,0,0,0,0,0,0,0,0,
103,103,103,103,103,103,0,0,0,0,0,0,0,0,0,0,
103,103,103,103,103,103,0,0,0,0,0,0,0,0,0,0,
103,103,103,103,103,103,0,0,0,0,0,0,0,0,0,0,
103,103,103,103,103,103,0,0,0,0,0,0,0,0,0,0,
103,103,103,103,103,103,0,0,0,0,0,0,0,0,0,0,
103,103,103,103,103,103,0,0,0,0,0,0,0,0,0,0,
103,103,103,103,103,103,0,0,0,0,0,0,0,0,0,0,
103,103,103,103,103,103,0,0,0,0,0,0,0,0,0,0,
103,103,103,103,103,103,0,0,0,0,0,0,0,0,0,0
</chunk>
   <chunk x="48" y="0" width="16" height="16">
0,0,0,0,0,103,103,103,103,103,103,103,103,103,103,103,
0,0,0,0,0,103,103,103,103,103,103,103,103,103,103,103,
0,0,0,0,0,103,103,103,103,103,103,103,103,103,103,103,
0,0,0,0,0,103,103,103,103,103,103,103,103,103,103,103,
0,0,0,0,0,103,103,103,103,103,103,103,103,103,103,103,
0,0,0,0,0,103,103,103,103,103,103,103,103,103,103,103,
0,0,0,0,0,103,103,103,103,103,103,103,103,103,103,103,
0,0,0,0,0,103,103,103,103,103,103,103,103,103,103,103,
0,0,0,0,0,103,103,103,103,103,103,103,103,103,103,103,
0,0,0,0,0,103,103,103,103,103,103,103,103,103,103,103,
0,0,0,0,0,103,103,103,103,103,103,103,103,103,103,103,
0,0,0,0,0,103,103,103,103,103,103,103,103,103,103,103,
0,0,0,0,0,103,103,103,103,103,103,103,103,103,103,103,
0,0,0,0,0,103,103,103,103,103,103,103,103,103,103,103,
0,0,0,0,0,103,103,103,103,103,103,103,103,103,103,103,
0,0,0,0,0,103,103,103,103,103,103,103,103,103,103,103
</chunk>
   <chunk x="64" y="0" width="16" height="16">
103,103,103,103,103,103,103,103,103,103,103,103,103,103,103,103,
103,103,103,103,103,103,103,103,103,103,103,103,103,103,103,103,
103,103,103,103,103,103,103,103,103,103,103,103,103,103,103,103,
103,103,103,103,103,103,103,103,103,103,103,103,103,103,103,103,
103,103,103,103,103,103,103,103,103,103,103,103,103,103,103,103,
103,103,103,103,103,103,103,103,103,103,103,103,103,103,103,103,
103,103,103,103,103,103,103,103,103,103,103,103,103,103,103,103,
103,103,103,103,103,103,103,103,103,103,103,103,103,103,103,103,
103,103,103,103,103,103,103,103,103,103,103,103,103,103,103,103,
103,103,103,103,103,103,103,103,103,103,103,103,103,103,103,103,
103,103,103,103,103,103,103,103,103,103,103,103,103,103,103,103,
103,103,103,103,103,103,103,103,103,103,103,103,103,103,103,103,
103,103,103,103,103,103,103,103,103,103,103,103,103,103,103,103,
103,103,103,103,103,103,103,103,103,103,103,103,103,103,103,103,
103,103,103,103,103,103,103,103,103,103,103,103,103,103,103,103,
103,103,103,103,103,103,103,103,103,103,103,103,103,103,103,103
</chunk>
   <chunk x="80" y="0" width="16" height="16">
103,103,103,103,103,103,103,103,103,0,0,0,0,0,0,0,
103,103,103,103,103,103,103,103,103,0,0,0,0,0,0,0,
103,103,103,103,103,103,103,103,103,0,0,0,0,0,0,0,
103,103,103,103,103,103,103,103,103,0,0,0,0,0,0,0,
103,103,103,103,103,103,103,103,103,0,0,0,0,0,0,0,
103,103,103,103,103,103,103,103,103,0,0,0,0,0,0,0,
103,103,103,103,103,103,103,103,103,0,0,0,0,0,0,0,
103,103,103,103,103,103,103,103,103,0,0,0,0,0,0,0,
103,103,103,103,103,103,103,103,103,0,0,0,0,0,0,0,
103,103,103,103,103,103,103,103,103,0,0,0,0,0,0,0,
103,103,103,103,103,103,103,103,103,0,0,0,0,0,0,0,
103,103,103,103,103,103,103,103,103,0,0,0,0,0,0,0,
103,103,103,103,103,103,103,103,103,0,0,0,0,0,0,0,
103,103,103,103,103,103,103,103,103,0,0,0,0,0,0,0,
103,103,103,103,103,103,103,103,103,0,0,0,0,0,0,0,
103,103,103,103,103,103,103,103,103,0,0,0,0,0,0,0
</chunk>
   <chunk x="-32" y="16" width="16" height="16">
0,0,0,0,0,0,0,0,0,0,0,0,103,103,103,103,
0,0,0,0,0,0,0,0,0,0,0,0,103,103,103,103,
0,0,0,0,0,0,0,0,0,0,0,0,103,103,103,103,
0,0,0,0,0,0,0,0,0,0,0,0,103,103,103,103,
0,0,0,0,0,0,0,0,0,0,0,0,103,103,103,103,
0,0,0,0,0,0,0,0,0,0,0,0,103,103,103,103,
0,0,0,0,0,0,0,0,0,0,0,0,103,103,103,103,
0,0,0,0,0,0,0,0,0,0,0,0,103,103,103,103,
0,0,0,0,0,0,0,0,0,0,0,0,103,103,103,103,
0,0,0,0,0,0,0,0,0,0,0,0,103,103,103,103,
0,0,0,0,0,0,0,0,0,0,0,0,103,103,103,103,
0,0,0,0,0,0,0,0,0,0,0,0,103,103,103,103,
0,0,0,0,0,0,0,0,0,0,0,0,103,103,103,103,
0,0,0,0,0,0,0,0,0,0,0,0,103,103,103,103,
0,0,0,0,0,0,0,0,0,0,0,0,103,103,103,103,
0,0,0,0,0,0,0,0,0,0,0,0,103,103,103,103
</chunk>
   <chunk x="-16" y="16" width="16" height="16">
103,103,103,103,103,103,0,0,0,0,0,0,0,0,0,0,
103,103,103,103,103,103,0,0,0,0,0,0,0,0,0,0,
103,103,103,103,103,103,0,0,0,0,0,0,0,0,0,0,
103,103,103,103,103,103,0,0,0,0,0,0,0,0,0,0,
103,103,103,103,103,103,103,103,103,103,103,103,103,103,103,103,
103,103,103,103,103,103,103,103,103,103,103,103,103,103,103,103,
103,103,103,103,103,103,103,103,103,103,103,103,103,103,103,103,
103,103,103,103,103,103,103,103,103,103,103,103,103,103,103,103,
103,103,103,103,103,103,103,103,103,103,103,103,103,103,103,103,
103,103,103,103,103,103,103,103,103,103,103,103,103,103,103,103,
103,103,103,103,103,103,103,103,103,103,103,103,103,103,103,103,
103,103,103,103,103,103,103,103,103,103,103,103,103,103,103,103,
103,103,103,103,103,103,103,103,103,103,103,103,103,103,103,103,
103,103,103,103,103,103,103,103,103,103,103,103,103,103,103,103,
103,103,103,103,103,103,103,103,103,103,103,103,103,103,103,103,
103,103,103,103,103,103,103,103,103,103,103,103,103,103,103,103
</chunk>
   <chunk x="48" y="16" width="16" height="16">
0,0,0,0,0,103,103,103,103,103,103,103,103,103,103,103,
0,0,0,0,0,103,103,103,103,103,103,103,103,103,103,103,
0,0,0,0,0,103,103,103,103,103,103,103,103,103,103,103,
0,0,0,0,0,103,103,103,103,103,103,103,103,103,103,103,
0,0,0,0,0,103,103,103,103,103,103,103,103,103,103,103,
0,0,0,0,0,103,103,103,103,103,103,103,103,103,103,103,
0,0,0,0,0,103,103,103,103,103,103,103,103,103,103,103,
0,0,0,0,0,103,103,103,103,103,103,103,103,103,103,103,
0,0,0,0,0,103,103,103,103,103,103,103,103,103,103,103,
0,0,0,0,0,103,103,103,103,103,103,103,103,103,103,103,
0,0,0,0,0,103,103,103,103,103,103,103,103,103,103,103,
0,0,0,0,0,103,103,103,103,103,103,103,103,103,103,103,
0,0,0,0,0,103,103,103,103,103,103,103,103,103,103,103,
0,0,0,0,0,103,103,103,103,103,103,103,103,103,103,103,
0,0,0,0,0,103,103,103,103,103,103,103,103,103,103,103,
0,0,0,0,0,103,103,103,103,103,103,103,103,103,103,103
</chunk>
   <chunk x="64" y="16" width="16" height="16">
103,103,103,103,103,103,103,103,103,103,103,103,103,103,103,103,
103,103,103,103,103,103,103,103,103,103,103,103,103,103,103,103,
103,103,103,103,103,103,103,103,103,103,103,103,103,103,103,103,
103,103,103,103,103,103,103,103,103,103,103,103,103,103,103,103,
103,103,103,103,103,103,103,103,103,103,103,103,103,103,103,103,
103,103,103,103,103,103,103,103,103,103,103,103,103,103,103,103,
103,103,103,103,103,103,103,103,103,103,103,103,103,103,103,103,
103,103,103,103,103,103,103,103,103,103,103,103,103,103,103,103,
103,103,103,103,103,103,103,103,103,103,103,103,103,103,103,103,
103,103,103,103,103,103,103,103,103,103,103,103,103,103,103,103,
103,103,103,103,103,103,103,103,103,103,103,103,103,103,103,103,
103,103,103,103,103,103,103,103,103,103,103,103,103,103,103,103,
103,103,103,103,103,103,103,103,103,103,103,103,103,103,103,103,
103,103,103,103,103,103,103,103,103,103,103,103,103,103,103,103,
103,103,103,103,103,103,103,103,103,103,103,103,103,103,103,103,
103,103,103,103,103,103,103,103,103,103,103,103,103,103,103,103
</chunk>
   <chunk x="80" y="16" width="16" height="16">
103,103,103,103,103,103,103,103,103,0,0,0,0,0,0,0,
103,103,103,103,103,103,103,103,103,0,0,0,0,0,0,0,
103,103,103,103,103,103,103,103,103,0,0,0,0,0,0,0,
103,103,103,103,103,103,103,103,103,0,0,0,0,0,0,0,
103,103,103,103,103,103,103,103,103,0,0,0,0,0,0,0,
103,103,103,103,103,103,103,103,103,0,0,0,0,0,0,0,
103,103,103,103,103,103,103,103,103,0,0,0,0,0,0,0,
103,103,103,103,103,103,103,103,103,0,0,0,0,0,0,0,
103,103,103,103,103,103,103,103,103,0,0,0,0,0,0,0,
103,103,103,103,103,103,103,103,103,0,0,0,0,0,0,0,
103,103,103,103,103,103,103,103,103,0,0,0,0,0,0,0,
103,103,103,103,103,103,103,103,103,0,0,0,0,0,0,0,
103,103,103,103,103,103,103,103,103,0,0,0,0,0,0,0,
103,103,103,103,103,103,103,103,103,0,0,0,0,0,0,0,
103,103,103,103,103,103,103,103,103,0,0,0,0,0,0,0,
103,103,103,103,103,103,103,103,103,0,0,0,0,0,0,0
</chunk>
   <chunk x="112" y="16" width="16" height="16">
0,0,0,0,0,0,0,0,0,0,0,0,0,0,0,0,
0,0,0,0,0,0,0,0,0,0,0,0,0,0,0,0,
0,0,0,0,0,0,0,0,0,0,0,0,0,0,0,0,
0,0,0,0,0,0,0,0,0,0,0,0,0,0,0,0,
0,0,0,0,0,0,0,0,0,0,0,0,0,0,0,0,
0,0,0,0,0,0,0,0,0,0,0,0,0,0,0,0,
0,0,0,0,0,0,0,0,0,0,0,0,0,0,0,0,
0,0,0,0,0,0,0,0,0,0,0,0,0,0,0,0,
0,0,0,0,0,0,0,0,0,0,0,0,0,0,0,0,
0,0,0,0,0,0,0,0,0,0,0,0,0,0,0,0,
0,0,0,0,0,0,0,0,0,0,0,0,0,0,0,0,
0,0,0,0,0,0,0,0,0,0,0,0,0,0,0,0,
0,0,0,0,0,0,0,0,0,0,0,0,0,0,0,0,
0,0,0,0,0,0,0,0,0,0,0,0,0,0,0,0,
0,0,0,0,0,0,0,0,0,0,0,0,0,0,0,0,
0,0,0,0,0,0,0,0,0,0,103,103,103,103,103,103
</chunk>
   <chunk x="128" y="16" width="16" height="16">
0,0,0,0,0,0,0,0,0,0,0,0,0,0,0,0,
0,0,0,0,0,0,0,0,0,0,0,0,0,0,0,0,
0,0,0,0,0,0,0,0,0,0,0,0,0,0,0,0,
0,0,0,0,0,0,0,0,0,0,0,0,0,0,0,0,
0,0,0,0,0,0,0,0,0,0,0,0,0,0,0,0,
0,0,0,0,0,0,0,0,0,0,0,0,0,0,0,0,
0,0,0,0,0,0,0,0,0,0,0,0,0,0,0,0,
0,0,0,0,0,0,0,0,0,0,0,0,0,0,0,0,
0,0,0,0,0,0,0,0,0,0,0,0,0,0,0,0,
0,0,0,0,0,0,0,0,0,0,0,0,0,0,0,0,
0,0,0,0,0,0,0,0,0,0,0,0,0,0,0,0,
0,0,0,0,0,0,0,0,0,0,0,0,0,0,0,0,
0,0,0,0,0,0,0,0,0,0,0,0,0,0,0,0,
0,0,0,0,0,0,0,0,0,0,0,0,0,0,0,0,
0,0,0,0,0,0,0,0,0,0,0,0,0,0,0,0,
103,103,103,103,103,103,103,103,103,103,103,103,103,103,103,103
</chunk>
   <chunk x="144" y="16" width="16" height="16">
0,0,0,0,0,0,0,0,0,0,0,0,0,0,0,0,
0,0,0,0,0,0,0,0,0,0,0,0,0,0,0,0,
0,0,0,0,0,0,0,0,0,0,0,0,0,0,0,0,
0,0,0,0,0,0,0,0,0,0,0,0,0,0,0,0,
0,0,0,0,0,0,0,0,0,0,0,0,0,0,0,0,
0,0,0,0,0,0,0,0,0,0,0,0,0,0,0,0,
0,0,0,0,0,0,0,0,0,0,0,0,0,0,0,0,
0,0,0,0,0,0,0,0,0,0,0,0,0,0,0,0,
0,0,0,0,0,0,0,0,0,0,0,0,0,0,0,0,
0,0,0,0,0,0,0,0,0,0,0,0,0,0,0,0,
0,0,0,0,0,0,0,0,0,0,0,0,0,0,0,0,
0,0,0,0,0,0,0,0,0,0,0,0,0,0,0,0,
0,0,0,0,0,0,0,0,0,0,0,0,0,0,0,0,
0,0,0,0,0,0,0,0,0,0,0,0,0,0,0,0,
0,0,0,0,0,0,0,0,0,0,0,0,0,0,0,0,
103,103,103,103,103,103,103,103,103,103,103,103,103,103,0,0
</chunk>
   <chunk x="-32" y="32" width="16" height="16">
0,0,0,0,0,0,0,0,0,0,0,0,103,103,103,103,
0,0,0,0,0,0,0,0,0,0,0,0,103,103,103,103,
0,0,0,0,0,0,0,0,0,0,0,0,103,103,103,103,
0,0,0,0,0,0,0,0,0,0,0,0,103,103,103,103,
0,0,0,0,0,0,0,0,0,0,0,0,103,103,103,103,
0,0,0,0,0,0,0,0,0,0,0,0,103,103,103,103,
0,0,0,0,0,0,0,0,0,0,0,0,103,103,103,103,
0,0,0,0,0,0,0,0,0,0,0,0,103,103,103,103,
0,0,0,0,0,0,0,0,0,0,0,0,0,0,0,0,
0,0,0,0,0,0,0,0,0,0,0,0,0,0,0,0,
0,0,0,0,0,0,0,0,0,0,0,0,0,0,0,0,
0,0,0,0,0,0,0,0,0,0,0,0,0,0,0,0,
0,0,0,0,0,0,0,0,0,0,0,0,0,0,0,0,
0,0,0,0,0,0,0,0,0,0,0,0,0,0,0,0,
0,0,0,0,0,0,0,0,0,0,0,0,0,0,0,0,
0,0,0,0,0,0,0,0,0,0,0,0,0,0,0,0
</chunk>
   <chunk x="-16" y="32" width="16" height="16">
103,103,103,103,103,103,103,103,103,103,103,103,103,103,103,103,
103,103,103,103,103,103,103,103,103,103,103,103,103,103,103,103,
103,103,103,103,103,103,103,103,103,103,103,103,103,103,103,103,
103,103,103,103,103,103,103,103,103,103,103,103,103,103,103,103,
103,103,103,103,103,103,103,103,103,103,103,103,103,103,103,103,
103,103,103,103,103,103,103,103,103,103,103,103,103,103,103,103,
103,103,103,103,103,103,103,103,103,103,103,103,103,103,103,103,
103,103,103,103,103,103,103,103,103,103,103,103,103,103,103,103,
0,0,0,0,0,0,103,103,103,103,103,103,103,103,103,103,
0,0,0,0,0,0,103,103,103,103,103,103,103,103,103,103,
0,0,0,0,0,0,103,103,103,103,103,103,103,103,103,103,
0,0,0,0,0,0,103,103,103,103,103,103,103,103,103,103,
0,0,0,0,0,0,103,103,103,103,103,103,103,103,103,103,
0,0,0,0,0,0,103,103,103,103,103,103,103,103,103,103,
0,0,0,0,0,0,103,103,103,103,103,103,103,103,103,103,
0,0,0,0,0,0,103,103,103,103,103,103,103,103,103,103
</chunk>
   <chunk x="48" y="32" width="16" height="16">
0,0,0,0,0,103,103,103,103,103,103,103,103,103,103,103,
0,0,0,0,0,103,103,103,103,103,103,103,103,103,103,103,
0,0,0,0,0,103,103,103,103,103,103,103,103,103,103,103,
0,0,0,0,0,103,103,103,103,103,103,103,103,103,103,103,
0,0,0,0,0,103,103,103,103,103,103,103,103,103,103,103,
0,0,0,0,0,103,103,103,103,103,103,103,103,103,103,103,
0,0,0,0,0,103,103,103,103,103,103,103,103,103,103,103,
0,0,0,0,0,103,103,103,103,103,103,103,103,103,103,103,
0,0,0,0,0,103,103,103,103,103,103,103,103,103,103,103,
0,0,0,0,0,103,103,103,103,103,103,103,103,103,103,103,
0,0,0,0,0,103,103,103,103,103,103,103,103,103,103,103,
0,0,0,0,0,103,103,103,103,103,103,103,103,103,103,103,
0,0,0,0,0,103,103,103,103,103,103,103,103,103,103,103,
0,0,0,0,0,103,103,103,103,103,103,103,103,103,103,103,
0,0,0,0,0,103,103,103,103,103,103,103,103,103,103,103,
0,0,0,0,0,103,103,103,103,103,103,103,103,103,103,103
</chunk>
   <chunk x="64" y="32" width="16" height="16">
103,103,103,103,103,103,103,103,103,103,103,103,103,103,103,103,
103,103,103,103,103,103,103,103,103,103,103,103,103,103,103,103,
103,103,103,103,103,103,103,103,103,103,103,103,103,103,103,103,
103,103,103,103,103,103,103,103,103,103,103,103,103,103,103,103,
103,103,103,103,103,103,103,103,103,103,103,103,103,103,103,103,
103,103,103,103,103,103,103,103,103,103,103,103,103,103,103,103,
103,103,103,103,103,103,103,103,103,103,103,103,103,103,103,103,
103,103,103,103,103,103,103,103,103,103,103,103,103,103,103,103,
103,103,103,103,103,103,103,103,103,103,103,103,103,103,103,103,
103,103,103,103,103,103,103,103,103,103,103,103,103,103,103,103,
103,103,103,103,103,103,103,103,103,103,103,103,103,103,103,103,
103,103,103,103,103,103,103,103,103,103,103,103,103,103,103,103,
103,103,103,103,103,103,103,103,103,103,103,103,103,103,103,103,
103,103,103,103,103,103,103,103,103,103,103,103,103,103,103,103,
103,103,103,103,103,103,103,103,103,103,103,103,103,103,103,103,
103,103,103,103,103,103,103,103,103,103,103,103,103,103,103,103
</chunk>
   <chunk x="80" y="32" width="16" height="16">
103,103,103,103,103,103,103,103,103,0,0,0,0,0,0,0,
103,103,103,103,103,103,103,103,103,0,0,0,0,0,0,0,
103,103,103,103,103,103,103,103,103,0,0,0,0,0,0,0,
103,103,103,103,103,103,103,103,103,0,0,0,0,0,0,0,
103,103,103,103,103,103,103,103,103,0,0,0,0,0,0,0,
103,103,103,103,103,103,103,103,103,0,0,0,0,0,0,0,
103,103,103,103,103,103,103,103,103,0,0,0,0,0,0,0,
103,103,103,103,103,103,103,103,103,0,0,0,0,0,0,0,
103,103,103,103,103,103,103,103,103,0,0,0,0,0,0,0,
103,103,103,103,103,103,103,103,103,103,103,103,103,103,103,103,
103,103,103,103,103,103,103,103,103,103,103,103,103,103,103,103,
103,103,103,103,103,103,103,103,103,103,103,103,103,103,103,103,
103,103,103,103,103,103,103,103,103,103,103,103,103,103,103,103,
103,103,103,103,103,103,103,103,103,103,103,103,103,103,103,103,
103,103,103,103,103,103,103,103,103,103,103,103,103,103,103,103,
103,103,103,103,103,103,103,103,103,103,103,103,103,103,103,103
</chunk>
   <chunk x="96" y="32" width="16" height="16">
0,0,0,0,0,0,0,0,0,0,0,0,0,0,0,0,
0,0,0,0,0,0,0,0,0,0,0,0,0,0,0,0,
0,0,0,0,0,0,0,0,0,0,0,0,0,0,0,0,
0,0,0,0,0,0,0,0,0,0,0,0,0,0,0,0,
0,0,0,0,0,0,0,0,0,0,0,0,0,0,0,0,
0,0,0,0,0,0,0,0,0,0,0,0,0,0,0,0,
0,0,0,0,0,0,0,0,0,0,0,0,0,0,0,0,
0,0,0,0,0,0,0,0,0,0,0,0,0,0,0,0,
0,0,0,0,0,0,0,0,0,0,0,0,0,0,0,0,
103,103,103,103,103,103,103,103,103,103,103,103,103,103,103,103,
103,103,103,103,103,103,103,103,103,103,103,103,103,103,103,103,
103,103,103,103,103,103,103,103,103,103,103,103,103,103,103,103,
103,103,103,103,103,103,103,103,103,103,103,103,103,103,103,103,
103,103,103,103,103,103,103,103,103,103,103,103,103,103,103,103,
103,103,103,103,103,103,103,103,103,103,103,103,103,103,103,103,
103,103,103,103,103,103,103,103,103,103,103,103,103,103,103,103
</chunk>
   <chunk x="112" y="32" width="16" height="16">
0,0,0,0,0,0,0,0,0,0,103,103,103,103,103,103,
0,0,0,0,0,0,0,0,0,0,103,103,103,103,103,103,
0,0,0,0,0,0,0,0,0,0,103,103,103,103,103,103,
0,0,0,0,0,0,0,0,0,0,103,103,103,103,103,103,
0,0,0,0,0,0,0,0,0,0,103,103,103,103,103,103,
0,0,0,0,0,0,0,0,0,0,103,103,103,103,103,103,
0,0,0,0,0,0,0,0,0,0,103,103,103,103,103,103,
0,0,0,0,0,0,0,0,0,0,103,103,103,103,103,103,
0,0,0,0,0,0,0,0,0,0,103,103,103,103,103,103,
103,103,103,103,103,103,103,103,103,103,103,103,103,103,103,103,
103,103,103,103,103,103,103,103,103,103,103,103,103,103,103,103,
103,103,103,103,103,103,103,103,103,103,103,103,103,103,103,103,
103,103,103,103,103,103,103,103,103,103,103,103,103,103,103,103,
103,103,103,103,103,103,103,103,103,103,103,103,103,103,103,103,
103,103,103,103,103,103,103,103,103,103,103,103,103,103,103,103,
103,103,103,103,103,103,103,103,103,103,103,103,103,103,103,103
</chunk>
   <chunk x="128" y="32" width="16" height="16">
103,103,103,103,103,103,103,103,103,103,103,103,103,103,103,103,
103,103,103,103,103,103,103,103,103,103,103,103,103,103,103,103,
103,103,103,103,103,103,103,103,103,103,103,103,103,103,103,103,
103,103,103,103,103,103,103,103,103,103,103,103,103,103,103,103,
103,103,103,103,103,103,103,103,103,103,103,103,103,103,103,103,
103,103,103,103,103,103,103,103,103,103,103,103,103,103,103,103,
103,103,103,103,103,103,103,103,103,103,103,103,103,103,103,103,
103,103,103,103,103,103,103,103,103,103,103,103,103,103,103,103,
103,103,103,103,103,103,103,103,103,103,103,103,103,103,103,103,
103,103,103,103,103,103,103,103,103,103,103,103,103,103,103,103,
103,103,103,103,103,103,103,103,103,103,103,103,103,103,103,103,
103,103,103,103,103,103,103,103,103,103,103,103,103,103,103,103,
103,103,103,103,103,103,103,103,103,103,103,103,103,103,103,103,
103,103,103,103,103,103,103,103,103,103,103,103,103,103,103,103,
103,103,103,103,103,103,103,103,103,103,103,103,103,103,103,103,
103,103,103,103,103,103,103,103,103,103,103,103,103,103,103,103
</chunk>
   <chunk x="144" y="32" width="16" height="16">
103,103,103,103,103,103,103,103,103,103,103,103,103,103,0,0,
103,103,103,103,103,103,103,103,103,103,103,103,103,103,0,0,
103,103,103,103,103,103,103,103,103,103,103,103,103,103,0,0,
103,103,103,103,103,103,103,103,103,103,103,103,103,103,0,0,
103,103,103,103,103,103,103,103,103,103,103,103,103,103,0,0,
103,103,103,103,103,103,103,103,103,103,103,103,103,103,0,0,
103,103,103,103,103,103,103,103,103,103,103,103,103,103,0,0,
103,103,103,103,103,103,103,103,103,103,103,103,103,103,0,0,
103,103,103,103,103,103,103,103,103,103,103,103,103,103,0,0,
103,103,103,103,103,103,103,103,103,103,103,103,103,103,0,0,
103,103,103,103,103,103,103,103,103,103,103,103,103,103,0,0,
103,103,103,103,103,103,103,103,103,103,103,103,103,103,0,0,
103,103,103,103,103,103,103,103,103,103,103,103,103,103,0,0,
103,103,103,103,103,103,103,103,103,103,103,103,103,103,0,0,
103,103,103,103,103,103,103,103,103,103,103,103,103,103,0,0,
103,103,103,103,103,103,103,103,103,103,103,103,103,103,0,0
</chunk>
   <chunk x="-16" y="48" width="16" height="16">
0,0,0,0,0,0,103,103,103,103,103,103,103,103,103,103,
0,0,0,0,0,0,103,103,103,103,103,103,103,103,103,103,
0,0,0,0,0,0,103,103,103,103,103,103,103,103,103,103,
0,0,0,0,0,0,103,103,103,103,103,103,103,103,103,103,
0,0,0,0,0,0,103,103,103,103,103,103,103,103,103,103,
0,0,0,0,0,0,103,103,103,103,103,103,103,103,103,103,
0,0,0,0,0,0,103,103,103,103,103,103,103,103,103,103,
0,0,0,0,0,0,103,103,103,103,103,103,103,103,103,103,
0,0,0,0,0,0,103,103,103,103,103,103,103,103,103,103,
0,0,0,0,0,0,103,103,103,103,103,103,103,103,103,103,
0,0,0,0,0,0,103,103,103,103,103,103,103,103,103,103,
0,0,0,0,0,0,103,103,103,103,103,103,103,103,103,103,
0,0,0,0,0,0,103,103,103,103,103,103,103,103,103,103,
0,0,0,0,0,0,103,103,103,103,103,103,103,103,103,103,
0,0,0,0,0,0,103,103,103,103,103,103,103,103,103,103,
0,0,0,0,0,0,103,103,103,103,103,103,103,103,103,103
</chunk>
   <chunk x="0" y="48" width="16" height="16">
0,0,0,0,0,0,0,0,0,0,0,0,0,0,0,0,
0,0,0,0,0,0,0,0,0,0,0,0,0,0,0,0,
0,0,0,0,0,0,0,0,0,0,0,0,0,0,0,0,
0,0,0,0,0,0,0,0,0,0,0,0,0,0,0,0,
0,0,0,0,0,0,0,0,0,0,0,0,0,0,0,0,
0,0,0,0,0,0,0,0,0,0,0,0,0,0,0,0,
0,0,0,0,0,0,0,0,0,0,0,0,0,0,0,0,
0,0,0,0,0,0,0,0,0,0,0,0,0,0,0,0,
103,103,103,103,103,103,103,103,103,103,103,103,103,103,103,103,
103,103,103,103,103,103,103,103,103,103,103,103,103,103,103,103,
103,103,103,103,103,103,103,103,103,103,103,103,103,103,103,103,
103,103,103,103,103,103,103,103,103,103,103,103,103,103,103,103,
103,103,103,103,103,103,103,103,103,103,103,103,103,103,103,103,
103,103,103,103,103,103,103,103,103,103,103,103,103,103,103,103,
103,103,103,103,103,103,103,103,103,103,103,103,103,103,103,103,
103,103,103,103,103,103,103,103,103,103,103,103,103,103,103,103
</chunk>
   <chunk x="16" y="48" width="16" height="16">
0,0,0,0,0,0,0,0,0,0,0,0,0,0,0,0,
0,0,0,0,0,0,0,0,0,0,0,0,0,0,0,0,
0,0,0,0,0,0,0,0,0,0,0,0,0,0,0,0,
0,0,0,0,0,0,0,0,0,0,0,0,0,0,0,0,
0,0,0,0,0,0,0,0,0,0,0,0,0,0,0,0,
0,0,0,0,0,0,0,0,0,0,0,0,0,0,0,0,
0,0,0,0,0,0,0,0,0,0,0,0,0,0,0,0,
0,0,0,0,0,0,0,0,0,0,0,0,0,0,0,0,
103,103,103,103,103,103,103,103,103,103,103,103,103,103,0,0,
103,103,103,103,103,103,103,103,103,103,103,103,103,103,0,0,
103,103,103,103,103,103,103,103,103,103,103,103,103,103,0,0,
103,103,103,103,103,103,103,103,103,103,103,103,103,103,0,0,
103,103,103,103,103,103,103,103,103,103,103,103,103,103,0,0,
103,103,103,103,103,103,103,103,103,103,103,103,103,103,0,0,
103,103,103,103,103,103,103,103,103,103,103,103,103,103,0,0,
103,103,103,103,103,103,103,103,103,103,103,103,103,103,0,0
</chunk>
   <chunk x="48" y="48" width="16" height="16">
0,0,0,0,0,103,103,103,103,103,103,103,103,103,103,103,
0,0,0,0,0,103,103,103,103,103,103,103,103,103,103,103,
0,0,0,0,0,103,103,103,103,103,103,103,103,103,103,103,
0,0,0,0,0,103,103,103,103,103,103,103,103,103,103,103,
0,0,0,0,0,103,103,103,103,103,103,103,103,103,103,103,
0,0,0,0,0,103,103,103,103,103,103,103,103,103,103,103,
0,0,0,0,0,103,103,103,103,103,103,103,103,103,103,103,
0,0,0,0,0,103,103,103,103,103,103,103,103,103,103,103,
0,0,0,0,0,103,103,103,103,103,103,103,103,103,103,103,
0,0,0,0,0,103,103,103,103,103,103,103,103,103,103,103,
0,0,0,0,0,103,103,103,103,103,103,103,103,103,103,103,
0,0,0,0,0,103,103,103,103,103,103,103,103,103,103,103,
0,0,0,0,0,103,103,103,103,103,103,103,103,103,103,103,
0,0,0,0,0,103,103,103,103,103,103,103,103,103,103,103,
0,0,0,0,0,103,103,103,103,103,103,103,103,103,103,103,
0,0,0,0,0,103,103,103,103,103,103,103,103,103,103,103
</chunk>
   <chunk x="64" y="48" width="16" height="16">
103,103,103,103,103,103,103,103,103,103,103,103,103,103,103,103,
103,103,103,103,103,103,103,103,103,103,103,103,103,103,103,103,
103,103,103,103,103,103,103,103,103,103,103,103,103,103,103,103,
103,103,103,103,103,103,103,103,103,103,103,103,103,103,103,103,
103,103,103,103,103,103,103,103,103,103,103,103,103,103,103,103,
103,103,103,103,103,103,103,103,103,103,103,103,103,103,103,103,
103,103,103,103,103,103,103,103,103,103,103,103,103,103,103,103,
103,103,103,103,103,103,103,103,103,103,103,103,103,103,103,103,
103,103,103,103,103,103,103,103,103,103,103,103,103,103,103,103,
103,103,103,103,103,103,103,103,103,103,103,103,103,103,103,103,
103,103,103,103,103,103,103,103,103,103,103,103,103,103,103,103,
103,103,103,103,103,103,103,103,103,103,103,103,103,103,103,103,
103,103,103,103,103,103,103,103,103,103,103,103,103,103,103,103,
103,103,103,103,103,103,103,103,103,103,103,103,103,103,103,103,
103,103,103,103,103,103,103,103,103,103,103,103,103,103,103,103,
103,103,103,103,103,103,103,103,103,103,103,103,103,103,103,103
</chunk>
   <chunk x="80" y="48" width="16" height="16">
103,103,103,103,103,103,103,103,103,103,103,103,103,103,103,103,
103,103,103,103,103,103,103,103,103,103,103,103,103,103,103,103,
103,103,103,103,103,103,103,103,103,103,103,103,103,103,103,103,
103,103,103,103,103,103,103,103,103,103,103,103,103,103,103,103,
103,103,103,103,103,103,103,103,103,103,103,103,103,103,103,103,
103,103,103,103,103,103,103,103,103,103,103,103,103,103,103,103,
103,103,103,103,103,103,103,103,103,103,103,103,103,103,103,103,
103,103,103,103,103,103,103,103,103,103,103,103,103,103,103,103,
103,103,103,103,103,103,103,103,103,103,103,103,103,103,103,103,
103,103,103,103,103,103,103,103,103,103,103,103,103,103,103,103,
103,103,103,103,103,103,103,103,103,103,103,103,103,103,103,103,
103,103,103,103,103,103,103,103,103,103,103,103,103,103,103,103,
103,103,103,103,103,103,103,103,103,103,103,103,103,103,103,103,
103,103,103,103,103,103,103,103,103,103,103,103,103,103,103,103,
103,103,103,103,103,103,103,103,103,0,0,0,0,0,0,0,
103,103,103,103,103,103,103,103,103,0,0,0,0,0,0,0
</chunk>
   <chunk x="96" y="48" width="16" height="16">
103,103,103,103,103,103,103,103,103,103,103,103,103,103,103,103,
103,103,103,103,103,103,103,103,103,103,103,103,103,103,103,103,
103,103,103,103,103,103,103,103,103,103,103,103,103,103,103,103,
103,103,103,103,103,103,103,103,103,103,103,103,103,103,103,103,
103,103,103,103,103,103,103,103,103,103,103,103,103,103,103,103,
103,103,103,103,103,103,103,103,103,103,103,103,103,103,103,103,
103,103,103,103,103,103,103,103,103,103,103,103,103,103,103,103,
103,103,103,103,103,103,103,103,103,103,103,103,103,103,103,103,
103,103,103,103,103,103,103,103,103,103,103,103,103,103,103,103,
103,103,103,103,103,103,103,103,103,103,103,103,103,103,103,103,
103,103,103,103,103,103,103,103,103,103,103,103,103,103,103,103,
103,103,103,103,103,103,103,103,103,103,103,103,103,103,103,103,
103,103,103,103,103,103,103,103,103,103,103,103,103,103,103,103,
103,103,103,103,103,103,103,103,103,103,103,103,103,103,103,103,
0,0,0,0,0,0,0,0,0,0,0,0,0,0,0,0,
0,0,0,0,0,0,0,0,0,0,0,0,0,0,0,0
</chunk>
   <chunk x="112" y="48" width="16" height="16">
103,103,103,103,103,103,103,103,103,103,103,103,103,103,103,103,
103,103,103,103,103,103,103,103,103,103,103,103,103,103,103,103,
103,103,103,103,103,103,103,103,103,103,103,103,103,103,103,103,
103,103,103,103,103,103,103,103,103,103,103,103,103,103,103,103,
103,103,103,103,103,103,103,103,103,103,103,103,103,103,103,103,
103,103,103,103,103,103,103,103,103,103,103,103,103,103,103,103,
103,103,103,103,103,103,103,103,103,103,103,103,103,103,103,103,
103,103,103,103,103,103,103,103,103,103,103,103,103,103,103,103,
103,103,103,103,103,103,103,103,103,103,103,103,103,103,103,103,
103,103,103,103,103,103,103,103,103,103,103,103,103,103,103,103,
103,103,103,103,103,103,103,103,103,103,103,103,103,103,103,103,
103,103,103,103,103,103,103,103,103,103,103,103,103,103,103,103,
103,103,103,103,103,103,103,103,103,103,103,103,103,103,103,103,
103,103,103,103,103,103,103,103,103,103,103,103,103,103,103,103,
0,0,0,0,0,0,0,0,0,0,0,0,0,0,0,0,
0,0,0,0,0,0,0,0,0,0,0,0,0,0,0,0
</chunk>
   <chunk x="128" y="48" width="16" height="16">
103,103,103,103,103,103,103,103,103,103,103,103,103,103,103,103,
103,103,103,103,103,103,103,103,103,103,103,103,103,103,103,103,
103,103,103,103,103,103,103,103,103,103,103,103,103,103,103,103,
103,103,103,103,103,103,103,103,103,103,103,103,103,103,103,103,
103,103,103,103,103,103,103,103,103,103,103,103,103,103,103,103,
103,103,103,103,103,103,103,103,103,103,103,103,103,103,103,103,
103,103,103,103,103,103,103,103,103,103,103,103,103,103,103,103,
103,103,103,103,103,103,103,103,103,103,103,103,103,103,103,103,
103,103,103,103,103,103,103,103,103,103,103,103,103,103,103,103,
103,103,103,103,103,103,103,103,103,103,103,103,103,103,103,103,
103,103,103,103,103,103,103,103,103,103,103,103,103,103,103,103,
103,103,103,103,103,103,103,103,103,103,103,103,103,103,103,103,
103,103,103,103,103,103,103,103,103,103,103,103,103,103,103,103,
103,103,103,103,103,103,103,103,103,103,103,103,103,103,103,103,
0,0,0,0,0,0,0,0,0,0,0,0,0,103,103,103,
0,0,0,0,0,0,0,0,0,0,0,0,0,103,103,103
</chunk>
   <chunk x="144" y="48" width="16" height="16">
103,103,103,103,103,103,103,103,103,103,103,103,103,103,0,0,
103,103,103,103,103,103,103,103,103,103,103,103,103,103,0,0,
103,103,103,103,103,103,103,103,103,103,103,103,103,103,0,0,
103,103,103,103,103,103,103,103,103,103,103,103,103,103,0,0,
103,103,103,103,103,103,103,103,103,103,103,103,103,103,0,0,
103,103,103,103,103,103,103,103,103,103,103,103,103,103,0,0,
103,103,103,103,103,103,103,103,103,103,103,103,103,103,0,0,
103,103,103,103,103,103,103,103,103,103,103,103,103,103,0,0,
103,103,103,103,103,103,103,103,103,103,103,103,103,103,0,0,
103,103,103,103,103,103,103,103,103,103,103,103,103,103,0,0,
103,103,103,103,103,103,103,103,103,103,103,103,103,103,0,0,
103,103,103,103,103,103,103,103,103,103,103,103,103,103,0,0,
103,103,103,103,103,103,103,103,103,103,103,103,103,103,0,0,
103,103,103,103,103,103,103,103,103,103,103,103,103,103,0,0,
103,103,103,103,103,103,0,0,0,0,0,0,0,0,0,0,
103,103,103,103,103,103,0,0,0,0,0,0,0,0,0,0
</chunk>
   <chunk x="-16" y="64" width="16" height="16">
0,0,0,0,0,0,103,103,103,103,103,103,103,103,103,103,
0,0,0,0,0,0,103,103,103,103,103,103,103,103,103,103,
0,0,0,0,0,0,103,103,103,103,103,103,103,103,103,103,
0,0,0,0,0,0,103,103,103,103,103,103,103,103,103,103,
0,0,0,0,0,0,103,103,103,103,103,103,103,103,103,103,
0,0,0,0,0,0,103,103,103,103,103,103,103,103,103,103,
0,0,0,0,0,0,103,103,103,103,103,103,103,103,103,103,
0,0,0,0,0,0,103,103,103,103,103,103,103,103,103,103,
0,0,0,0,0,0,103,103,103,103,103,103,103,103,103,103,
0,0,0,0,0,0,103,103,103,103,103,103,103,103,103,103,
0,0,0,0,0,0,103,103,103,103,103,103,103,103,103,103,
0,0,0,0,0,0,103,103,103,103,103,103,103,103,103,103,
0,0,0,0,0,0,103,103,103,103,103,103,103,103,103,103,
0,0,0,0,0,0,103,103,103,103,103,103,103,103,103,103,
0,0,0,0,0,0,103,103,103,103,103,103,103,103,103,103,
0,0,0,0,0,0,103,103,103,103,103,103,103,103,103,103
</chunk>
   <chunk x="0" y="64" width="16" height="16">
103,103,103,103,103,103,103,103,103,103,103,103,103,103,103,103,
103,103,103,103,103,103,103,103,103,103,103,103,103,103,103,103,
103,103,103,103,103,103,103,103,103,103,103,103,103,103,103,103,
103,103,103,103,103,103,103,103,103,103,103,103,103,103,103,103,
103,103,103,103,103,103,103,103,103,103,103,103,103,103,103,103,
103,103,103,103,103,103,103,103,103,103,103,103,103,103,103,103,
103,103,103,103,103,103,103,103,103,103,103,103,103,103,103,103,
103,103,103,103,103,103,103,103,103,103,103,103,103,103,103,103,
103,103,103,103,103,103,103,103,103,103,103,103,103,103,103,103,
103,103,103,103,103,103,103,103,103,103,103,103,103,103,103,103,
103,103,103,103,103,103,103,103,103,103,103,103,103,103,103,103,
103,103,103,103,103,103,103,103,103,103,103,103,103,103,103,103,
103,103,103,103,103,103,103,103,103,103,103,103,103,103,103,103,
103,103,103,103,103,103,103,103,103,103,103,103,103,103,103,103,
103,103,103,103,103,103,103,103,103,103,103,103,103,103,103,103,
103,103,103,103,103,103,103,103,103,103,103,103,103,103,103,103
</chunk>
   <chunk x="16" y="64" width="16" height="16">
103,103,103,103,103,103,103,103,103,103,103,103,103,103,0,0,
103,103,103,103,103,103,103,103,103,103,103,103,103,103,0,0,
103,103,103,103,103,103,103,103,103,103,103,103,103,103,0,0,
103,103,103,103,103,103,103,103,103,103,103,103,103,103,0,0,
103,103,103,103,103,103,103,103,103,103,103,103,103,103,0,0,
103,103,103,103,103,103,103,103,103,103,103,103,103,103,0,0,
103,103,103,103,103,103,103,103,103,103,103,103,103,103,0,0,
103,103,103,103,103,103,103,103,103,103,103,103,103,103,0,0,
103,103,103,103,103,103,103,103,103,103,103,103,103,103,0,0,
103,103,103,103,103,103,103,103,103,103,103,103,103,103,0,0,
103,103,103,103,103,103,103,103,103,103,103,103,103,103,0,0,
103,103,103,103,103,103,103,103,103,103,103,103,103,103,0,0,
103,103,103,103,103,103,103,103,103,103,103,103,103,103,0,0,
103,103,103,103,103,103,103,103,103,103,103,103,103,103,0,0,
103,103,103,103,103,103,103,103,103,103,103,103,103,103,0,0,
103,103,103,103,103,103,103,103,103,103,103,103,103,103,0,0
</chunk>
   <chunk x="48" y="64" width="16" height="16">
0,0,0,0,0,103,103,103,103,103,103,103,103,103,103,103,
0,0,0,0,0,103,103,103,103,103,103,103,103,103,103,103,
0,0,0,0,0,103,103,103,103,103,103,103,103,103,103,103,
0,0,0,0,0,103,103,103,103,103,103,103,103,103,103,103,
0,0,0,0,0,103,103,103,103,103,103,103,103,103,103,103,
0,0,0,0,0,103,103,103,103,103,103,103,103,103,103,103,
0,0,0,0,0,103,103,103,103,103,103,103,103,103,103,103,
0,0,0,0,0,103,103,103,103,103,103,103,103,103,103,103,
0,0,0,0,0,103,103,103,103,103,103,103,103,103,103,103,
0,0,0,0,0,103,103,103,103,103,103,103,103,103,103,103,
0,0,0,0,0,103,103,103,103,103,103,103,103,103,103,103,
0,0,0,0,0,103,103,103,103,103,103,103,103,103,103,103,
0,0,0,0,0,103,103,103,103,103,103,103,103,103,103,103,
0,0,0,0,0,103,103,103,103,103,103,103,103,103,103,103,
0,0,0,0,0,103,103,103,103,103,103,103,103,103,103,103,
0,0,0,0,0,103,103,103,103,103,103,103,103,103,103,103
</chunk>
   <chunk x="64" y="64" width="16" height="16">
103,103,103,103,103,103,103,103,103,103,103,103,103,103,103,103,
103,103,103,103,103,103,103,103,103,103,103,103,103,103,103,103,
103,103,103,103,103,103,103,103,103,103,103,103,103,103,103,103,
103,103,103,103,103,103,103,103,103,103,103,103,103,103,103,103,
103,103,103,103,103,103,103,103,103,103,103,103,103,103,103,103,
103,103,103,103,103,103,103,103,103,103,103,103,103,103,103,103,
103,103,103,103,103,103,103,103,103,103,103,103,103,103,103,103,
103,103,103,103,103,103,103,103,103,103,103,103,103,103,103,103,
103,103,103,103,103,103,103,103,103,103,103,103,103,103,103,103,
103,103,103,103,103,103,103,103,103,103,103,103,103,103,103,103,
103,103,103,103,103,103,103,103,103,103,103,103,103,103,103,103,
103,103,103,103,103,103,103,103,103,103,103,103,103,103,103,103,
103,103,103,103,103,103,103,103,103,103,103,103,103,103,103,103,
103,103,103,103,103,103,103,103,103,103,103,103,103,103,103,103,
103,103,103,103,103,103,103,103,103,103,103,103,103,103,103,103,
103,103,103,103,103,103,103,103,103,103,103,103,103,103,103,103
</chunk>
   <chunk x="80" y="64" width="16" height="16">
103,103,103,103,103,103,103,103,103,0,0,0,0,0,0,0,
103,103,103,103,103,103,103,103,103,0,0,0,0,0,0,0,
103,103,103,103,103,103,103,103,103,0,0,0,0,0,0,0,
103,103,103,103,103,103,103,103,103,0,0,0,0,0,0,0,
103,103,103,103,103,103,103,103,103,0,0,0,0,0,0,0,
103,103,103,103,103,103,103,103,103,0,0,0,0,0,0,0,
103,103,103,103,103,103,103,103,103,0,0,0,0,0,0,0,
103,103,103,103,103,103,103,103,103,0,0,0,0,0,0,0,
103,103,103,103,103,103,103,103,103,0,0,0,0,0,0,0,
103,103,103,103,103,103,103,103,103,0,0,0,0,0,0,0,
103,103,103,103,103,103,103,103,103,0,0,0,0,0,0,0,
103,103,103,103,103,103,103,103,103,0,0,0,0,0,0,0,
103,103,103,103,103,103,103,103,103,0,0,0,0,0,0,0,
103,103,103,103,103,103,103,103,103,0,0,0,0,0,0,0,
103,103,103,103,103,103,103,103,103,0,0,0,0,0,0,0,
103,103,103,103,103,103,103,103,103,0,0,0,0,0,0,0
</chunk>
   <chunk x="128" y="64" width="16" height="16">
0,0,0,0,0,0,0,0,0,0,0,0,0,103,103,103,
0,0,0,0,0,0,0,0,0,0,0,0,0,103,103,103,
0,0,0,0,0,0,0,0,0,0,0,0,0,103,103,103,
0,0,0,0,0,0,0,0,0,0,0,0,0,103,103,103,
0,0,0,0,0,0,0,0,0,0,0,0,0,103,103,103,
0,0,0,0,0,0,0,0,0,0,0,0,0,103,103,103,
0,0,0,0,0,0,0,0,0,0,0,0,0,103,103,103,
0,0,0,0,0,0,0,0,0,0,0,0,0,103,103,103,
0,0,0,0,0,0,0,0,0,0,0,0,0,103,103,103,
0,0,0,0,0,0,0,0,0,0,0,0,0,103,103,103,
0,0,0,0,0,0,0,0,0,0,0,0,0,103,103,103,
0,0,0,0,0,0,0,0,0,0,0,0,0,103,103,103,
0,0,0,0,0,0,0,0,0,0,0,0,0,103,103,103,
0,0,0,0,0,0,0,0,0,0,0,0,0,103,103,103,
0,0,0,0,0,0,0,0,0,0,0,0,0,103,103,103,
0,0,0,0,0,0,0,0,0,0,0,0,0,103,103,103
</chunk>
   <chunk x="144" y="64" width="16" height="16">
103,103,103,103,103,103,0,0,0,0,0,0,0,0,0,0,
103,103,103,103,103,103,0,0,0,0,0,0,0,0,0,0,
103,103,103,103,103,103,0,0,0,0,0,0,0,0,0,0,
103,103,103,103,103,103,0,0,0,0,0,0,0,0,0,0,
103,103,103,103,103,103,0,0,0,0,0,0,0,0,0,0,
103,103,103,103,103,103,0,0,0,0,0,0,0,0,0,0,
103,103,103,103,103,103,0,0,0,0,0,0,0,0,0,0,
103,103,103,103,103,103,0,0,0,0,0,0,0,0,0,0,
103,103,103,103,103,103,0,0,0,0,0,0,0,0,0,0,
103,103,103,103,103,103,0,0,0,0,0,0,0,0,0,0,
103,103,103,103,103,103,0,0,0,0,0,0,0,0,0,0,
103,103,103,103,103,103,0,0,0,0,0,0,0,0,0,0,
103,103,103,103,103,103,0,0,0,0,0,0,0,0,0,0,
103,103,103,103,103,103,0,0,0,0,0,0,0,0,0,0,
103,103,103,103,103,103,0,0,0,0,0,0,0,0,0,0,
103,103,103,103,103,103,0,0,0,0,0,0,0,0,0,0
</chunk>
   <chunk x="-112" y="80" width="16" height="16">
0,0,0,0,0,0,0,0,0,0,0,0,0,0,0,0,
0,0,0,0,0,0,0,0,0,0,0,0,0,103,103,103,
0,0,0,0,0,0,0,0,0,0,0,0,0,103,103,103,
0,0,0,0,0,0,0,0,0,0,0,0,0,103,103,103,
0,0,0,0,0,0,0,0,0,0,0,0,0,103,103,103,
0,0,0,0,0,0,0,0,0,0,0,0,0,103,103,103,
0,0,0,0,0,0,0,0,0,0,0,0,0,103,103,103,
0,0,0,0,0,0,0,0,0,0,0,0,0,103,103,103,
0,0,0,0,0,0,0,0,0,0,0,0,0,103,103,103,
0,0,0,0,0,0,0,0,0,0,0,0,0,103,103,103,
0,0,0,0,0,0,0,0,0,0,0,0,0,103,103,103,
0,0,0,0,0,0,0,0,0,0,0,0,0,103,103,103,
0,0,0,0,0,0,0,0,0,0,0,0,0,103,103,103,
0,0,0,0,0,0,0,0,0,0,0,0,0,103,103,103,
0,0,0,0,0,0,0,0,0,0,0,0,0,103,103,103,
0,0,0,0,0,0,0,0,0,0,0,0,0,103,103,103
</chunk>
   <chunk x="-96" y="80" width="16" height="16">
0,0,0,0,0,0,0,0,0,0,0,0,0,0,0,0,
103,103,103,103,103,103,103,103,103,103,103,103,103,103,103,103,
103,103,103,103,103,103,103,103,103,103,103,103,103,103,103,103,
103,103,103,103,103,103,103,103,103,103,103,103,103,103,103,103,
103,103,103,103,103,103,103,103,103,103,103,103,103,103,103,103,
103,103,103,103,103,103,103,103,103,103,103,103,103,103,103,103,
103,103,103,103,103,103,103,103,103,103,103,103,103,103,103,103,
103,103,103,103,103,103,103,103,103,103,103,103,103,103,103,103,
103,103,103,103,103,103,103,103,103,103,103,103,103,103,103,103,
103,103,103,103,103,103,103,103,103,103,103,103,103,103,103,103,
103,103,103,103,103,103,103,103,103,103,103,103,103,103,103,103,
103,103,103,103,103,103,103,103,103,103,103,103,103,103,103,103,
103,103,103,103,103,103,103,103,103,103,103,103,103,103,103,103,
103,103,103,103,103,103,103,103,103,103,103,103,103,103,103,103,
103,103,103,103,103,103,103,103,103,103,103,103,103,103,103,103,
103,103,103,103,103,103,103,103,103,103,103,103,103,103,103,103
</chunk>
   <chunk x="-80" y="80" width="16" height="16">
0,0,0,0,0,0,0,0,0,0,0,0,0,0,0,0,
103,103,103,103,103,103,103,103,103,103,103,103,103,103,103,103,
103,103,103,103,103,103,103,103,103,103,103,103,103,103,103,103,
103,103,103,103,103,103,103,103,103,103,103,103,103,103,103,103,
103,103,103,103,103,103,103,103,103,103,103,103,103,103,103,103,
103,103,103,103,103,103,103,103,103,103,103,103,103,103,103,103,
103,103,103,103,103,103,103,103,103,103,103,103,103,103,103,103,
103,103,103,103,103,103,103,103,103,103,103,103,103,103,103,103,
103,103,103,103,103,103,103,103,103,103,103,103,103,103,103,103,
103,103,103,103,103,103,103,103,103,103,103,103,103,103,103,103,
0,0,0,0,0,0,0,0,0,0,0,0,0,0,0,0,
0,0,0,0,0,0,0,0,0,0,0,0,0,0,0,0,
0,0,0,0,0,0,0,0,0,0,0,0,0,0,0,0,
0,0,0,0,0,0,0,0,0,0,0,0,0,0,0,0,
0,0,0,0,0,0,0,0,0,0,0,0,0,0,0,0,
0,0,0,0,0,0,0,0,0,0,0,0,0,0,0,0
</chunk>
   <chunk x="-64" y="80" width="16" height="16">
0,0,0,0,0,0,0,0,0,0,0,0,0,0,0,0,
103,103,103,103,103,103,103,103,103,103,103,103,103,103,103,103,
103,103,103,103,103,103,103,103,103,103,103,103,103,103,103,103,
103,103,103,103,103,103,103,103,103,103,103,103,103,103,103,103,
103,103,103,103,103,103,103,103,103,103,103,103,103,103,103,103,
103,103,103,103,103,103,103,103,103,103,103,103,103,103,103,103,
103,103,103,103,103,103,103,103,103,103,103,103,103,103,103,103,
103,103,103,103,103,103,103,103,103,103,103,103,103,103,103,103,
103,103,103,103,103,103,103,103,103,103,103,103,103,103,103,103,
103,103,103,103,103,103,103,103,103,103,103,103,103,103,103,103,
0,0,0,0,0,0,0,0,0,0,0,0,0,0,0,0,
0,0,0,0,0,0,0,0,0,0,0,0,0,0,0,0,
0,0,0,0,0,0,0,0,0,0,0,0,0,0,0,0,
0,0,0,0,0,0,0,0,0,0,0,0,0,0,0,0,
0,0,0,0,0,0,0,0,0,0,0,0,0,0,0,0,
0,0,0,0,0,0,0,0,0,0,0,0,0,0,0,0
</chunk>
   <chunk x="-48" y="80" width="16" height="16">
0,0,0,0,0,0,0,0,0,0,0,0,0,0,0,0,
103,103,103,103,103,103,103,103,103,103,103,103,103,103,103,103,
103,103,103,103,103,103,103,103,103,103,103,103,103,103,103,103,
103,103,103,103,103,103,103,103,103,103,103,103,103,103,103,103,
103,103,103,103,103,103,103,103,103,103,103,103,103,103,103,103,
103,103,103,103,103,103,103,103,103,103,103,103,103,103,103,103,
103,103,103,103,103,103,103,103,103,103,103,103,103,103,103,103,
103,103,103,103,103,103,103,103,103,103,103,103,103,103,103,103,
103,103,103,103,103,103,103,103,103,103,103,103,103,103,103,103,
103,103,103,103,103,103,103,103,103,103,103,103,103,103,103,103,
0,0,0,0,0,0,0,0,0,0,0,0,0,0,0,0,
0,0,0,0,0,0,0,0,0,0,0,0,0,0,0,0,
0,0,0,0,0,0,0,0,0,0,0,0,0,0,0,0,
0,0,0,0,0,0,0,0,0,0,0,0,0,0,0,0,
0,0,0,0,0,0,0,0,0,0,0,0,0,0,0,0,
0,0,0,0,0,0,0,0,0,0,0,0,0,0,0,0
</chunk>
   <chunk x="-32" y="80" width="16" height="16">
0,0,0,0,0,0,0,0,0,0,0,0,0,0,0,0,
103,103,103,103,103,103,103,103,103,103,103,103,103,103,103,103,
103,103,103,103,103,103,103,103,103,103,103,103,103,103,103,103,
103,103,103,103,103,103,103,103,103,103,103,103,103,103,103,103,
103,103,103,103,103,103,103,103,103,103,103,103,103,103,103,103,
103,103,103,103,103,103,103,103,103,103,103,103,103,103,103,103,
103,103,103,103,103,103,103,103,103,103,103,103,103,103,103,103,
103,103,103,103,103,103,103,103,103,103,103,103,103,103,103,103,
103,103,103,103,103,103,103,103,103,103,103,103,103,103,103,103,
103,103,103,103,103,103,103,103,103,103,103,103,103,103,103,103,
0,0,0,0,0,0,0,0,0,0,0,0,0,0,0,0,
0,0,0,0,0,0,0,0,0,0,0,0,0,0,0,0,
0,0,0,0,0,0,0,0,0,0,0,0,0,0,0,0,
0,0,0,0,0,0,0,0,0,0,0,0,0,0,0,0,
0,0,0,0,0,0,0,0,0,0,0,0,0,0,0,0,
0,0,0,0,0,0,0,0,0,0,0,0,0,0,0,0
</chunk>
   <chunk x="-16" y="80" width="16" height="16">
0,0,0,0,0,0,103,103,103,103,103,103,103,103,103,103,
103,103,103,103,103,103,103,103,103,103,103,103,103,103,103,103,
103,103,103,103,103,103,103,103,103,103,103,103,103,103,103,103,
103,103,103,103,103,103,103,103,103,103,103,103,103,103,103,103,
103,103,103,103,103,103,103,103,103,103,103,103,103,103,103,103,
103,103,103,103,103,103,103,103,103,103,103,103,103,103,103,103,
103,103,103,103,103,103,103,103,103,103,103,103,103,103,103,103,
103,103,103,103,103,103,103,103,103,103,103,103,103,103,103,103,
103,103,103,103,103,103,103,103,103,103,103,103,103,103,103,103,
103,103,103,103,103,103,103,103,103,103,103,103,103,103,103,103,
0,0,0,0,0,0,103,103,103,103,103,103,103,103,103,103,
0,0,0,0,0,0,103,103,103,103,103,103,103,103,103,103,
0,0,0,0,0,0,103,103,103,103,103,103,103,103,103,103,
0,0,0,0,0,0,103,103,103,103,103,103,103,103,103,103,
0,0,0,0,0,0,103,103,103,103,103,103,103,103,103,103,
0,0,0,0,0,0,103,103,103,103,103,103,103,103,103,103
</chunk>
   <chunk x="0" y="80" width="16" height="16">
103,103,103,103,103,103,103,103,103,103,103,103,103,103,103,103,
103,103,103,103,103,103,103,103,103,103,103,103,103,103,103,103,
103,103,103,103,103,103,103,103,103,103,103,103,103,103,103,103,
103,103,103,103,103,103,103,103,103,103,103,103,103,103,103,103,
103,103,103,103,103,103,103,103,103,103,103,103,103,103,103,103,
103,103,103,103,103,103,103,103,103,103,103,103,103,103,103,103,
103,103,103,103,103,103,103,103,103,103,103,103,103,103,103,103,
103,103,103,103,103,103,103,103,103,103,103,103,103,103,103,103,
103,103,103,103,103,103,103,103,103,103,103,103,103,103,103,103,
103,103,103,103,103,103,103,103,103,103,103,103,103,103,103,103,
103,103,103,103,103,103,103,103,103,103,103,103,103,103,103,103,
103,103,103,103,103,103,103,103,103,103,103,103,103,103,103,103,
103,103,103,103,103,103,103,103,103,103,103,103,103,103,103,103,
103,103,103,103,103,103,103,103,103,103,103,103,103,103,103,103,
103,103,103,103,103,103,103,103,103,103,103,103,103,103,103,103,
103,103,103,103,103,103,103,103,103,103,103,103,103,103,103,103
</chunk>
   <chunk x="16" y="80" width="16" height="16">
103,103,103,103,103,103,103,103,103,103,103,103,103,103,0,0,
103,103,103,103,103,103,103,103,103,103,103,103,103,103,0,0,
103,103,103,103,103,103,103,103,103,103,103,103,103,103,0,0,
103,103,103,103,103,103,103,103,103,103,103,103,103,103,0,0,
103,103,103,103,103,103,103,103,103,103,103,103,103,103,0,0,
103,103,103,103,103,103,103,103,103,103,103,103,103,103,0,0,
103,103,103,103,103,103,103,103,103,103,103,103,103,103,0,0,
103,103,103,103,103,103,103,103,103,103,103,103,103,103,0,0,
103,103,103,103,103,103,103,103,103,103,103,103,103,103,0,0,
103,103,103,103,103,103,103,103,103,103,103,103,103,103,0,0,
103,103,103,103,103,103,103,103,103,103,103,103,103,103,0,0,
103,103,103,103,103,103,103,103,103,103,103,103,103,103,103,103,
103,103,103,103,103,103,103,103,103,103,103,103,103,103,103,103,
103,103,103,103,103,103,103,103,103,103,103,103,103,103,103,103,
103,103,103,103,103,103,103,103,103,103,103,103,103,103,103,103,
103,103,103,103,103,103,103,103,103,103,103,103,103,103,103,103
</chunk>
   <chunk x="32" y="80" width="16" height="16">
0,0,0,0,0,0,0,0,0,0,0,0,0,0,0,0,
0,0,0,0,0,0,0,0,0,0,0,0,0,0,0,0,
0,0,0,0,0,0,0,0,0,0,0,0,0,0,0,0,
0,0,0,0,0,0,0,0,0,0,0,0,0,0,0,0,
0,0,0,0,0,0,0,0,0,0,0,0,0,0,0,0,
0,0,0,0,0,0,0,0,0,0,0,0,0,0,0,0,
0,0,0,0,0,0,0,0,0,0,0,0,0,0,0,0,
0,0,0,0,0,0,0,0,0,0,0,0,0,0,0,0,
0,0,0,0,0,0,0,0,0,0,0,0,0,0,0,0,
0,0,0,0,0,0,0,0,0,0,0,0,0,0,0,0,
0,0,0,0,0,0,0,0,0,0,0,0,0,0,0,0,
103,103,103,103,103,103,103,103,103,103,103,103,103,103,103,103,
103,103,103,103,103,103,103,103,103,103,103,103,103,103,103,103,
103,103,103,103,103,103,103,103,103,103,103,103,103,103,103,103,
103,103,103,103,103,103,103,103,103,103,103,103,103,103,103,103,
103,103,103,103,103,103,103,103,103,103,103,103,103,103,103,103
</chunk>
   <chunk x="48" y="80" width="16" height="16">
0,0,0,0,0,103,103,103,103,103,103,103,103,103,103,103,
0,0,0,0,0,103,103,103,103,103,103,103,103,103,103,103,
0,0,0,0,0,103,103,103,103,103,103,103,103,103,103,103,
0,0,0,0,0,103,103,103,103,103,103,103,103,103,103,103,
0,0,0,0,0,0,0,0,0,0,0,0,0,103,103,103,
0,0,0,0,0,0,0,0,0,0,0,0,0,103,103,103,
0,0,0,0,0,0,0,0,0,0,0,0,0,103,103,103,
0,0,0,0,0,0,0,0,0,0,0,0,0,103,103,103,
0,0,0,0,0,0,0,0,0,0,0,0,0,103,103,103,
0,0,0,0,0,0,0,0,0,0,0,0,0,103,103,103,
0,0,0,0,0,0,0,0,0,0,0,0,0,103,103,103,
103,103,103,103,103,103,103,103,103,103,103,103,103,103,103,103,
103,103,103,103,103,103,103,103,103,103,103,103,103,103,103,103,
103,103,103,103,103,103,103,103,103,103,103,103,103,103,103,103,
103,103,103,103,103,103,103,103,103,103,103,103,103,103,103,103,
103,103,103,103,103,103,103,103,103,103,103,103,103,103,103,103
</chunk>
   <chunk x="64" y="80" width="16" height="16">
103,103,103,103,103,103,103,103,103,103,103,103,103,103,103,103,
103,103,103,103,103,103,103,103,103,103,103,103,103,103,103,103,
103,103,103,103,103,103,103,103,103,103,103,103,103,103,103,103,
103,103,103,103,103,103,103,103,103,103,103,103,103,103,103,103,
103,103,103,103,103,0,0,0,0,0,0,0,0,0,0,0,
103,103,103,103,103,0,0,0,0,0,0,0,0,0,0,0,
103,103,103,103,103,0,0,0,0,0,0,0,0,0,0,0,
103,103,103,103,103,0,0,0,0,0,0,0,0,0,0,0,
103,103,103,103,103,0,0,0,0,0,0,0,0,0,0,0,
103,103,103,103,103,0,0,0,0,0,0,0,0,0,0,0,
103,103,103,103,103,0,0,0,0,0,0,0,0,0,0,0,
103,103,103,103,103,103,0,0,0,0,0,0,0,0,0,0,
103,103,103,103,103,103,0,0,0,0,0,0,0,0,0,0,
103,103,103,103,103,103,0,0,0,0,0,0,0,0,0,0,
103,103,103,103,103,103,0,0,0,0,0,0,0,0,0,0,
103,103,103,103,103,103,0,0,0,0,0,0,0,0,0,0
</chunk>
   <chunk x="80" y="80" width="16" height="16">
103,103,103,103,103,103,103,103,103,0,0,0,0,0,0,0,
103,103,103,103,103,103,103,103,103,0,0,0,0,0,0,0,
103,103,103,103,103,103,103,103,103,0,0,0,0,0,0,0,
103,103,103,103,103,103,103,103,103,0,0,0,0,0,0,0,
0,0,0,0,0,0,0,0,0,0,0,0,0,0,0,0,
0,0,0,0,0,0,0,0,0,0,0,0,0,0,0,0,
0,0,0,0,0,0,0,0,0,0,0,0,0,0,0,0,
0,0,0,0,0,0,0,0,0,0,0,0,0,0,0,0,
0,0,0,0,0,0,0,0,0,0,0,0,0,0,0,0,
0,0,0,0,0,0,0,0,0,0,0,0,0,0,0,0,
0,0,0,0,0,0,0,0,0,0,0,0,0,0,0,0,
0,0,0,0,0,0,0,0,0,0,0,0,0,0,0,0,
0,0,0,0,0,0,0,0,0,0,0,0,0,0,0,0,
0,0,0,0,0,0,0,0,0,0,0,0,0,0,0,0,
0,0,0,0,0,0,0,0,0,0,0,0,0,0,0,0,
0,0,0,0,0,0,0,0,0,0,0,0,0,0,0,0
</chunk>
   <chunk x="128" y="80" width="16" height="16">
0,0,0,0,0,0,0,0,0,0,0,0,0,103,103,103,
0,0,0,0,0,0,0,0,0,0,0,0,0,103,103,103,
0,0,0,0,0,0,0,0,0,0,0,0,0,103,103,103,
0,0,0,0,0,0,0,0,0,0,0,0,0,103,103,103,
0,0,0,0,0,0,0,0,0,0,0,0,0,103,103,103,
0,0,0,0,0,0,0,0,0,0,0,0,0,103,103,103,
0,0,0,0,0,0,0,0,0,0,0,0,0,103,103,103,
0,0,0,0,0,0,0,0,0,0,0,0,0,103,103,103,
0,0,0,0,0,0,0,0,0,0,0,0,0,103,103,103,
0,0,0,0,0,0,0,0,0,0,0,0,0,103,103,103,
0,0,0,0,0,0,0,0,0,0,0,0,0,103,103,103,
0,0,0,0,0,0,0,0,0,0,0,0,0,103,103,103,
0,0,0,0,0,0,0,0,0,0,0,0,0,103,103,103,
0,0,0,0,0,0,0,0,0,0,0,0,0,103,103,103,
0,0,0,0,0,0,0,0,0,0,0,0,0,103,103,103,
0,0,0,0,0,0,0,0,0,0,0,0,0,103,103,103
</chunk>
   <chunk x="144" y="80" width="16" height="16">
103,103,103,103,103,103,0,0,0,0,0,0,0,0,0,0,
103,103,103,103,103,103,0,0,0,0,0,0,0,0,0,0,
103,103,103,103,103,103,0,0,0,0,0,0,0,0,0,0,
103,103,103,103,103,103,0,0,0,0,0,0,0,0,0,0,
103,103,103,103,103,103,0,0,0,0,0,0,0,0,0,0,
103,103,103,103,103,103,0,0,0,0,0,0,0,0,0,0,
103,103,103,103,103,103,0,0,0,0,0,0,0,0,0,0,
103,103,103,103,103,103,0,0,0,0,0,0,0,0,0,0,
103,103,103,103,103,103,0,0,0,0,0,0,0,0,0,0,
103,103,103,103,103,103,0,0,0,0,0,0,0,0,0,0,
103,103,103,103,103,103,0,0,0,0,0,0,0,0,0,0,
103,103,103,103,103,103,0,0,0,0,0,0,0,0,0,0,
103,103,103,103,103,103,0,0,0,0,0,0,0,0,0,0,
103,103,103,103,103,103,0,0,0,0,0,0,0,0,0,0,
103,103,103,103,103,103,0,0,0,0,0,0,0,0,0,0,
103,103,103,103,103,103,0,0,0,0,0,0,0,0,0,0
</chunk>
   <chunk x="-144" y="96" width="16" height="16">
0,0,0,0,0,0,0,0,0,0,0,0,0,0,0,0,
0,0,0,0,0,0,0,0,0,0,0,0,0,0,0,0,
0,0,0,0,0,0,0,0,0,0,0,0,0,0,0,0,
0,0,0,0,0,0,0,0,0,0,0,0,0,0,0,0,
0,0,0,0,0,0,0,0,0,0,0,0,0,0,0,0,
0,0,0,0,0,0,0,0,0,0,0,0,0,0,0,0,
0,0,0,0,0,0,0,0,0,0,0,0,0,0,0,0,
0,0,0,0,0,0,0,0,0,0,0,0,0,0,0,0,
0,0,0,0,0,0,0,0,0,0,0,0,0,0,0,0,
0,0,0,0,0,0,0,0,0,0,0,0,0,0,0,0,
0,0,0,0,0,0,0,0,0,0,0,0,0,0,0,0,
0,0,0,0,0,0,0,0,0,0,0,0,0,0,0,0,
0,0,0,0,0,0,0,0,0,0,0,0,0,0,0,0,
0,0,0,0,0,0,0,0,0,0,0,0,0,0,0,0,
0,0,0,0,0,0,0,0,0,0,0,0,0,0,0,0,
0,0,0,0,103,103,103,103,103,103,103,103,103,103,103,103
</chunk>
   <chunk x="-128" y="96" width="16" height="16">
0,0,0,0,0,0,0,0,0,0,0,0,0,0,0,0,
0,0,0,0,0,0,0,0,0,0,0,0,0,0,0,0,
0,0,0,0,0,0,0,0,0,0,0,0,0,0,0,0,
0,0,0,0,0,0,0,0,0,0,0,0,0,0,0,0,
0,0,0,0,0,0,0,0,0,0,0,0,0,0,0,0,
0,0,0,0,0,0,0,0,0,0,0,0,0,0,0,0,
0,0,0,0,0,0,0,0,0,0,0,0,0,0,0,0,
0,0,0,0,0,0,0,0,0,0,0,0,0,0,0,0,
0,0,0,0,0,0,0,0,0,0,0,0,0,0,0,0,
0,0,0,0,0,0,0,0,0,0,0,0,0,0,0,0,
0,0,0,0,0,0,0,0,0,0,0,0,0,0,0,0,
0,0,0,0,0,0,0,0,0,0,0,0,0,0,0,0,
0,0,0,0,0,0,0,0,0,0,0,0,0,0,0,0,
0,0,0,0,0,0,0,0,0,0,0,0,0,0,0,0,
0,0,0,0,0,0,0,0,0,0,0,0,0,0,0,0,
103,103,103,103,103,103,103,103,103,103,103,103,103,103,103,103
</chunk>
   <chunk x="-112" y="96" width="16" height="16">
0,0,0,0,0,0,0,0,0,0,0,0,0,103,103,103,
0,0,0,0,0,0,0,0,0,0,0,0,0,103,103,103,
0,0,0,0,0,0,0,0,0,0,0,0,0,103,103,103,
0,0,0,0,0,0,0,0,0,0,0,0,0,103,103,103,
0,0,0,0,0,0,0,0,0,0,0,0,0,103,103,103,
0,0,0,0,0,0,0,0,0,0,0,0,0,103,103,103,
0,0,0,0,0,0,0,0,0,0,0,0,0,103,103,103,
0,0,0,0,0,0,0,0,0,0,0,0,0,103,103,103,
0,0,0,0,0,0,0,0,0,0,0,0,0,103,103,103,
0,0,0,0,0,0,0,0,0,0,0,0,0,103,103,103,
0,0,0,0,0,0,0,0,0,0,0,0,0,103,103,103,
0,0,0,0,0,0,0,0,0,0,0,0,0,103,103,103,
0,0,0,0,0,0,0,0,0,0,0,0,0,103,103,103,
0,0,0,0,0,0,0,0,0,0,0,0,0,103,103,103,
0,0,0,0,0,0,0,0,0,0,0,0,0,103,103,103,
103,103,103,103,103,103,103,103,103,103,103,103,103,103,103,103
</chunk>
   <chunk x="-96" y="96" width="16" height="16">
103,103,103,103,103,103,103,103,103,103,103,103,103,103,103,103,
103,103,103,103,103,103,103,103,103,103,103,103,103,103,103,103,
103,103,103,103,103,103,103,103,103,103,103,103,103,103,103,103,
103,103,103,103,103,103,103,103,103,103,103,103,103,103,103,103,
103,103,103,103,103,103,103,103,103,103,103,103,103,103,103,103,
103,103,103,103,103,103,103,103,103,103,103,103,103,103,103,103,
103,103,103,103,103,103,103,103,103,103,103,103,103,103,103,103,
103,103,103,103,103,103,103,103,103,103,103,103,103,103,103,103,
103,103,103,103,103,103,103,103,103,103,103,103,103,103,103,103,
103,103,103,103,103,103,103,103,103,103,103,103,103,103,103,103,
103,103,103,103,103,103,103,103,103,103,103,103,103,103,103,103,
103,103,103,103,103,103,103,103,103,103,103,103,103,103,103,103,
103,103,103,103,103,103,103,103,103,103,103,103,103,103,103,103,
103,103,103,103,103,103,103,103,103,103,103,103,103,103,103,103,
103,103,103,103,103,103,103,103,103,103,103,103,103,103,103,103,
103,103,103,103,103,103,103,103,103,103,103,103,103,103,103,103
</chunk>
   <chunk x="-16" y="96" width="16" height="16">
0,0,0,0,0,0,103,103,103,103,103,103,103,103,103,103,
0,0,0,0,0,0,103,103,103,103,103,103,103,103,103,103,
0,0,0,0,0,0,103,103,103,103,103,103,103,103,103,103,
0,0,0,0,0,0,103,103,103,103,103,103,103,103,103,103,
0,0,0,0,0,0,0,0,0,0,0,0,0,0,0,0,
0,0,0,0,0,0,0,0,0,0,0,0,0,0,0,0,
0,0,0,0,0,0,0,0,0,0,0,0,0,0,0,0,
0,0,0,0,0,0,0,0,0,0,0,0,0,0,0,0,
0,0,0,0,0,0,0,0,0,0,0,0,0,0,0,0,
0,0,0,0,0,0,0,0,0,0,0,0,0,0,0,0,
0,0,0,0,0,0,0,0,0,0,0,0,0,0,0,0,
0,0,0,0,0,0,0,0,0,0,0,0,0,0,0,0,
0,0,0,0,0,0,0,0,0,0,0,0,0,0,0,0,
0,0,0,0,0,0,0,0,0,0,0,0,0,0,0,0,
0,0,0,0,0,0,0,0,0,0,0,0,0,0,0,0,
0,0,0,0,0,0,0,0,0,0,0,0,0,0,0,0
</chunk>
   <chunk x="0" y="96" width="16" height="16">
103,103,103,103,103,103,103,103,103,103,103,103,103,103,103,103,
103,103,103,103,103,103,103,103,103,103,103,103,103,103,103,103,
103,103,103,103,103,103,103,103,103,103,103,103,103,103,103,103,
103,103,103,103,103,103,103,103,103,103,103,103,103,103,103,103,
0,0,0,0,0,0,0,0,0,0,0,0,0,0,0,0,
0,0,0,0,0,0,0,0,0,0,0,0,0,0,0,0,
0,0,0,0,0,0,0,0,0,0,0,0,0,0,0,0,
0,0,0,0,0,0,0,0,0,0,0,0,0,0,0,0,
0,0,0,0,0,0,0,0,0,0,0,0,0,0,0,0,
0,0,0,0,0,0,0,0,0,0,0,0,0,0,0,0,
0,0,0,0,0,0,0,0,0,0,0,0,0,0,0,0,
0,0,0,0,0,0,0,0,0,0,0,0,0,0,0,0,
0,0,0,0,0,0,0,0,0,0,0,0,0,0,0,0,
0,0,0,0,0,0,0,0,0,0,0,0,0,0,0,0,
0,0,0,0,0,0,0,0,0,0,0,0,0,0,0,0,
0,0,0,0,0,0,0,0,0,0,0,0,0,0,0,0
</chunk>
   <chunk x="16" y="96" width="16" height="16">
103,103,103,103,103,103,103,103,103,103,103,103,103,103,103,103,
103,103,103,103,103,103,103,103,103,103,103,103,103,103,103,103,
103,103,103,103,103,103,103,103,103,103,103,103,103,103,103,103,
103,103,103,103,103,103,103,103,103,103,103,103,103,103,103,103,
0,0,0,0,0,0,0,0,0,0,0,0,0,0,0,0,
0,0,0,0,0,0,0,0,0,0,0,0,0,0,0,0,
0,0,0,0,0,0,0,0,0,0,0,0,0,0,0,0,
0,0,0,0,0,0,0,0,0,0,0,0,0,0,0,0,
0,0,0,0,0,0,0,0,0,0,0,0,0,0,0,0,
0,0,0,0,0,0,0,0,0,0,0,0,0,0,0,0,
0,0,0,0,0,0,0,0,0,0,0,0,0,0,0,0,
0,0,0,0,0,0,0,0,0,0,0,0,0,0,0,0,
0,0,0,0,0,0,0,0,0,0,0,0,0,0,0,0,
0,0,0,0,0,0,0,0,0,0,0,0,0,0,0,0,
0,0,0,0,0,0,0,0,0,0,0,0,0,0,0,0,
0,0,0,0,0,0,0,0,0,0,0,0,0,0,0,0
</chunk>
   <chunk x="32" y="96" width="16" height="16">
103,103,103,103,103,103,103,103,103,103,103,103,103,103,103,103,
103,103,103,103,103,103,103,103,103,103,103,103,103,103,103,103,
103,103,103,103,103,103,103,103,103,103,103,103,103,103,103,103,
103,103,103,103,103,103,103,103,103,103,103,103,103,103,103,103,
0,0,0,0,0,0,0,0,0,0,0,0,0,0,0,0,
0,0,0,0,0,0,0,0,0,0,0,0,0,0,0,0,
0,0,0,0,0,0,0,0,0,0,0,0,0,0,0,0,
0,0,0,0,0,0,0,0,0,0,0,0,0,0,0,0,
0,0,0,0,0,0,0,0,0,0,0,0,0,0,0,0,
0,0,0,0,0,0,0,0,0,0,0,0,0,0,0,0,
0,0,0,0,0,0,0,0,0,0,0,0,0,0,0,0,
0,0,0,0,0,0,0,0,0,0,0,0,0,0,0,0,
0,0,0,0,0,0,0,0,0,0,0,0,0,0,0,0,
0,0,0,0,0,0,0,0,0,0,0,0,0,0,0,0,
0,0,0,0,0,0,0,0,0,0,0,0,0,0,0,0,
0,0,0,0,0,0,0,0,0,0,0,0,0,0,0,0
</chunk>
   <chunk x="48" y="96" width="16" height="16">
103,103,103,103,103,103,103,103,103,103,103,103,103,103,103,103,
103,103,103,103,103,103,103,103,103,103,103,103,103,103,103,103,
103,103,103,103,103,103,103,103,103,103,103,103,103,103,103,103,
103,103,103,103,103,103,103,103,103,103,103,103,103,103,103,103,
0,0,0,0,0,0,0,0,0,0,0,0,0,0,0,0,
0,0,0,0,0,0,0,0,0,0,0,0,0,0,0,0,
0,0,0,0,0,0,0,0,0,0,0,0,0,0,0,0,
0,0,0,0,0,0,0,0,0,0,0,0,0,0,0,0,
0,0,0,0,0,0,0,0,0,0,0,0,0,0,0,0,
0,0,0,0,0,0,0,0,0,0,0,0,0,0,0,0,
0,0,0,0,0,0,0,0,0,0,0,0,0,0,0,0,
0,0,0,0,0,0,0,0,0,0,0,0,0,0,0,0,
0,0,0,0,0,0,0,0,0,0,0,0,0,0,0,0,
0,0,0,0,0,0,0,0,0,0,0,0,0,0,0,0,
0,0,0,0,0,0,0,0,0,0,0,0,0,0,0,0,
0,0,0,0,0,0,0,0,0,0,0,0,0,0,0,0
</chunk>
   <chunk x="64" y="96" width="16" height="16">
103,103,103,103,103,103,0,0,0,0,0,0,0,0,0,0,
103,103,103,103,103,103,0,0,0,0,0,0,0,0,0,0,
103,103,103,103,103,103,0,0,0,0,0,0,0,0,0,0,
103,103,103,103,103,103,0,0,0,0,0,0,0,0,0,0,
0,0,0,0,0,0,0,0,0,0,0,0,0,0,0,0,
0,0,0,0,0,0,0,0,0,0,0,0,0,0,0,0,
0,0,0,0,0,0,0,0,0,0,0,0,0,0,0,0,
0,0,0,0,0,0,0,0,0,0,0,0,0,0,0,0,
0,0,0,0,0,0,0,0,0,0,0,0,0,0,0,0,
0,0,0,0,0,0,0,0,0,0,0,0,0,0,0,0,
0,0,0,0,0,0,0,0,0,0,0,0,0,0,0,0,
0,0,0,0,0,0,0,0,0,0,0,0,0,0,0,0,
0,0,0,0,0,0,0,0,0,0,0,0,0,0,0,0,
0,0,0,0,0,0,0,0,0,0,0,0,0,0,0,0,
0,0,0,0,0,0,0,0,0,0,0,0,0,0,0,0,
0,0,0,0,0,0,0,0,0,0,0,0,0,0,0,0
</chunk>
   <chunk x="128" y="96" width="16" height="16">
0,0,0,0,0,0,0,0,0,0,0,0,0,103,103,103,
0,0,0,0,0,0,0,0,0,0,0,0,0,103,103,103,
0,0,0,0,0,0,0,0,0,0,0,0,0,103,103,103,
0,0,0,0,0,0,0,0,0,0,0,0,0,103,103,103,
0,0,0,0,0,0,0,0,0,0,0,0,0,103,103,103,
0,0,0,0,0,0,0,0,0,0,0,0,0,103,103,103,
0,0,0,0,0,0,0,0,0,0,0,0,0,103,103,103,
0,0,0,0,0,0,0,0,0,0,0,0,0,103,103,103,
0,0,0,0,0,0,0,0,0,0,0,0,0,103,103,103,
0,0,0,0,0,0,0,0,0,0,0,0,0,103,103,103,
0,0,0,0,0,0,0,0,0,0,0,0,0,103,103,103,
0,0,0,0,0,0,0,0,0,0,0,0,0,103,103,103,
0,0,0,0,0,0,0,0,0,0,0,0,0,103,103,103,
0,0,0,0,0,0,0,0,0,0,0,0,0,103,103,103,
0,0,0,0,0,0,0,0,0,0,0,0,0,103,103,103,
0,0,0,0,0,0,0,0,0,0,0,0,0,103,103,103
</chunk>
   <chunk x="144" y="96" width="16" height="16">
103,103,103,103,103,103,0,0,0,0,0,0,0,0,0,0,
103,103,103,103,103,103,0,0,0,0,0,0,0,0,0,0,
103,103,103,103,103,103,0,0,0,0,0,0,0,0,0,0,
103,103,103,103,103,103,0,0,0,0,0,0,0,0,0,0,
103,103,103,103,103,103,0,0,0,0,0,0,0,0,0,0,
103,103,103,103,103,103,0,0,0,0,0,0,0,0,0,0,
103,103,103,103,103,103,0,0,0,0,0,0,0,0,0,0,
103,103,103,103,103,103,0,0,0,0,0,0,0,0,0,0,
103,103,103,103,103,103,0,0,0,0,0,0,0,0,0,0,
103,103,103,103,103,103,0,0,0,0,0,0,0,0,0,0,
103,103,103,103,103,103,0,0,0,0,0,0,0,0,0,0,
103,103,103,103,103,103,0,0,0,0,0,0,0,0,0,0,
103,103,103,103,103,103,0,0,0,0,0,0,0,0,0,0,
103,103,103,103,103,103,0,0,0,0,0,0,0,0,0,0,
103,103,103,103,103,103,0,0,0,0,0,0,0,0,0,0,
103,103,103,103,103,103,0,0,0,0,0,0,0,0,0,0
</chunk>
   <chunk x="-144" y="112" width="16" height="16">
0,0,0,0,103,103,103,103,103,103,103,103,103,103,103,103,
0,0,0,0,103,103,103,103,103,103,103,103,103,103,103,103,
0,0,0,0,103,103,103,103,103,103,103,103,103,103,103,103,
0,0,0,0,103,103,103,103,103,103,103,103,103,103,103,103,
0,0,0,0,103,103,103,103,103,103,103,103,103,103,103,103,
0,0,0,0,103,103,103,103,103,103,103,103,103,103,103,103,
0,0,0,0,103,103,103,103,103,103,103,103,103,103,103,103,
0,0,0,0,103,103,103,103,103,103,103,103,103,103,103,103,
0,0,0,0,103,103,103,103,103,103,103,103,103,103,103,103,
0,0,0,0,103,103,103,103,103,103,103,103,103,103,103,103,
0,0,0,0,103,103,103,103,103,103,103,103,103,103,103,103,
0,0,0,0,103,103,103,103,103,103,103,103,103,103,103,103,
0,0,0,0,103,103,103,103,103,103,103,103,103,103,103,103,
0,0,0,0,103,103,103,103,103,103,103,103,103,103,103,103,
0,0,0,0,103,103,103,103,103,103,103,103,103,103,103,103,
0,0,0,0,103,103,103,103,103,103,103,103,103,103,103,103
</chunk>
   <chunk x="-128" y="112" width="16" height="16">
103,103,103,103,103,103,103,103,103,103,103,103,103,103,103,103,
103,103,103,103,103,103,103,103,103,103,103,103,103,103,103,103,
103,103,103,103,103,103,103,103,103,103,103,103,103,103,103,103,
103,103,103,103,103,103,103,103,103,103,103,103,103,103,103,103,
103,103,103,103,103,103,103,103,103,103,103,103,103,103,103,103,
103,103,103,103,103,103,103,103,103,103,103,103,103,103,103,103,
103,103,103,103,103,103,103,103,103,103,103,103,103,103,103,103,
103,103,103,103,103,103,103,103,103,103,103,103,103,103,103,103,
103,103,103,103,103,103,103,103,103,103,103,103,103,103,103,103,
103,103,103,103,103,103,103,103,103,103,103,103,103,103,103,103,
103,103,103,103,103,103,103,103,103,103,103,103,103,103,103,103,
103,103,103,103,103,103,103,103,103,103,103,103,103,103,103,103,
103,103,103,103,103,103,103,103,103,103,103,103,103,103,103,103,
103,103,103,103,103,103,103,103,103,103,103,103,103,103,103,103,
103,103,103,103,103,103,103,103,103,103,103,103,103,103,103,103,
103,103,103,103,103,103,103,103,103,103,103,103,103,103,103,103
</chunk>
   <chunk x="-112" y="112" width="16" height="16">
103,103,103,103,103,103,103,103,103,103,103,103,103,103,103,103,
103,103,103,103,103,103,103,103,103,103,103,103,103,103,103,103,
103,103,103,103,103,103,103,103,103,103,103,103,103,103,103,103,
103,103,103,103,103,103,103,103,103,103,103,103,103,103,103,103,
103,103,103,103,103,103,103,103,103,103,103,103,103,103,103,103,
103,103,103,103,103,103,103,103,103,103,103,103,103,103,103,103,
103,103,103,103,103,103,103,103,103,103,103,103,103,103,103,103,
103,103,103,103,103,103,103,103,103,103,103,103,103,103,103,103,
103,103,103,103,103,103,103,103,103,103,103,103,103,103,103,103,
103,103,103,103,103,103,103,103,103,103,103,103,103,103,103,103,
103,103,103,103,103,103,103,103,103,103,103,103,103,103,103,103,
103,103,103,103,103,103,103,103,103,103,103,103,103,103,103,103,
103,103,103,103,103,103,103,103,103,103,103,103,103,103,103,103,
103,103,103,103,103,103,103,103,103,103,103,103,103,103,103,103,
103,103,103,103,103,103,103,103,103,103,103,103,103,103,103,103,
103,103,103,103,103,103,103,103,103,103,103,103,103,103,103,103
</chunk>
   <chunk x="-96" y="112" width="16" height="16">
103,103,103,103,103,103,103,103,103,103,103,103,103,103,103,103,
103,103,103,103,103,103,103,103,103,103,103,103,103,103,103,103,
103,103,103,103,103,103,103,103,103,103,103,103,103,103,103,103,
103,103,103,103,103,103,103,103,103,103,103,103,103,103,103,103,
103,103,103,103,103,103,103,103,103,103,103,103,103,103,103,103,
103,103,103,103,103,103,103,103,103,103,103,103,103,103,103,103,
103,103,103,103,103,103,103,103,103,103,103,103,103,103,103,103,
103,103,103,103,103,103,103,103,103,103,103,103,103,103,103,103,
103,103,103,103,103,103,103,103,103,103,103,103,103,103,103,103,
103,103,103,103,103,103,103,103,103,103,103,103,103,103,103,103,
103,103,103,103,103,103,103,103,103,103,103,103,103,103,103,103,
103,103,103,103,103,103,103,103,103,103,103,103,103,103,103,103,
103,103,103,103,103,103,103,103,103,103,103,103,103,103,103,103,
103,103,103,103,103,103,103,103,103,103,103,103,103,103,103,103,
103,103,103,103,103,103,103,103,103,103,103,103,103,103,103,103,
103,103,103,103,103,103,103,103,103,103,103,103,103,103,103,103
</chunk>
   <chunk x="-80" y="112" width="16" height="16">
0,0,0,0,0,0,0,0,0,0,0,0,0,0,0,0,
0,0,0,0,0,0,0,0,0,0,0,0,0,0,0,0,
0,0,0,0,0,0,0,0,0,0,0,0,0,0,0,0,
0,0,0,0,0,0,0,0,0,0,0,0,0,0,0,0,
0,0,0,0,0,0,0,0,0,0,0,0,0,0,0,0,
0,0,0,0,0,0,0,0,0,0,0,0,0,0,0,0,
0,0,0,0,0,0,0,0,0,0,0,0,0,0,0,0,
0,0,0,0,0,0,0,0,0,0,0,0,0,0,0,0,
103,103,103,103,103,103,103,103,103,103,103,103,103,103,103,103,
103,103,103,103,103,103,103,103,103,103,103,103,103,103,103,103,
103,103,103,103,103,103,103,103,103,103,103,103,103,103,103,103,
103,103,103,103,103,103,103,103,103,103,103,103,103,103,103,103,
103,103,103,103,103,103,103,103,103,103,103,103,103,103,103,103,
103,103,103,103,103,103,103,103,103,103,103,103,103,103,103,103,
103,103,103,103,103,103,103,103,103,103,103,103,103,103,103,103,
103,103,103,103,103,103,103,103,103,103,103,103,103,103,103,103
</chunk>
   <chunk x="-64" y="112" width="16" height="16">
0,0,0,0,0,0,0,0,0,0,0,0,0,0,0,0,
0,0,0,0,0,0,0,0,0,0,0,0,0,0,0,0,
0,0,0,0,0,0,0,0,0,0,0,0,0,0,0,0,
0,0,0,0,0,0,0,0,0,0,0,0,0,0,0,0,
0,0,0,0,0,0,0,0,0,0,0,0,0,0,0,0,
0,0,0,0,0,0,0,0,0,0,0,0,0,0,0,0,
0,0,0,0,0,0,0,0,0,0,0,0,0,0,0,0,
0,0,0,0,0,0,0,0,0,0,0,0,0,0,0,0,
103,103,103,103,103,103,103,103,103,103,103,103,103,103,103,103,
103,103,103,103,103,103,103,103,103,103,103,103,103,103,103,103,
103,103,103,103,103,103,103,103,103,103,103,103,103,103,103,103,
103,103,103,103,103,103,103,103,103,103,103,103,103,103,103,103,
103,103,103,103,103,103,103,103,103,103,103,103,103,103,103,103,
103,103,103,103,103,103,103,103,103,103,103,103,103,103,103,103,
103,103,103,103,103,103,103,103,103,103,103,103,103,103,103,103,
103,103,103,103,103,103,103,103,103,103,103,103,103,103,103,103
</chunk>
   <chunk x="-48" y="112" width="16" height="16">
0,0,0,0,0,0,0,0,0,0,0,0,0,0,0,0,
0,0,0,0,0,0,0,0,0,0,0,0,0,0,0,0,
0,0,0,0,0,0,0,0,0,0,0,0,0,0,0,0,
0,0,0,0,0,0,0,0,0,0,0,0,0,0,0,0,
0,0,0,0,0,0,0,0,0,0,0,0,0,0,0,0,
0,0,0,0,0,0,0,0,0,0,0,0,0,0,0,0,
0,0,0,0,0,0,0,0,0,0,0,0,0,0,0,0,
0,0,0,0,0,0,0,0,0,0,0,0,0,0,0,0,
103,103,103,103,103,103,103,103,103,103,103,103,103,103,103,103,
103,103,103,103,103,103,103,103,103,103,103,103,103,103,103,103,
103,103,103,103,103,103,103,103,103,103,103,103,103,103,103,103,
103,103,103,103,103,103,103,103,103,103,103,103,103,103,103,103,
103,103,103,103,103,103,103,103,103,103,103,103,103,103,103,103,
103,103,103,103,103,103,103,103,103,103,103,103,103,103,103,103,
103,103,103,103,103,103,103,103,103,103,103,103,103,103,103,103,
103,103,103,103,103,103,103,103,103,103,103,103,103,103,103,103
</chunk>
   <chunk x="-32" y="112" width="16" height="16">
0,0,0,0,0,0,0,0,0,0,0,0,0,0,0,0,
0,0,0,0,0,0,0,0,0,0,0,0,0,0,0,0,
0,0,0,0,0,0,0,0,0,0,0,0,0,0,0,0,
0,0,0,0,0,0,0,0,0,0,0,0,0,0,0,0,
0,0,0,0,0,0,0,0,0,0,0,0,0,0,0,0,
0,0,0,0,0,0,0,0,0,0,0,0,0,0,0,0,
0,0,0,0,0,0,0,0,0,0,0,0,0,0,0,0,
0,0,0,0,0,0,0,0,0,0,0,0,0,0,0,0,
103,103,103,103,103,103,103,103,103,103,103,103,103,103,103,103,
103,103,103,103,103,103,103,103,103,103,103,103,103,103,103,103,
103,103,103,103,103,103,103,103,103,103,103,103,103,103,103,103,
103,103,103,103,103,103,103,103,103,103,103,103,103,103,103,103,
103,103,103,103,103,103,103,103,103,103,103,103,103,103,103,103,
103,103,103,103,103,103,103,103,103,103,103,103,103,103,103,103,
103,103,103,103,103,103,103,103,103,103,103,103,103,103,103,103,
103,103,103,103,103,103,103,103,103,103,103,103,103,103,103,103
</chunk>
   <chunk x="-16" y="112" width="16" height="16">
0,0,0,0,0,0,0,0,0,0,0,0,0,0,0,0,
0,0,0,0,0,0,0,0,0,0,0,0,0,0,0,0,
0,0,0,0,0,0,0,0,0,0,0,0,0,0,0,0,
0,0,0,0,0,0,0,0,0,0,0,0,0,0,0,0,
0,0,0,0,0,0,0,0,0,0,0,0,0,0,0,0,
0,0,0,0,0,0,0,0,0,0,0,0,0,0,0,0,
0,0,0,0,0,0,0,0,0,0,0,0,0,0,0,0,
0,0,0,0,0,0,0,0,0,0,0,0,0,0,0,0,
103,103,103,103,103,103,103,103,103,103,103,103,103,103,103,103,
103,103,103,103,103,103,103,103,103,103,103,103,103,103,103,103,
103,103,103,103,103,103,103,103,103,103,103,103,103,103,103,103,
103,103,103,103,103,103,103,103,103,103,103,103,103,103,103,103,
103,103,103,103,103,103,103,103,103,103,103,103,103,103,103,103,
103,103,103,103,103,103,103,103,103,103,103,103,103,103,103,103,
103,103,103,103,103,103,103,103,103,103,103,103,103,103,103,103,
103,103,103,103,103,103,103,103,103,103,103,103,103,103,103,103
</chunk>
   <chunk x="0" y="112" width="16" height="16">
0,0,0,0,0,0,0,0,0,0,0,0,0,0,0,0,
0,0,0,0,0,0,0,0,0,0,0,0,0,0,0,0,
0,0,0,0,0,0,0,0,0,0,0,0,0,0,0,0,
0,0,0,0,0,0,0,0,0,0,0,0,0,0,0,0,
0,0,0,0,0,0,0,0,0,0,0,0,0,0,0,0,
0,0,0,0,0,0,0,0,0,0,0,0,0,0,0,0,
0,0,0,0,0,0,0,0,0,0,0,0,0,0,0,0,
0,0,0,0,0,0,0,0,0,0,0,0,0,0,0,0,
103,103,103,103,103,103,103,103,103,103,103,103,103,103,103,103,
103,103,103,103,103,103,103,103,103,103,103,103,103,103,103,103,
103,103,103,103,103,103,103,103,103,103,103,103,103,103,103,103,
103,103,103,103,103,103,103,103,103,103,103,103,103,103,103,103,
103,103,103,103,103,103,103,103,103,103,103,103,103,103,103,103,
103,103,103,103,103,103,103,103,103,103,103,103,103,103,103,103,
103,103,103,103,103,103,103,103,103,103,103,103,103,103,103,103,
103,103,103,103,103,103,103,103,103,103,103,103,103,103,103,103
</chunk>
   <chunk x="16" y="112" width="16" height="16">
0,0,0,0,0,0,0,0,0,0,0,0,0,0,0,0,
0,0,0,0,0,0,0,0,0,0,0,0,0,0,0,0,
0,0,0,0,0,0,0,0,0,0,0,0,0,0,0,0,
0,0,0,0,0,0,0,0,0,0,0,0,0,0,0,0,
0,0,0,0,0,0,0,0,0,0,0,0,0,0,0,0,
0,0,0,0,0,0,0,0,0,0,0,0,0,0,0,0,
0,0,0,0,0,0,0,0,0,0,0,0,0,0,0,0,
0,0,0,0,0,0,0,0,0,0,0,0,0,0,0,0,
103,103,103,103,103,103,103,103,103,103,103,103,103,103,103,103,
103,103,103,103,103,103,103,103,103,103,103,103,103,103,103,103,
103,103,103,103,103,103,103,103,103,103,103,103,103,103,103,103,
103,103,103,103,103,103,103,103,103,103,103,103,103,103,103,103,
103,103,103,103,103,103,103,103,103,103,103,103,103,103,103,103,
103,103,103,103,103,103,103,103,103,103,103,103,103,103,103,103,
103,103,103,103,103,103,103,103,103,103,103,103,103,103,103,103,
103,103,103,103,103,103,103,103,103,103,103,103,103,103,103,103
</chunk>
   <chunk x="32" y="112" width="16" height="16">
0,0,0,0,0,0,0,0,0,0,0,0,0,0,0,0,
0,0,0,0,0,0,0,0,0,0,0,0,0,0,0,0,
0,0,0,0,0,0,0,0,0,0,0,0,0,0,0,0,
0,0,0,0,0,0,0,0,0,0,0,0,0,0,0,0,
0,0,0,0,0,0,0,0,0,0,0,0,0,0,0,0,
0,0,0,0,0,0,0,0,0,0,0,0,0,0,0,0,
0,0,0,0,0,0,0,0,0,0,0,0,0,0,0,0,
0,0,0,0,0,0,0,0,0,0,0,0,0,0,0,0,
103,103,103,103,103,103,103,103,103,103,103,103,103,103,103,103,
103,103,103,103,103,103,103,103,103,103,103,103,103,103,103,103,
103,103,103,103,103,103,103,103,103,103,103,103,103,103,103,103,
103,103,103,103,103,103,103,103,103,103,103,103,103,103,103,103,
103,103,103,103,103,103,103,103,103,103,103,103,103,103,103,103,
103,103,103,103,103,103,103,103,103,103,103,103,103,103,103,103,
103,103,103,103,103,103,103,103,103,103,103,103,103,103,103,103,
103,103,103,103,103,103,103,103,103,103,103,103,103,103,103,103
</chunk>
   <chunk x="48" y="112" width="16" height="16">
0,0,0,0,0,0,0,0,0,0,0,0,0,0,0,0,
0,0,0,0,0,0,0,0,0,0,0,0,0,0,0,0,
0,0,0,0,0,0,0,0,0,0,0,0,0,0,0,0,
0,0,0,0,0,0,0,0,0,0,0,0,0,0,0,0,
0,0,0,0,0,0,0,0,0,0,0,0,0,0,0,0,
0,0,0,0,0,0,0,0,0,0,0,0,0,0,0,0,
0,0,0,0,0,0,0,0,0,0,0,0,0,0,0,0,
0,0,0,0,0,0,0,0,0,0,0,0,0,0,0,0,
103,103,103,103,103,103,103,103,103,103,103,103,103,103,103,103,
103,103,103,103,103,103,103,103,103,103,103,103,103,103,103,103,
103,103,103,103,103,103,103,103,103,103,103,103,103,103,103,103,
103,103,103,103,103,103,103,103,103,103,103,103,103,103,103,103,
103,103,103,103,103,103,103,103,103,103,103,103,103,103,103,103,
103,103,103,103,103,103,103,103,103,103,103,103,103,103,103,103,
103,103,103,103,103,103,103,103,103,103,103,103,103,103,103,103,
103,103,103,103,103,103,103,103,103,103,103,103,103,103,103,103
</chunk>
   <chunk x="64" y="112" width="16" height="16">
0,0,0,0,0,0,0,0,0,0,0,0,0,0,0,0,
0,0,0,0,0,0,0,0,0,0,0,0,0,0,0,0,
0,0,0,0,0,0,0,0,0,0,0,0,0,0,0,0,
0,0,0,0,0,0,0,0,0,0,0,0,0,0,0,0,
0,0,0,0,0,0,0,0,0,0,0,0,0,0,0,0,
0,0,0,0,0,0,0,0,0,0,0,0,0,0,0,0,
0,0,0,0,0,0,0,0,0,0,0,0,0,0,0,0,
0,0,0,0,0,0,0,0,0,0,0,0,0,0,0,0,
103,103,103,103,103,103,103,103,103,103,103,103,103,103,103,103,
103,103,103,103,103,103,103,103,103,103,103,103,103,103,103,103,
103,103,103,103,103,103,103,103,103,103,103,103,103,103,103,103,
103,103,103,103,103,103,103,103,103,103,103,103,103,103,103,103,
103,103,103,103,103,103,103,103,103,103,103,103,103,103,103,103,
103,103,103,103,103,103,103,103,103,103,103,103,103,103,103,103,
103,103,103,103,103,103,103,103,103,103,103,103,103,103,103,103,
103,103,103,103,103,103,103,103,103,103,103,103,103,103,103,103
</chunk>
   <chunk x="80" y="112" width="16" height="16">
0,0,0,0,0,0,0,0,0,0,0,0,0,0,0,0,
0,0,0,0,0,0,0,0,0,0,0,0,0,0,0,0,
0,0,0,0,0,0,0,0,0,0,0,0,0,0,0,0,
0,0,0,0,0,0,0,0,0,0,0,0,0,0,0,0,
0,0,0,0,0,0,0,0,0,0,0,0,0,0,0,0,
0,0,0,0,0,0,0,0,0,0,0,0,0,0,0,0,
0,0,0,0,0,0,0,0,0,0,0,0,0,0,0,0,
0,0,0,0,0,0,0,0,0,0,0,0,0,0,0,0,
103,103,103,103,103,103,103,103,103,103,103,103,103,103,103,103,
103,103,103,103,103,103,103,103,103,103,103,103,103,103,103,103,
103,103,103,103,103,103,103,103,103,103,103,103,103,103,103,103,
103,103,103,103,103,103,103,103,103,103,103,103,103,103,103,103,
103,103,103,103,103,103,103,103,103,103,103,103,103,103,103,103,
103,103,103,103,103,103,103,103,103,103,103,103,103,103,103,103,
103,103,103,103,103,103,103,103,103,103,103,103,103,103,103,103,
103,103,103,103,103,103,103,103,103,103,103,103,103,103,103,103
</chunk>
   <chunk x="96" y="112" width="16" height="16">
0,0,0,0,0,0,0,0,0,0,0,0,0,0,0,0,
0,0,0,0,0,0,0,0,0,0,0,0,0,0,0,0,
0,0,0,0,0,0,0,0,0,0,0,0,0,0,0,0,
0,0,0,0,0,0,0,0,0,0,0,0,0,0,0,0,
0,0,0,0,0,0,0,0,0,0,0,0,0,0,0,0,
0,0,0,0,0,0,0,0,0,0,0,0,0,0,0,0,
0,0,0,0,0,0,0,0,0,0,0,0,0,0,0,0,
0,0,0,0,0,0,0,0,0,0,0,0,0,0,0,0,
103,103,103,103,103,103,103,103,103,103,103,103,103,103,103,103,
103,103,103,103,103,103,103,103,103,103,103,103,103,103,103,103,
103,103,103,103,103,103,103,103,103,103,103,103,103,103,103,103,
103,103,103,103,103,103,103,103,103,103,103,103,103,103,103,103,
103,103,103,103,103,103,103,103,103,103,103,103,103,103,103,103,
103,103,103,103,103,103,103,103,103,103,103,103,103,103,103,103,
103,103,103,103,103,103,103,103,103,103,103,103,103,103,103,103,
103,103,103,103,103,103,103,103,103,103,103,103,103,103,103,103
</chunk>
   <chunk x="112" y="112" width="16" height="16">
0,0,0,0,0,0,0,0,0,0,0,0,0,0,0,0,
0,0,0,0,0,0,0,0,0,0,0,0,0,0,0,0,
0,0,0,0,0,0,0,0,0,0,0,0,0,0,0,0,
0,0,0,0,0,0,0,0,0,0,0,0,0,0,0,0,
0,0,0,0,0,0,0,0,0,0,0,0,0,0,0,0,
0,0,0,0,0,0,0,0,0,0,0,0,0,0,0,0,
0,0,0,0,0,0,0,0,0,0,0,0,0,0,0,0,
0,0,0,0,0,0,0,0,0,0,0,0,0,0,0,0,
103,103,103,103,103,103,103,103,103,103,103,103,103,103,103,103,
103,103,103,103,103,103,103,103,103,103,103,103,103,103,103,103,
103,103,103,103,103,103,103,103,103,103,103,103,103,103,103,103,
103,103,103,103,103,103,103,103,103,103,103,103,103,103,103,103,
103,103,103,103,103,103,103,103,103,103,103,103,103,103,103,103,
103,103,103,103,103,103,103,103,103,103,103,103,103,103,103,103,
103,103,103,103,103,103,103,103,103,103,103,103,103,103,103,103,
103,103,103,103,103,103,103,103,103,103,103,103,103,103,103,103
</chunk>
   <chunk x="128" y="112" width="16" height="16">
0,0,0,0,0,0,0,0,0,0,0,0,0,103,103,103,
0,0,0,0,0,0,0,0,0,0,0,0,0,103,103,103,
0,0,0,0,0,0,0,0,0,0,0,0,0,103,103,103,
0,0,0,0,0,0,0,0,0,0,0,0,0,103,103,103,
0,0,0,0,0,0,0,0,0,0,0,0,0,103,103,103,
0,0,0,0,0,0,0,0,0,0,0,0,0,103,103,103,
0,0,0,0,0,0,0,0,0,0,0,0,0,103,103,103,
0,0,0,0,0,0,0,0,0,0,0,0,0,103,103,103,
103,103,103,103,103,103,103,103,103,103,103,103,103,103,103,103,
103,103,103,103,103,103,103,103,103,103,103,103,103,103,103,103,
103,103,103,103,103,103,103,103,103,103,103,103,103,103,103,103,
103,103,103,103,103,103,103,103,103,103,103,103,103,103,103,103,
103,103,103,103,103,103,103,103,103,103,103,103,103,103,103,103,
103,103,103,103,103,103,103,103,103,103,103,103,103,103,103,103,
103,103,103,103,103,103,103,103,103,103,103,103,103,103,103,103,
103,103,103,103,103,103,103,103,103,103,103,103,103,103,103,103
</chunk>
   <chunk x="144" y="112" width="16" height="16">
103,103,103,103,103,103,0,0,0,0,0,0,0,0,0,0,
103,103,103,103,103,103,0,0,0,0,0,0,0,0,0,0,
103,103,103,103,103,103,0,0,0,0,0,0,0,0,0,0,
103,103,103,103,103,103,0,0,0,0,0,0,0,0,0,0,
103,103,103,103,103,103,0,0,0,0,0,0,0,0,0,0,
103,103,103,103,103,103,0,0,0,0,0,0,0,0,0,0,
103,103,103,103,103,103,0,0,0,0,0,0,0,0,0,0,
103,103,103,103,103,103,0,0,0,0,0,0,0,0,0,0,
103,103,103,103,103,103,0,0,0,0,0,0,0,0,0,0,
103,103,103,103,103,103,0,0,0,0,0,0,0,0,0,0,
103,103,103,103,103,103,0,0,0,0,0,0,0,0,0,0,
103,103,103,103,103,103,0,0,0,0,0,0,0,0,0,0,
103,103,103,103,103,103,0,0,0,0,0,0,0,0,0,0,
103,103,103,103,103,103,0,0,0,0,0,0,0,0,0,0,
103,103,103,103,103,103,0,0,0,0,0,0,0,0,0,0,
103,103,103,103,103,103,0,0,0,0,0,0,0,0,0,0
</chunk>
   <chunk x="-144" y="128" width="16" height="16">
0,0,0,0,103,103,103,103,103,103,103,103,103,103,103,103,
0,0,0,0,103,103,103,103,103,103,103,103,103,103,103,103,
0,0,0,0,103,103,103,103,103,103,103,103,103,103,103,103,
0,0,0,0,103,103,103,103,103,103,103,103,103,103,103,103,
0,0,0,0,103,103,103,103,103,103,103,103,103,103,103,103,
0,0,0,0,103,103,103,103,103,103,103,103,103,103,103,103,
0,0,0,0,103,103,103,103,103,103,103,103,103,103,103,103,
0,0,0,0,103,103,103,103,103,103,103,103,103,103,103,103,
0,0,0,0,103,103,103,103,103,103,103,103,103,103,103,103,
0,0,0,0,103,103,103,103,103,103,103,103,103,103,103,103,
0,0,0,0,103,103,103,103,103,103,103,103,103,103,103,103,
0,0,0,0,103,103,103,103,103,103,103,103,103,103,103,103,
0,0,0,0,103,103,103,103,103,103,103,103,103,103,103,103,
0,0,0,0,103,103,103,103,103,103,103,103,103,103,103,103,
0,0,0,0,103,103,103,103,103,103,103,103,103,103,103,103,
0,0,0,0,103,103,103,103,103,103,103,103,103,103,103,103
</chunk>
   <chunk x="-128" y="128" width="16" height="16">
103,103,103,103,103,103,103,103,103,103,103,103,103,103,103,103,
103,103,103,103,103,103,103,103,103,103,103,103,103,103,103,103,
103,103,103,103,103,103,103,103,103,103,103,103,103,103,103,103,
103,103,103,103,103,103,103,103,103,103,103,103,103,103,103,103,
103,103,103,103,103,103,103,103,103,103,103,103,103,103,103,103,
103,103,103,103,103,103,103,103,103,103,103,103,103,103,103,103,
103,103,103,103,103,103,103,103,103,103,103,103,103,103,103,103,
103,103,103,103,103,103,103,103,103,103,103,103,103,103,103,103,
103,103,103,103,103,103,103,103,103,103,103,103,103,103,103,103,
103,103,103,103,103,103,103,103,103,103,103,103,103,103,103,103,
103,103,103,103,103,103,103,103,103,103,103,103,103,103,103,103,
103,103,103,103,103,103,103,103,103,103,103,103,103,103,103,103,
103,103,103,103,103,103,103,103,103,103,103,103,103,103,103,103,
103,103,103,103,103,103,103,103,103,103,103,103,103,103,103,103,
103,103,103,103,103,103,103,103,103,103,103,103,103,103,103,103,
103,103,103,103,103,103,103,103,103,103,103,103,103,103,103,103
</chunk>
   <chunk x="-112" y="128" width="16" height="16">
103,103,103,103,103,103,103,103,103,103,103,103,103,103,103,103,
103,103,103,103,103,103,103,103,103,103,103,103,103,103,103,103,
103,103,103,103,103,103,103,103,103,103,103,103,103,103,103,103,
103,103,103,103,103,103,103,103,103,103,103,103,103,103,103,103,
103,103,103,103,103,103,103,103,103,103,103,103,103,103,103,103,
103,103,103,103,103,103,103,103,103,103,103,103,103,103,103,103,
103,103,103,103,103,103,103,103,103,103,103,103,103,103,103,103,
103,103,103,103,103,103,103,103,103,103,103,103,103,103,103,103,
103,103,103,103,103,103,103,103,103,103,103,103,103,103,103,103,
103,103,103,103,103,103,103,103,103,103,103,103,103,103,103,103,
103,103,103,103,103,103,103,103,103,103,103,103,103,103,103,103,
103,103,103,103,103,103,103,103,103,103,103,103,103,103,103,103,
103,103,103,103,103,103,103,103,103,103,103,103,103,103,103,103,
103,103,103,103,103,103,103,103,103,103,103,103,103,103,103,103,
103,103,103,103,103,103,103,103,103,103,103,103,103,103,103,103,
103,103,103,103,103,103,103,103,103,103,103,103,103,103,103,103
</chunk>
   <chunk x="-96" y="128" width="16" height="16">
103,103,103,103,103,103,103,103,103,103,103,103,103,103,103,103,
103,103,103,103,103,103,103,103,103,103,103,103,103,103,103,103,
103,103,103,103,103,103,103,103,103,103,103,103,103,103,103,103,
103,103,103,103,103,103,103,103,103,103,103,103,103,103,103,103,
103,103,103,103,103,103,103,103,103,103,103,103,103,103,103,103,
103,103,103,103,103,103,103,103,103,103,103,103,103,103,103,103,
103,103,103,103,103,103,103,103,103,103,103,103,103,103,103,103,
103,103,103,103,103,103,103,103,103,103,103,103,103,103,103,103,
103,103,103,103,103,103,103,103,103,103,103,103,103,103,103,103,
103,103,103,103,103,103,103,103,103,103,103,103,103,103,103,103,
103,103,103,103,103,103,103,103,103,103,103,103,103,103,103,103,
103,103,103,103,103,103,103,103,103,103,103,103,103,103,103,103,
103,103,103,103,103,103,103,103,103,103,103,103,103,103,103,103,
103,103,103,103,103,103,103,103,103,103,103,103,103,103,103,103,
103,103,103,103,103,103,103,103,103,103,103,103,103,103,103,103,
103,103,103,103,103,103,103,103,103,103,103,103,103,103,103,103
</chunk>
   <chunk x="-80" y="128" width="16" height="16">
103,103,103,103,103,103,103,103,103,103,103,103,103,103,103,103,
103,103,103,103,103,103,103,103,103,103,103,103,103,103,103,103,
0,0,0,0,0,0,0,0,0,0,0,0,0,0,0,0,
0,0,0,0,0,0,0,0,0,0,0,0,0,0,0,0,
0,0,0,0,0,0,0,0,0,0,0,0,0,0,0,0,
0,0,0,0,0,0,0,0,0,0,0,0,0,0,0,0,
0,0,0,0,0,0,0,0,0,0,0,0,0,0,0,0,
0,0,0,0,0,0,0,0,0,0,0,0,0,0,0,0,
0,0,0,0,0,0,0,0,0,0,0,0,0,0,0,0,
0,0,0,0,0,0,0,0,0,0,0,0,0,0,0,0,
0,0,0,0,0,0,0,0,0,0,0,0,0,0,0,0,
0,0,0,0,0,0,0,0,0,0,0,0,0,0,0,0,
0,0,0,0,0,0,0,0,0,0,0,0,0,0,0,0,
0,0,0,0,0,0,0,0,0,0,0,0,0,0,0,0,
0,0,0,0,0,0,0,0,0,0,0,0,0,0,0,0,
0,0,0,0,0,0,0,0,0,0,0,0,0,0,0,0
</chunk>
   <chunk x="-64" y="128" width="16" height="16">
103,103,103,103,103,103,103,103,103,103,103,103,103,103,103,103,
103,103,103,103,103,103,103,103,103,103,103,103,103,103,103,103,
0,0,0,0,0,0,0,0,0,0,0,0,0,0,0,0,
0,0,0,0,0,0,0,0,0,0,0,0,0,0,0,0,
0,0,0,0,0,0,0,0,0,0,0,0,0,0,0,0,
0,0,0,0,0,0,0,0,0,0,0,0,0,0,0,0,
0,0,0,0,0,0,0,0,0,0,0,0,0,0,0,0,
0,0,0,0,0,0,0,0,0,0,0,0,0,0,0,0,
0,0,0,0,0,0,0,0,0,0,0,0,0,0,0,0,
0,0,0,0,0,0,0,0,0,0,0,0,0,0,0,0,
0,0,0,0,0,0,0,0,0,0,0,0,0,0,0,0,
0,0,0,0,0,0,0,0,0,0,0,0,0,0,0,0,
0,0,0,0,0,0,0,0,0,0,0,0,0,0,0,0,
0,0,0,0,0,0,0,0,0,0,0,0,0,0,0,0,
0,0,0,0,0,0,0,0,0,0,0,0,0,0,0,0,
0,0,0,0,0,0,0,0,0,0,0,0,0,0,0,0
</chunk>
   <chunk x="-48" y="128" width="16" height="16">
103,103,103,103,103,103,103,103,103,103,103,103,103,103,103,103,
103,103,103,103,103,103,103,103,103,103,103,103,103,103,103,103,
0,0,0,0,0,0,0,0,0,0,0,0,0,0,0,0,
0,0,0,0,0,0,0,0,0,0,0,0,0,0,0,0,
0,0,0,0,0,0,0,0,0,0,0,0,0,0,0,0,
0,0,0,0,0,0,0,0,0,0,0,0,0,0,0,0,
0,0,0,0,0,0,0,0,0,0,0,0,0,0,0,0,
0,0,0,0,0,0,0,0,0,0,0,0,0,0,0,0,
0,0,0,0,0,0,0,0,0,0,0,0,0,0,0,0,
0,0,0,0,0,0,0,0,0,0,0,0,0,0,0,0,
0,0,0,0,0,0,0,0,0,0,0,0,0,0,0,0,
0,0,0,0,0,0,0,0,0,0,0,0,0,0,0,0,
0,0,0,0,0,0,0,0,0,0,0,0,0,0,0,0,
0,0,0,0,0,0,0,0,0,0,0,0,0,0,0,0,
0,0,0,0,0,0,0,0,0,0,0,0,0,0,0,0,
0,0,0,0,0,0,0,0,0,0,0,0,0,0,0,0
</chunk>
   <chunk x="-32" y="128" width="16" height="16">
103,103,103,103,103,103,103,103,103,103,103,103,103,103,103,103,
103,103,103,103,103,103,103,103,103,103,103,103,103,103,103,103,
0,0,0,0,103,103,103,103,103,103,103,103,103,103,103,103,
0,0,0,0,103,103,103,103,103,103,103,103,103,103,103,103,
0,0,0,0,103,103,103,103,103,103,103,103,103,103,103,103,
0,0,0,0,103,103,103,103,103,103,103,103,103,103,103,103,
0,0,0,0,103,103,103,103,103,103,103,103,103,103,103,103,
0,0,0,0,103,103,103,103,103,103,103,103,103,103,103,103,
0,0,0,0,103,103,103,103,103,103,103,103,103,103,103,103,
0,0,0,0,103,103,103,103,103,103,103,103,103,103,103,103,
0,0,0,0,103,103,103,103,103,103,103,103,103,103,103,103,
0,0,0,0,103,103,103,103,103,103,103,103,103,103,103,103,
0,0,0,0,103,103,103,103,103,103,103,103,103,103,103,103,
0,0,0,0,103,103,103,103,103,103,103,103,103,103,103,103,
0,0,0,0,103,103,103,103,103,103,103,103,103,103,103,103,
0,0,0,0,103,103,103,103,103,103,103,103,103,103,103,103
</chunk>
   <chunk x="-16" y="128" width="16" height="16">
103,103,103,103,103,103,103,103,103,103,103,103,103,103,103,103,
103,103,103,103,103,103,103,103,103,103,103,103,103,103,103,103,
103,103,103,103,103,103,103,103,103,103,103,103,103,103,103,103,
103,103,103,103,103,103,103,103,103,103,103,103,103,103,103,103,
103,103,103,103,103,103,103,103,103,103,103,103,103,103,103,103,
103,103,103,103,103,103,103,103,103,103,103,103,103,103,103,103,
103,103,103,103,103,103,103,103,103,103,103,103,103,103,103,103,
103,103,103,103,103,103,103,103,103,103,103,103,103,103,103,103,
103,103,103,103,103,103,103,103,103,103,103,103,103,103,103,103,
103,103,103,103,103,103,103,103,103,103,103,103,103,103,103,103,
103,103,103,103,103,103,103,103,103,103,103,103,103,103,103,103,
103,103,103,103,103,103,103,103,103,103,103,103,103,103,103,103,
103,103,103,103,103,103,103,103,103,103,103,103,103,103,103,103,
103,103,103,103,103,103,103,103,103,103,103,103,103,103,103,103,
103,103,103,103,103,103,103,103,103,103,103,103,103,103,103,103,
103,103,103,103,103,103,103,103,103,103,103,103,103,103,103,103
</chunk>
   <chunk x="0" y="128" width="16" height="16">
103,103,103,103,103,103,103,103,103,103,103,103,103,103,103,103,
103,103,103,103,103,103,103,103,103,103,103,103,103,103,103,103,
103,103,103,103,103,103,103,103,103,103,103,103,103,103,103,103,
103,103,103,103,103,103,103,103,103,103,103,103,103,103,103,103,
103,103,103,103,103,103,103,103,103,103,103,103,103,103,103,103,
103,103,103,103,103,103,103,103,103,103,103,103,103,103,103,103,
103,103,103,103,103,103,103,103,103,103,103,103,103,103,103,103,
103,103,103,103,103,103,103,103,103,103,103,103,103,103,103,103,
103,103,103,103,103,103,103,103,103,103,103,103,103,103,103,103,
103,103,103,103,103,103,103,103,103,103,103,103,103,103,103,103,
103,103,103,103,103,103,103,103,103,103,103,103,103,103,103,103,
103,103,103,103,103,103,103,103,103,103,103,103,103,103,103,103,
103,103,103,103,103,103,103,103,103,103,103,103,103,103,103,103,
103,103,103,103,103,103,103,103,103,103,103,103,103,103,103,103,
103,103,103,103,103,103,103,103,103,103,103,103,103,103,103,103,
103,103,103,103,103,103,103,103,103,103,103,103,103,103,103,103
</chunk>
   <chunk x="16" y="128" width="16" height="16">
103,103,103,103,103,103,103,103,103,103,103,103,103,103,103,103,
103,103,103,103,103,103,103,103,103,103,103,103,103,103,103,103,
103,103,103,103,103,103,103,103,103,103,103,103,103,103,103,103,
103,103,103,103,103,103,103,103,103,103,103,103,103,103,103,103,
103,103,103,103,103,103,103,103,103,103,103,103,103,103,103,103,
103,103,103,103,103,103,103,103,103,103,103,103,103,103,103,103,
103,103,103,103,103,103,103,103,103,103,103,103,103,103,103,103,
103,103,103,103,103,103,103,103,103,103,103,103,103,103,103,103,
103,103,103,103,103,103,103,103,103,103,103,103,103,103,103,103,
103,103,103,103,103,103,103,103,103,103,103,103,103,103,103,103,
103,103,103,103,103,103,103,103,103,103,103,103,103,103,103,103,
103,103,103,103,103,103,103,103,103,103,103,103,103,103,103,103,
103,103,103,103,103,103,103,103,103,103,103,103,103,103,103,103,
103,103,103,103,103,103,103,103,103,103,103,103,103,103,103,103,
103,103,103,103,103,103,103,103,103,103,103,103,103,103,103,103,
103,103,103,103,103,103,103,103,103,103,103,103,103,103,103,103
</chunk>
   <chunk x="32" y="128" width="16" height="16">
103,103,103,103,103,103,103,103,103,103,103,103,103,103,103,103,
103,103,103,103,103,103,103,103,103,103,103,103,103,103,103,103,
103,103,103,103,103,103,103,103,103,103,103,103,103,103,103,103,
103,103,103,103,103,103,103,103,103,103,103,103,103,103,103,103,
103,103,103,103,103,103,103,103,103,103,103,103,103,103,103,103,
103,103,103,103,103,103,103,103,103,103,103,103,103,103,103,103,
103,103,103,103,103,103,103,103,103,103,103,103,103,103,103,103,
103,103,103,103,103,103,103,103,103,103,103,103,103,103,103,103,
103,103,103,103,103,103,103,103,103,103,103,103,103,103,103,103,
103,103,103,103,103,103,103,103,103,103,103,103,103,103,103,103,
103,103,103,103,103,103,103,103,103,103,103,103,103,103,103,103,
103,103,103,103,103,103,103,103,103,103,103,103,103,103,103,103,
103,103,103,103,103,103,103,103,103,103,103,103,103,103,103,103,
103,103,103,103,103,103,103,103,103,103,103,103,103,103,103,103,
103,103,103,103,103,103,103,103,103,103,103,103,103,103,103,103,
103,103,103,103,103,103,103,103,103,103,103,103,103,103,103,103
</chunk>
   <chunk x="48" y="128" width="16" height="16">
103,103,103,103,103,103,103,103,103,103,103,103,103,103,103,103,
103,103,103,103,103,103,103,103,103,103,103,103,103,103,103,103,
103,103,103,103,103,103,103,103,0,0,0,0,0,0,0,0,
103,103,103,103,103,103,103,103,0,0,0,0,0,0,0,0,
103,103,103,103,103,103,103,103,0,0,0,0,0,0,0,0,
103,103,103,103,103,103,103,103,0,0,0,0,0,0,0,0,
103,103,103,103,103,103,103,103,0,0,0,0,0,0,0,0,
103,103,103,103,103,103,103,103,0,0,0,0,0,0,0,0,
103,103,103,103,103,103,103,103,0,0,0,0,0,0,0,0,
103,103,103,103,103,103,103,103,0,0,0,0,0,0,0,0,
103,103,103,103,103,103,103,103,0,0,0,0,0,0,0,0,
103,103,103,103,103,103,103,103,0,0,0,0,0,0,0,0,
103,103,103,103,103,103,103,103,0,0,0,0,0,0,0,0,
103,103,103,103,103,103,103,103,0,0,0,0,0,0,0,0,
103,103,103,103,103,103,103,103,0,0,0,0,0,0,0,0,
103,103,103,103,103,103,103,103,0,0,0,0,0,0,0,0
</chunk>
   <chunk x="64" y="128" width="16" height="16">
103,103,103,103,103,103,103,103,103,103,103,103,103,103,103,103,
103,103,103,103,103,103,103,103,103,103,103,103,103,103,103,103,
0,0,0,0,0,0,0,0,0,0,0,0,0,0,0,0,
0,0,0,0,0,0,0,0,0,0,0,0,0,0,0,0,
0,0,0,0,0,0,0,0,0,0,0,0,0,0,0,0,
0,0,0,0,0,0,0,0,0,0,0,0,0,0,0,0,
0,0,0,0,0,0,0,0,0,0,0,0,0,0,0,0,
0,0,0,0,0,0,0,0,0,0,0,0,0,0,0,0,
0,0,0,0,0,0,0,0,0,0,0,0,0,0,0,0,
0,0,0,0,0,0,0,0,0,0,0,0,0,0,0,0,
0,0,0,0,0,0,0,0,0,0,0,0,0,0,0,0,
0,0,0,0,0,0,0,0,0,0,0,0,0,0,0,0,
0,0,0,0,0,0,0,0,0,0,0,0,0,0,0,0,
0,0,0,0,0,0,0,0,0,0,0,0,0,0,0,0,
0,0,0,0,0,0,0,0,0,0,0,0,0,0,0,0,
0,0,0,0,0,0,0,0,0,0,0,0,0,0,0,0
</chunk>
   <chunk x="80" y="128" width="16" height="16">
103,103,103,103,103,103,103,103,103,103,103,103,103,103,103,103,
103,103,103,103,103,103,103,103,103,103,103,103,103,103,103,103,
0,0,0,0,0,0,0,0,0,0,0,0,0,0,0,0,
0,0,0,0,0,0,0,0,0,0,0,0,0,0,0,0,
0,0,0,0,0,0,0,0,0,0,0,0,0,0,0,0,
0,0,0,0,0,0,0,0,0,0,0,0,0,0,0,0,
0,0,0,0,0,0,0,0,0,0,0,0,0,0,0,0,
0,0,0,0,0,0,0,0,0,0,0,0,0,0,0,0,
0,0,0,0,0,0,0,0,0,0,0,0,0,0,0,0,
0,0,0,0,0,0,0,0,0,0,0,0,0,0,0,0,
0,0,0,0,0,0,0,0,0,0,0,0,0,0,0,0,
0,0,0,0,0,0,0,0,0,0,0,0,0,0,0,0,
0,0,0,0,0,0,0,0,0,0,0,0,0,0,0,0,
0,0,0,0,0,0,0,0,0,0,0,0,0,0,0,0,
0,0,0,0,0,0,0,0,0,0,0,0,0,0,0,0,
0,0,0,0,0,0,0,0,0,0,0,0,0,0,0,0
</chunk>
   <chunk x="96" y="128" width="16" height="16">
103,103,103,103,103,103,103,103,103,103,103,103,103,103,103,103,
103,103,103,103,103,103,103,103,103,103,103,103,103,103,103,103,
0,0,0,0,0,0,0,0,0,0,0,0,0,0,0,0,
0,0,0,0,0,0,0,0,0,0,0,0,0,0,0,0,
0,0,0,0,0,0,0,0,0,0,0,0,0,0,0,0,
0,0,0,0,0,0,0,0,0,0,0,0,0,0,0,0,
0,0,0,0,0,0,0,0,0,0,0,0,0,0,0,0,
0,0,0,0,0,0,0,0,0,0,0,0,0,0,0,0,
0,0,0,0,0,0,0,0,0,0,0,0,0,0,0,0,
0,0,0,0,0,0,0,0,0,0,0,0,0,0,0,0,
0,0,0,0,0,0,0,0,0,0,0,0,0,0,0,0,
0,0,0,0,0,0,0,0,0,0,0,0,0,0,0,0,
0,0,0,0,0,0,0,0,0,0,0,0,0,0,0,0,
0,0,0,0,0,0,0,0,0,0,0,0,0,0,0,0,
0,0,0,0,0,0,0,0,0,0,0,0,0,0,0,0,
0,0,0,0,0,0,0,0,0,0,0,0,0,0,0,0
</chunk>
   <chunk x="112" y="128" width="16" height="16">
103,103,103,103,103,103,103,103,103,103,103,103,103,103,103,103,
103,103,103,103,103,103,103,103,103,103,103,103,103,103,103,103,
0,0,0,0,0,0,0,0,0,0,0,0,0,0,0,0,
0,0,0,0,0,0,0,0,0,0,0,0,0,0,0,0,
0,0,0,0,0,0,0,0,0,0,0,0,0,0,0,0,
0,0,0,0,0,0,0,0,0,0,0,0,0,0,0,0,
0,0,0,0,0,0,0,0,0,0,0,0,0,0,0,0,
0,0,0,0,0,0,0,0,0,0,0,0,0,0,0,0,
0,0,0,0,0,0,0,0,0,0,0,0,0,0,0,0,
0,0,0,0,0,0,0,0,0,0,0,0,0,0,0,0,
0,0,0,0,0,0,0,0,0,0,0,0,0,0,0,0,
0,0,0,0,0,0,0,0,0,0,0,0,0,0,0,0,
0,0,0,0,0,0,0,0,0,0,0,0,0,0,0,0,
0,0,0,0,0,0,0,0,0,0,0,0,0,0,0,0,
0,0,0,0,0,0,0,0,0,0,0,0,0,0,0,0,
0,0,0,0,0,0,0,0,0,0,0,0,0,0,0,0
</chunk>
   <chunk x="128" y="128" width="16" height="16">
103,103,103,103,103,103,103,103,103,103,103,103,103,103,103,103,
103,103,103,103,103,103,103,103,103,103,103,103,103,103,103,103,
0,0,0,0,0,0,0,0,0,0,0,0,0,0,0,0,
0,0,0,0,0,0,0,0,0,0,0,0,0,0,0,0,
0,0,0,0,0,0,0,0,0,0,0,0,0,0,0,0,
0,0,0,0,0,0,0,0,0,0,0,0,0,0,0,0,
0,0,0,0,0,0,0,0,0,0,0,0,0,0,0,0,
0,0,0,0,0,0,0,0,0,0,0,0,0,0,0,0,
0,0,0,0,0,0,0,0,0,0,0,0,0,0,0,0,
0,0,0,0,0,0,0,0,0,0,0,0,0,0,0,0,
0,0,0,0,0,0,0,0,0,0,0,0,0,0,0,0,
0,0,0,0,0,0,0,0,0,0,0,0,0,0,0,0,
0,0,0,0,0,0,0,0,0,0,0,0,0,0,0,0,
0,0,0,0,0,0,0,0,0,0,0,0,0,0,0,0,
0,0,0,0,0,0,0,0,0,0,0,0,0,0,0,0,
0,0,0,0,0,0,0,0,0,0,0,0,0,0,0,0
</chunk>
   <chunk x="144" y="128" width="16" height="16">
103,103,103,103,103,103,0,0,0,0,0,0,0,0,0,0,
103,103,103,103,103,103,0,0,0,0,0,0,0,0,0,0,
0,0,0,0,0,0,0,0,0,0,0,0,0,0,0,0,
0,0,0,0,0,0,0,0,0,0,0,0,0,0,0,0,
0,0,0,0,0,0,0,0,0,0,0,0,0,0,0,0,
0,0,0,0,0,0,0,0,0,0,0,0,0,0,0,0,
0,0,0,0,0,0,0,0,0,0,0,0,0,0,0,0,
0,0,0,0,0,0,0,0,0,0,0,0,0,0,0,0,
0,0,0,0,0,0,0,0,0,0,0,0,0,0,0,0,
0,0,0,0,0,0,0,0,0,0,0,0,0,0,0,0,
0,0,0,0,0,0,0,0,0,0,0,0,0,0,0,0,
0,0,0,0,0,0,0,0,0,0,0,0,0,0,0,0,
0,0,0,0,0,0,0,0,0,0,0,0,0,0,0,0,
0,0,0,0,0,0,0,0,0,0,0,0,0,0,0,0,
0,0,0,0,0,0,0,0,0,0,0,0,0,0,0,0,
0,0,0,0,0,0,0,0,0,0,0,0,0,0,0,0
</chunk>
   <chunk x="-144" y="144" width="16" height="16">
0,0,0,0,103,103,103,103,103,103,103,103,103,103,103,103,
0,0,0,0,103,103,103,103,103,103,103,103,103,103,103,103,
0,0,0,0,103,103,103,103,103,103,103,103,103,103,103,103,
0,0,0,0,103,103,103,103,103,103,103,103,103,103,103,103,
0,0,0,0,103,103,103,103,103,103,103,103,103,103,103,103,
0,0,0,0,103,103,103,103,103,103,103,103,103,103,103,103,
0,0,0,0,103,103,103,103,103,103,103,103,103,103,103,103,
0,0,0,0,103,103,103,103,103,103,103,103,103,103,103,103,
0,0,0,0,103,103,103,103,103,103,103,103,103,103,103,103,
0,0,0,0,103,103,103,103,103,103,103,103,103,103,103,103,
0,0,0,0,103,103,103,103,103,103,103,103,103,103,103,103,
0,0,0,0,103,103,103,103,103,103,103,103,103,103,103,103,
0,0,0,0,103,103,103,103,103,103,103,103,103,103,103,103,
0,0,0,0,103,103,103,103,103,103,103,103,103,103,103,103,
0,0,0,0,103,103,103,103,103,103,103,103,103,103,103,103,
0,0,0,0,103,103,103,103,103,103,103,103,103,103,103,103
</chunk>
   <chunk x="-128" y="144" width="16" height="16">
103,103,103,103,103,103,103,103,103,103,103,103,103,103,103,103,
103,103,103,103,103,103,103,103,103,103,103,103,103,103,103,103,
103,103,103,103,103,103,103,103,103,103,103,103,103,103,103,103,
103,103,103,103,103,103,103,103,103,103,103,103,103,103,103,103,
103,103,103,103,103,103,103,103,103,103,103,103,103,103,103,103,
103,103,103,103,103,103,103,103,103,103,103,103,103,103,103,103,
103,103,103,103,103,103,103,103,103,103,103,103,103,103,103,103,
103,103,103,103,103,103,103,103,103,103,103,103,103,103,103,103,
103,103,103,103,103,103,103,103,103,103,103,103,103,103,103,103,
103,103,103,103,103,103,103,103,103,103,103,103,103,103,103,103,
103,103,103,103,103,103,103,103,103,103,103,103,103,103,103,103,
103,103,103,103,103,103,103,103,103,103,103,103,103,103,103,103,
103,103,103,103,103,103,103,103,103,103,103,103,103,103,103,103,
103,103,103,103,103,103,103,103,103,103,103,103,103,103,103,103,
103,103,103,103,103,103,103,103,103,103,103,103,103,103,103,103,
103,103,103,103,103,103,103,103,103,103,103,103,103,103,103,103
</chunk>
   <chunk x="-112" y="144" width="16" height="16">
103,103,103,103,103,103,103,103,103,103,103,103,103,103,103,103,
103,103,103,103,103,103,103,103,103,103,103,103,103,103,103,103,
103,103,103,103,103,103,103,103,103,103,103,103,103,103,103,103,
103,103,103,103,103,103,103,103,103,103,103,103,103,103,103,103,
103,103,103,103,103,103,103,103,103,103,103,103,103,103,103,103,
103,103,103,103,103,103,103,103,103,103,103,103,103,103,103,103,
103,103,103,103,103,103,103,103,103,103,103,103,103,103,103,103,
103,103,103,103,103,103,103,103,103,103,103,103,103,103,103,103,
103,103,103,103,103,103,103,103,103,103,103,103,103,103,103,103,
103,103,103,103,103,103,103,103,103,103,103,103,103,103,103,103,
103,103,103,103,103,103,103,103,103,103,103,103,103,103,103,103,
103,103,103,103,103,103,103,103,103,103,103,103,103,103,103,103,
103,103,103,103,103,103,103,103,103,103,103,103,103,103,103,103,
103,103,103,103,103,103,103,103,103,103,103,103,103,103,103,103,
103,103,103,103,103,103,103,103,103,103,103,103,103,103,103,103,
103,103,103,103,103,103,103,103,103,103,103,103,103,103,103,103
</chunk>
   <chunk x="-96" y="144" width="16" height="16">
103,103,103,103,103,103,103,103,103,103,103,103,103,103,103,103,
103,103,103,103,103,103,103,103,103,103,103,103,103,103,103,103,
103,103,103,103,103,103,103,103,103,103,103,103,103,103,103,103,
103,103,103,103,103,103,103,103,103,103,103,103,103,103,103,103,
103,103,103,103,103,103,103,103,103,103,103,103,103,103,103,103,
103,103,103,103,103,103,103,103,103,103,103,103,103,103,103,103,
103,103,103,103,103,103,103,103,103,103,103,103,103,103,103,103,
103,103,103,103,103,103,103,103,103,103,103,103,103,103,103,103,
103,103,103,103,103,103,103,103,103,103,103,103,103,103,103,103,
103,103,103,103,103,103,103,103,103,103,103,103,103,103,103,103,
103,103,103,103,103,103,103,103,103,103,103,103,103,103,103,103,
103,103,103,103,103,103,103,103,103,103,103,103,103,103,103,103,
103,103,103,103,103,103,103,103,103,103,103,103,103,103,103,103,
103,103,103,103,103,103,103,103,103,103,103,103,103,103,103,103,
103,103,103,103,103,103,103,103,103,103,103,103,103,103,103,103,
103,103,103,103,103,103,103,103,103,103,103,103,103,103,103,103
</chunk>
   <chunk x="-32" y="144" width="16" height="16">
0,0,0,0,103,103,103,103,103,103,103,103,103,103,103,103,
0,0,0,0,103,103,103,103,103,103,103,103,103,103,103,103,
0,0,0,0,103,103,103,103,103,103,103,103,103,103,103,103,
0,0,0,0,103,103,103,103,103,103,103,103,103,103,103,103,
0,0,0,0,103,103,103,103,103,103,103,103,103,103,103,103,
0,0,0,0,103,103,103,103,103,103,103,103,103,103,103,103,
0,0,0,0,103,103,103,103,103,103,103,103,103,103,103,103,
0,0,0,0,103,103,103,103,103,103,103,103,103,103,103,103,
0,0,0,0,103,103,103,103,103,103,103,103,103,103,103,103,
0,0,0,0,103,103,103,103,103,103,103,103,103,103,103,103,
0,0,0,0,103,103,103,103,103,103,103,103,103,103,103,103,
0,0,0,0,103,103,103,103,103,103,103,103,103,103,103,103,
0,0,0,0,103,103,103,103,103,103,103,103,103,103,103,103,
0,0,0,0,103,103,103,103,103,103,103,103,103,103,103,103,
0,0,0,0,103,103,103,103,103,103,103,103,103,103,103,103,
0,0,0,0,103,103,103,103,103,103,103,103,103,103,103,103
</chunk>
   <chunk x="-16" y="144" width="16" height="16">
103,103,103,103,103,103,103,103,103,103,103,103,103,103,103,103,
103,103,103,103,103,103,103,103,103,103,103,103,103,103,103,103,
103,103,103,103,103,103,103,103,103,103,103,103,103,103,103,103,
103,103,103,103,103,103,103,103,103,103,103,103,103,103,103,103,
103,103,103,103,103,103,103,103,103,103,103,103,103,103,103,103,
103,103,103,103,103,103,103,103,103,103,103,103,103,103,103,103,
103,103,103,103,103,103,103,103,103,103,103,103,103,103,103,103,
103,103,103,103,103,103,103,103,103,103,103,103,103,103,103,103,
103,103,103,103,103,103,103,103,103,103,103,103,103,103,103,103,
103,103,103,103,103,103,103,103,103,103,103,103,103,103,103,103,
103,103,103,103,103,103,103,103,103,103,103,103,103,103,103,103,
103,103,103,103,103,103,103,103,103,103,103,103,103,103,103,103,
103,103,103,103,103,103,103,103,103,103,103,103,103,103,103,103,
103,103,103,103,103,103,103,103,103,103,103,103,103,103,103,103,
103,103,103,103,103,103,103,103,103,103,103,103,103,103,103,103,
103,103,103,103,103,103,103,103,103,103,103,103,103,103,103,103
</chunk>
   <chunk x="0" y="144" width="16" height="16">
103,103,103,103,103,103,103,103,103,103,103,103,103,103,103,103,
103,103,103,103,103,103,103,103,103,103,103,103,103,103,103,103,
103,103,103,103,103,103,103,103,103,103,103,103,103,103,103,103,
103,103,103,103,103,103,103,103,103,103,103,103,103,103,103,103,
103,103,103,103,103,103,103,103,103,103,103,103,103,103,103,103,
103,103,103,103,103,103,103,103,103,103,103,103,103,103,103,103,
103,103,103,103,103,103,103,103,103,103,103,103,103,103,103,103,
103,103,103,103,103,103,103,103,103,103,103,103,103,103,103,103,
103,103,103,103,103,103,103,103,103,103,103,103,103,103,103,103,
103,103,103,103,103,103,103,103,103,103,103,103,103,103,103,103,
103,103,103,103,103,103,103,103,103,103,103,103,103,103,103,103,
103,103,103,103,103,103,103,103,103,103,103,103,103,103,103,103,
103,103,103,103,103,103,103,103,103,103,103,103,103,103,103,103,
103,103,103,103,103,103,103,103,103,103,103,103,103,103,103,103,
103,103,103,103,103,103,103,103,103,103,103,103,103,103,103,103,
103,103,103,103,103,103,103,103,103,103,103,103,103,103,103,103
</chunk>
   <chunk x="16" y="144" width="16" height="16">
103,103,103,103,103,103,103,103,103,103,103,103,103,103,103,103,
103,103,103,103,103,103,103,103,103,103,103,103,103,103,103,103,
103,103,103,103,103,103,103,103,103,103,103,103,103,103,103,103,
103,103,103,103,103,103,103,103,103,103,103,103,103,103,103,103,
103,103,103,103,103,103,103,103,103,103,103,103,103,103,103,103,
103,103,103,103,103,103,103,103,103,103,103,103,103,103,103,103,
103,103,103,103,103,103,103,103,103,103,103,103,103,103,103,103,
103,103,103,103,103,103,103,103,103,103,103,103,103,103,103,103,
103,103,103,103,103,103,103,103,103,103,103,103,103,103,103,103,
103,103,103,103,103,103,103,103,103,103,103,103,103,103,103,103,
103,103,103,103,103,103,103,103,103,103,103,103,103,103,103,103,
103,103,103,103,103,103,103,103,103,103,103,103,103,103,103,103,
103,103,103,103,103,103,103,103,103,103,103,103,103,103,103,103,
103,103,103,103,103,103,103,103,103,103,103,103,103,103,103,103,
103,103,103,103,103,103,103,103,103,103,103,103,103,103,103,103,
103,103,103,103,103,103,103,103,103,103,103,103,103,103,103,103
</chunk>
   <chunk x="32" y="144" width="16" height="16">
103,103,103,103,103,103,103,103,103,103,103,103,103,103,103,103,
103,103,103,103,103,103,103,103,103,103,103,103,103,103,103,103,
103,103,103,103,103,103,103,103,103,103,103,103,103,103,103,103,
103,103,103,103,103,103,103,103,103,103,103,103,103,103,103,103,
103,103,103,103,103,103,103,103,103,103,103,103,103,103,103,103,
103,103,103,103,103,103,103,103,103,103,103,103,103,103,103,103,
103,103,103,103,103,103,103,103,103,103,103,103,103,103,103,103,
103,103,103,103,103,103,103,103,103,103,103,103,103,103,103,103,
103,103,103,103,103,103,103,103,103,103,103,103,103,103,103,103,
103,103,103,103,103,103,103,103,103,103,103,103,103,103,103,103,
103,103,103,103,103,103,103,103,103,103,103,103,103,103,103,103,
103,103,103,103,103,103,103,103,103,103,103,103,103,103,103,103,
103,103,103,103,103,103,103,103,103,103,103,103,103,103,103,103,
103,103,103,103,103,103,103,103,103,103,103,103,103,103,103,103,
103,103,103,103,103,103,103,103,103,103,103,103,103,103,103,103,
103,103,103,103,103,103,103,103,103,103,103,103,103,103,103,103
</chunk>
   <chunk x="48" y="144" width="16" height="16">
103,103,103,103,103,103,103,103,0,0,0,0,0,0,0,0,
103,103,103,103,103,103,103,103,0,0,0,0,0,0,0,0,
103,103,103,103,103,103,103,103,0,0,0,0,0,0,0,0,
103,103,103,103,103,103,103,103,0,0,0,0,0,0,0,0,
103,103,103,103,103,103,103,103,0,0,0,0,0,0,0,0,
103,103,103,103,103,103,103,103,0,0,0,0,0,0,0,0,
103,103,103,103,103,103,103,103,0,0,0,0,0,0,0,0,
103,103,103,103,103,103,103,103,0,0,0,0,0,0,0,0,
103,103,103,103,103,103,103,103,0,0,0,0,0,0,0,0,
103,103,103,103,103,103,103,103,0,0,0,0,0,0,0,0,
103,103,103,103,103,103,103,103,0,0,0,0,0,0,0,0,
103,103,103,103,103,103,103,103,0,0,0,0,0,0,0,0,
103,103,103,103,103,103,103,103,0,0,0,0,0,0,0,0,
103,103,103,103,103,103,103,103,0,0,0,0,0,0,0,0,
103,103,103,103,103,103,103,103,0,0,0,0,0,0,0,0,
103,103,103,103,103,103,103,103,0,0,0,0,0,0,0,0
</chunk>
   <chunk x="-144" y="160" width="16" height="16">
0,0,0,0,103,103,103,103,103,103,103,103,103,103,103,103,
0,0,0,0,103,103,103,103,103,103,103,103,103,103,103,103,
0,0,0,0,103,103,103,103,103,103,103,103,103,103,103,103,
0,0,0,0,103,103,103,103,103,103,103,103,103,103,103,103,
0,0,0,0,103,103,103,103,103,103,103,103,103,103,103,103,
0,0,0,0,103,103,103,103,103,103,103,103,103,103,103,103,
0,0,0,0,103,103,103,103,103,103,103,103,103,103,103,103,
0,0,0,0,103,103,103,103,103,103,103,103,103,103,103,103,
0,0,0,0,103,103,103,103,103,103,103,103,103,103,103,103,
0,0,0,0,103,103,103,103,103,103,103,103,103,103,103,103,
0,0,0,0,103,103,103,103,103,103,103,103,103,103,103,103,
0,0,0,0,103,103,103,103,103,103,103,103,103,103,103,103,
0,0,0,0,103,103,103,103,103,103,103,103,103,103,103,103,
0,0,0,0,103,103,103,103,103,103,103,103,103,103,103,103,
0,0,0,0,103,103,103,103,103,103,103,103,103,103,103,103,
0,0,0,0,103,103,103,103,103,103,103,103,103,103,103,103
</chunk>
   <chunk x="-128" y="160" width="16" height="16">
103,103,103,103,103,103,103,103,103,103,103,103,103,103,103,103,
103,103,103,103,103,103,103,103,103,103,103,103,103,103,103,103,
103,103,103,103,103,103,103,103,103,103,103,103,103,103,103,103,
103,103,103,103,103,103,103,103,103,103,103,103,103,103,103,103,
103,103,103,103,103,103,103,103,103,103,103,103,103,103,103,103,
103,103,103,103,103,103,103,103,103,103,103,103,103,103,103,103,
103,103,103,103,103,103,103,103,103,103,103,103,103,103,103,103,
103,103,103,103,103,103,103,103,103,103,103,103,103,103,103,103,
103,103,103,103,103,103,103,103,103,103,103,103,103,103,103,103,
103,103,103,103,103,103,103,103,103,103,103,103,103,103,103,103,
103,103,103,103,103,103,103,103,103,103,103,103,103,103,103,103,
103,103,103,103,103,103,103,103,103,103,103,103,103,103,103,103,
103,103,103,103,103,103,103,103,103,103,103,103,103,103,103,103,
103,103,103,103,103,103,103,103,103,103,103,103,103,103,103,103,
103,103,103,103,103,103,103,103,103,103,103,103,103,103,103,103,
103,103,103,103,103,103,103,103,103,103,103,103,103,103,103,103
</chunk>
   <chunk x="-112" y="160" width="16" height="16">
103,103,103,103,103,103,103,103,103,103,103,103,103,103,103,103,
103,103,103,103,103,103,103,103,103,103,103,103,103,103,103,103,
103,103,103,103,103,103,103,103,103,103,103,103,103,103,103,103,
103,103,103,103,103,103,103,103,103,103,103,103,103,103,103,103,
103,103,103,103,103,103,103,103,103,103,103,103,103,103,103,103,
103,103,103,103,103,103,103,103,103,103,103,103,103,103,103,103,
103,103,103,103,103,103,103,103,103,103,103,103,103,103,103,103,
103,103,103,103,103,103,103,103,103,103,103,103,103,103,103,103,
103,103,103,103,103,103,103,103,103,103,103,103,103,103,103,103,
103,103,103,103,103,103,103,103,103,103,103,103,103,103,103,103,
103,103,103,103,103,103,103,103,103,103,103,103,103,103,103,103,
103,103,103,103,103,103,103,103,103,103,103,103,103,103,103,103,
103,103,103,103,103,103,103,103,103,103,103,103,103,103,103,103,
103,103,103,103,103,103,103,103,103,103,103,103,103,103,103,103,
103,103,103,103,103,103,103,103,103,103,103,103,103,103,103,103,
103,103,103,103,103,103,103,103,103,103,103,103,103,103,103,103
</chunk>
   <chunk x="-96" y="160" width="16" height="16">
103,103,103,103,103,103,103,103,103,103,103,103,103,103,103,103,
103,103,103,103,103,103,103,103,103,103,103,103,103,103,103,103,
103,103,103,103,103,103,103,103,103,103,103,103,103,103,103,103,
103,103,103,103,103,103,103,103,103,103,103,103,103,103,103,103,
103,103,103,103,103,103,103,103,103,103,103,103,103,103,103,103,
103,103,103,103,103,103,103,103,103,103,103,103,103,103,103,103,
103,103,103,103,103,103,103,103,103,103,103,103,103,103,103,103,
103,103,103,103,103,103,103,103,103,103,103,103,103,103,103,103,
103,103,103,103,103,103,103,103,103,103,103,103,103,103,103,103,
103,103,103,103,103,103,103,103,103,103,103,103,103,103,103,103,
103,103,103,103,103,103,103,103,103,103,103,103,103,103,103,103,
103,103,103,103,103,103,103,103,103,103,103,103,103,103,103,103,
103,103,103,103,103,103,103,103,103,103,103,103,103,103,103,103,
103,103,103,103,103,103,103,103,103,103,103,103,103,103,103,103,
103,103,103,103,103,103,103,103,103,103,103,103,103,103,103,103,
103,103,103,103,103,103,103,103,103,103,103,103,103,103,103,103
</chunk>
   <chunk x="-32" y="160" width="16" height="16">
0,0,0,0,103,103,103,103,103,103,103,103,103,103,103,103,
0,0,0,0,103,103,103,103,103,103,103,103,103,103,103,103,
0,0,0,0,103,103,103,103,103,103,103,103,103,103,103,103,
0,0,0,0,103,103,103,103,103,103,103,103,103,103,103,103,
0,0,0,0,103,103,103,103,103,103,103,103,103,103,103,103,
0,0,0,0,103,103,103,103,103,103,103,103,103,103,103,103,
0,0,0,0,103,103,103,103,103,103,103,103,103,103,103,103,
0,0,0,0,103,103,103,103,103,103,103,103,103,103,103,103,
0,0,0,0,103,103,103,103,103,103,103,103,103,103,103,103,
0,0,0,0,103,103,103,103,103,103,103,103,103,103,103,103,
0,0,0,0,103,103,103,103,103,103,103,103,103,103,103,103,
0,0,0,0,0,0,0,0,0,0,0,0,0,0,0,0,
0,0,0,0,0,0,0,0,0,0,0,0,0,0,0,0,
0,0,0,0,0,0,0,0,0,0,0,0,0,0,0,0,
0,0,0,0,0,0,0,0,0,0,0,0,0,0,0,0,
0,0,0,0,0,0,0,0,0,0,0,0,0,0,0,0
</chunk>
   <chunk x="-16" y="160" width="16" height="16">
103,103,103,103,103,103,103,103,103,103,103,103,103,103,103,103,
103,103,103,103,103,103,103,103,103,103,103,103,103,103,103,103,
103,103,103,103,103,103,103,103,103,103,103,103,103,103,103,103,
103,103,103,103,103,103,103,103,103,103,103,103,103,103,103,103,
103,103,103,103,103,103,103,103,103,103,103,103,103,103,103,103,
103,103,103,103,103,103,103,103,103,103,103,103,103,103,103,103,
103,103,103,103,103,103,103,103,103,103,103,103,103,103,103,103,
103,103,103,103,103,103,103,103,103,103,103,103,103,103,103,103,
103,103,103,103,103,103,103,103,103,103,103,103,103,103,103,103,
103,103,103,103,103,103,103,103,103,103,103,103,103,103,103,103,
103,103,103,103,103,103,103,103,103,103,103,103,103,103,103,103,
0,0,0,0,0,0,0,0,0,0,0,0,0,0,0,0,
0,0,0,0,0,0,0,0,0,0,0,0,0,0,0,0,
0,0,0,0,0,0,0,0,0,0,0,0,0,0,0,0,
0,0,0,0,0,0,0,0,0,0,0,0,0,0,0,0,
0,0,0,0,0,0,0,0,0,0,0,0,0,0,0,0
</chunk>
   <chunk x="0" y="160" width="16" height="16">
103,103,103,103,103,103,103,103,103,103,103,103,103,103,103,103,
103,103,103,103,103,103,103,103,103,103,103,103,103,103,103,103,
103,103,103,103,103,103,103,103,103,103,103,103,103,103,103,103,
103,103,103,103,103,103,103,103,103,103,103,103,103,103,103,103,
103,103,103,103,103,103,103,103,103,103,103,103,103,103,103,103,
103,103,103,103,103,103,103,103,103,103,103,103,103,103,103,103,
103,103,103,103,103,103,103,103,103,103,103,103,103,103,103,103,
103,103,103,103,103,103,103,103,103,103,103,103,103,103,103,103,
103,103,103,103,103,103,103,103,103,103,103,103,103,103,103,103,
103,103,103,103,103,103,103,103,103,103,103,103,103,103,103,103,
103,103,103,103,103,103,103,103,103,103,103,103,103,103,103,103,
0,0,0,0,0,0,0,0,0,0,0,0,0,0,0,0,
0,0,0,0,0,0,0,0,0,0,0,0,0,0,0,0,
0,0,0,0,0,0,0,0,0,0,0,0,0,0,0,0,
0,0,0,0,0,0,0,0,0,0,0,0,0,0,0,0,
0,0,0,0,0,0,0,0,0,0,0,0,0,0,0,0
</chunk>
   <chunk x="16" y="160" width="16" height="16">
103,103,103,103,103,103,103,103,103,103,103,103,103,103,103,103,
103,103,103,103,103,103,103,103,103,103,103,103,103,103,103,103,
103,103,103,103,103,103,103,103,103,103,103,103,103,103,103,103,
103,103,103,103,103,103,103,103,103,103,103,103,103,103,103,103,
103,103,103,103,103,103,103,103,103,103,103,103,103,103,103,103,
103,103,103,103,103,103,103,103,103,103,103,103,103,103,103,103,
103,103,103,103,103,103,103,103,103,103,103,103,103,103,103,103,
103,103,103,103,103,103,103,103,103,103,103,103,103,103,103,103,
103,103,103,103,103,103,103,103,103,103,103,103,103,103,103,103,
103,103,103,103,103,103,103,103,103,103,103,103,103,103,103,103,
103,103,103,103,103,103,103,103,103,103,103,103,103,103,103,103,
0,0,0,0,0,0,0,0,0,0,0,0,0,0,0,0,
0,0,0,0,0,0,0,0,0,0,0,0,0,0,0,0,
0,0,0,0,0,0,0,0,0,0,0,0,0,0,0,0,
0,0,0,0,0,0,0,0,0,0,0,0,0,0,0,0,
0,0,0,0,0,0,0,0,0,0,0,0,0,0,0,0
</chunk>
   <chunk x="32" y="160" width="16" height="16">
103,103,103,103,103,103,103,103,103,103,103,103,103,103,103,103,
103,103,103,103,103,103,103,103,103,103,103,103,103,103,103,103,
103,103,103,103,103,103,103,103,103,103,103,103,103,103,103,103,
103,103,103,103,103,103,103,103,103,103,103,103,103,103,103,103,
103,103,103,103,103,103,103,103,103,103,103,103,103,103,103,103,
103,103,103,103,103,103,103,103,103,103,103,103,103,103,103,103,
103,103,103,103,103,103,103,103,103,103,103,103,103,103,103,103,
103,103,103,103,103,103,103,103,103,103,103,103,103,103,103,103,
103,103,103,103,103,103,103,103,103,103,103,103,103,103,103,103,
103,103,103,103,103,103,103,103,103,103,103,103,103,103,103,103,
103,103,103,103,103,103,103,103,103,103,103,103,103,103,103,103,
0,0,0,0,0,0,0,0,0,0,0,0,0,0,0,0,
0,0,0,0,0,0,0,0,0,0,0,0,0,0,0,0,
0,0,0,0,0,0,0,0,0,0,0,0,0,0,0,0,
0,0,0,0,0,0,0,0,0,0,0,0,0,0,0,0,
0,0,0,0,0,0,0,0,0,0,0,0,0,0,0,0
</chunk>
   <chunk x="48" y="160" width="16" height="16">
103,103,103,103,103,103,103,103,0,0,0,0,0,0,0,0,
103,103,103,103,103,103,103,103,0,0,0,0,0,0,0,0,
103,103,103,103,103,103,103,103,0,0,0,0,0,0,0,0,
103,103,103,103,103,103,103,103,0,0,0,0,0,0,0,0,
103,103,103,103,103,103,103,103,0,0,0,0,0,0,0,0,
103,103,103,103,103,103,103,103,0,0,0,0,0,0,0,0,
103,103,103,103,103,103,103,103,0,0,0,0,0,0,0,0,
103,103,103,103,103,103,103,103,0,0,0,0,0,0,0,0,
103,103,103,103,103,103,103,103,0,0,0,0,0,0,0,0,
103,103,103,103,103,103,103,103,0,0,0,0,0,0,0,0,
103,103,103,103,103,103,103,103,0,0,0,0,0,0,0,0,
0,0,0,0,0,0,0,0,0,0,0,0,0,0,0,0,
0,0,0,0,0,0,0,0,0,0,0,0,0,0,0,0,
0,0,0,0,0,0,0,0,0,0,0,0,0,0,0,0,
0,0,0,0,0,0,0,0,0,0,0,0,0,0,0,0,
0,0,0,0,0,0,0,0,0,0,0,0,0,0,0,0
</chunk>
   <chunk x="-144" y="176" width="16" height="16">
0,0,0,0,103,103,103,103,103,103,103,103,103,103,103,103,
0,0,0,0,103,103,103,103,103,103,103,103,103,103,103,103,
0,0,0,0,103,103,103,103,103,103,103,103,103,103,103,103,
0,0,0,0,103,103,103,103,103,103,103,103,103,103,103,103,
0,0,0,0,103,103,103,103,103,103,103,103,103,103,103,103,
0,0,0,0,103,103,103,103,103,103,103,103,103,103,103,103,
0,0,0,0,103,103,103,103,103,103,103,103,103,103,103,103,
0,0,0,0,103,103,103,103,103,103,103,103,103,103,103,103,
0,0,0,0,103,103,103,103,103,103,103,103,103,103,103,103,
0,0,0,0,103,103,103,103,103,103,103,103,103,103,103,103,
0,0,0,0,103,103,103,103,103,103,103,103,103,103,103,103,
0,0,0,0,103,103,103,103,103,103,103,103,103,103,103,103,
0,0,0,0,103,103,103,103,103,103,103,103,103,103,103,103,
0,0,0,0,103,103,103,103,103,103,103,103,103,103,103,103,
0,0,0,0,103,103,103,103,103,103,103,103,103,103,103,103,
0,0,0,0,103,103,103,103,103,103,103,103,103,103,103,103
</chunk>
   <chunk x="-128" y="176" width="16" height="16">
103,103,103,103,103,103,103,103,103,103,103,103,103,103,103,103,
103,103,103,103,103,103,103,103,103,103,103,103,103,103,103,103,
103,103,103,103,103,103,103,103,103,103,103,103,103,103,103,103,
103,103,103,103,103,103,103,103,103,103,103,103,103,103,103,103,
103,103,103,103,103,103,103,103,103,103,103,103,103,103,103,103,
103,103,103,103,103,103,103,103,103,103,103,103,103,103,103,103,
103,103,103,103,103,103,103,103,103,103,103,103,103,103,103,103,
103,103,103,103,103,103,103,103,103,103,103,103,103,103,103,103,
103,103,103,103,103,103,103,103,103,103,103,103,103,103,103,103,
103,103,103,103,103,103,103,103,103,103,103,103,103,103,103,103,
103,103,103,103,103,103,103,103,103,103,103,103,103,103,103,103,
103,103,103,103,103,103,103,103,103,103,103,103,103,103,103,103,
103,103,103,103,103,103,103,103,103,103,103,103,103,103,103,103,
103,103,103,103,103,103,103,103,103,103,103,103,103,103,103,103,
103,103,103,103,103,103,103,103,103,103,103,103,103,103,103,103,
103,103,103,103,103,103,103,103,103,103,103,103,103,103,103,103
</chunk>
   <chunk x="-112" y="176" width="16" height="16">
103,103,103,103,103,103,103,103,103,103,103,103,103,103,103,103,
103,103,103,103,103,103,103,103,103,103,103,103,103,103,103,103,
103,103,103,103,103,103,103,103,103,103,103,103,103,103,103,103,
103,103,103,103,103,103,103,103,103,103,103,103,103,103,103,103,
103,103,103,103,103,103,103,103,103,103,103,103,103,103,103,103,
103,103,103,103,103,103,103,103,103,103,103,103,103,103,103,103,
103,103,103,103,103,103,103,103,103,103,103,103,103,103,103,103,
103,103,103,103,103,103,103,103,103,103,103,103,103,103,103,103,
103,103,103,103,103,103,103,103,103,103,103,103,103,103,103,103,
103,103,103,103,103,103,103,103,103,103,103,103,103,103,103,103,
103,103,103,103,103,103,103,103,103,103,103,103,103,103,103,103,
103,103,103,103,103,103,103,103,103,103,103,103,103,103,103,103,
103,103,103,103,103,103,103,103,103,103,103,103,103,103,103,103,
103,103,103,103,103,103,103,103,103,103,103,103,103,103,103,103,
103,103,103,103,103,103,103,103,103,103,103,103,103,103,103,103,
103,103,103,103,103,103,103,103,103,103,103,103,103,103,103,103
</chunk>
   <chunk x="-96" y="176" width="16" height="16">
103,103,103,103,103,103,103,103,103,103,103,103,103,103,103,103,
103,103,103,103,103,103,103,103,103,103,103,103,103,103,103,103,
103,103,103,103,103,103,103,103,103,103,103,103,103,103,103,103,
103,103,103,103,103,103,103,103,103,103,103,103,103,103,103,103,
103,103,103,103,103,103,103,103,103,103,103,103,103,103,103,103,
103,103,103,103,103,103,103,103,103,103,103,103,103,103,103,103,
103,103,103,103,103,103,103,103,103,103,103,103,103,103,103,103,
103,103,103,103,103,103,103,103,103,103,103,103,103,103,103,103,
103,103,103,103,103,103,103,103,103,103,103,103,103,103,103,103,
103,103,103,103,103,103,103,103,103,103,103,103,103,103,103,103,
103,103,103,103,103,103,103,103,103,103,103,103,103,103,103,103,
103,103,103,103,103,103,103,103,103,103,103,103,103,103,103,103,
103,103,103,103,103,103,103,103,103,103,103,103,103,103,103,103,
103,103,103,103,103,103,103,103,103,103,103,103,103,103,103,103,
103,103,103,103,103,103,103,103,103,103,103,103,103,103,103,103,
103,103,103,103,103,103,103,103,103,103,103,103,103,103,103,103
</chunk>
   <chunk x="-144" y="192" width="16" height="16">
0,0,0,0,103,103,103,103,103,103,103,103,103,103,103,103,
0,0,0,0,103,103,103,103,103,103,103,103,103,103,103,103,
0,0,0,0,103,103,103,103,103,103,103,103,103,103,103,103,
0,0,0,0,103,103,103,103,103,103,103,103,103,103,103,103,
0,0,0,0,103,103,103,103,103,103,103,103,103,103,103,103,
0,0,0,0,103,103,103,103,103,103,103,103,103,103,103,103,
0,0,0,0,103,103,103,103,103,103,103,103,103,103,103,103,
0,0,0,0,103,103,103,103,103,103,103,103,103,103,103,103,
0,0,0,0,103,103,103,103,103,103,103,103,103,103,103,103,
0,0,0,0,103,103,103,103,103,103,103,103,103,103,103,103,
0,0,0,0,103,103,103,103,103,103,103,103,103,103,103,103,
0,0,0,0,103,103,103,103,103,103,103,103,103,103,103,103,
0,0,0,0,103,103,103,103,103,103,103,103,103,103,103,103,
0,0,0,0,103,103,103,103,103,103,103,103,103,103,103,103,
0,0,0,0,0,0,0,0,0,0,0,0,0,0,0,0,
0,0,0,0,0,0,0,0,0,0,0,0,0,0,0,0
</chunk>
   <chunk x="-128" y="192" width="16" height="16">
103,103,103,103,103,103,103,103,103,103,103,103,103,103,103,103,
103,103,103,103,103,103,103,103,103,103,103,103,103,103,103,103,
103,103,103,103,103,103,103,103,103,103,103,103,103,103,103,103,
103,103,103,103,103,103,103,103,103,103,103,103,103,103,103,103,
103,103,103,103,103,103,103,103,103,103,103,103,103,103,103,103,
103,103,103,103,103,103,103,103,103,103,103,103,103,103,103,103,
103,103,103,103,103,103,103,103,103,103,103,103,103,103,103,103,
103,103,103,103,103,103,103,103,103,103,103,103,103,103,103,103,
103,103,103,103,103,103,103,103,103,103,103,103,103,103,103,103,
103,103,103,103,103,103,103,103,103,103,103,103,103,103,103,103,
103,103,103,103,103,103,103,103,103,103,103,103,103,103,103,103,
103,103,103,103,103,103,103,103,103,103,103,103,103,103,103,103,
103,103,103,103,103,103,103,103,103,103,103,103,103,103,103,103,
103,103,103,103,103,103,103,103,103,103,103,103,103,103,103,103,
0,0,0,0,0,0,0,0,0,0,0,0,0,0,0,0,
0,0,0,0,0,0,0,0,0,0,0,0,0,0,0,0
</chunk>
   <chunk x="-112" y="192" width="16" height="16">
103,103,103,103,103,103,103,103,103,103,103,103,103,103,103,103,
103,103,103,103,103,103,103,103,103,103,103,103,103,103,103,103,
103,103,103,103,103,103,103,103,103,103,103,103,103,103,103,103,
103,103,103,103,103,103,103,103,103,103,103,103,103,103,103,103,
103,103,103,103,103,103,103,103,103,103,103,103,103,103,103,103,
103,103,103,103,103,103,103,103,103,103,103,103,103,103,103,103,
103,103,103,103,103,103,103,103,103,103,103,103,103,103,103,103,
103,103,103,103,103,103,103,103,103,103,103,103,103,103,103,103,
103,103,103,103,103,103,103,103,103,103,103,103,103,103,103,103,
103,103,103,103,103,103,103,103,103,103,103,103,103,103,103,103,
103,103,103,103,103,103,103,103,103,103,103,103,103,103,103,103,
103,103,103,103,103,103,103,103,103,103,103,103,103,103,103,103,
103,103,103,103,103,103,103,103,103,103,103,103,103,103,103,103,
103,103,103,103,103,103,103,103,103,103,103,103,103,103,103,103,
0,0,0,0,0,0,0,0,0,0,0,0,0,0,0,0,
0,0,0,0,0,0,0,0,0,0,0,0,0,0,0,0
</chunk>
   <chunk x="-96" y="192" width="16" height="16">
103,103,103,103,103,103,103,103,103,103,103,103,103,103,103,103,
103,103,103,103,103,103,103,103,103,103,103,103,103,103,103,103,
103,103,103,103,103,103,103,103,103,103,103,103,103,103,103,103,
103,103,103,103,103,103,103,103,103,103,103,103,103,103,103,103,
103,103,103,103,103,103,103,103,103,103,103,103,103,103,103,103,
103,103,103,103,103,103,103,103,103,103,103,103,103,103,103,103,
103,103,103,103,103,103,103,103,103,103,103,103,103,103,103,103,
103,103,103,103,103,103,103,103,103,103,103,103,103,103,103,103,
103,103,103,103,103,103,103,103,103,103,103,103,103,103,103,103,
103,103,103,103,103,103,103,103,103,103,103,103,103,103,103,103,
103,103,103,103,103,103,103,103,103,103,103,103,103,103,103,103,
103,103,103,103,103,103,103,103,103,103,103,103,103,103,103,103,
103,103,103,103,103,103,103,103,103,103,103,103,103,103,103,103,
103,103,103,103,103,103,103,103,103,103,103,103,103,103,103,103,
0,0,0,0,0,0,0,0,0,0,0,0,0,0,0,0,
0,0,0,0,0,0,0,0,0,0,0,0,0,0,0,0
</chunk>
  </data>
 </layer>
 <layer id="7" name="scrap_layer" width="40" height="60" visible="0">
  <data encoding="csv">
   <chunk x="-112" y="-144" width="16" height="16">
0,0,0,0,0,0,0,0,0,0,0,0,0,0,0,0,
0,0,0,0,0,0,0,0,0,0,0,0,0,0,0,0,
0,0,0,0,0,0,0,0,0,0,0,0,0,0,0,0,
0,0,0,0,0,0,0,0,0,0,0,0,0,0,0,0,
0,0,0,0,0,0,0,0,0,0,0,0,0,0,0,0,
0,0,0,0,0,0,0,0,0,0,0,0,0,0,0,0,
0,0,0,0,0,0,0,0,0,0,0,0,0,0,0,0,
0,0,0,0,0,0,0,0,0,0,0,0,0,0,0,0,
0,0,0,0,0,0,0,0,0,0,0,0,0,0,0,0,
0,0,0,0,0,0,0,0,0,0,0,0,0,0,0,0,
0,0,0,0,0,0,0,0,0,0,0,0,0,0,0,0,
0,0,0,0,0,0,0,0,0,0,0,0,0,0,0,0,
0,0,0,0,0,0,0,0,0,0,0,0,0,0,0,0,
0,0,0,0,0,0,0,0,0,0,0,0,0,0,0,0,
0,0,0,0,0,0,0,0,0,0,0,0,81,81,81,81,
0,0,0,0,0,0,0,0,0,0,0,0,81,81,81,81
</chunk>
   <chunk x="-96" y="-144" width="16" height="16">
0,0,0,0,0,0,0,0,0,0,0,0,0,0,0,0,
0,0,0,0,0,0,0,0,0,0,0,0,0,0,0,0,
0,0,0,0,0,0,0,0,0,0,0,0,0,0,0,0,
0,0,0,0,0,0,0,0,0,0,0,0,0,0,0,0,
0,0,0,0,0,0,0,0,0,0,0,0,0,0,0,0,
0,0,0,0,0,0,0,0,0,0,0,0,0,0,0,0,
0,0,0,0,0,0,0,0,0,0,0,0,0,0,0,0,
0,0,0,0,0,0,0,0,0,0,0,0,0,0,0,0,
0,0,0,0,0,0,0,0,0,0,0,0,0,0,0,0,
0,0,0,0,0,0,0,0,0,0,0,0,0,0,0,0,
0,0,0,0,0,0,0,0,0,0,0,0,0,0,0,0,
0,0,0,0,0,0,0,0,0,0,0,0,0,0,0,0,
0,0,0,0,0,0,0,0,0,0,0,0,0,0,0,0,
0,0,0,0,0,0,0,0,0,0,0,0,0,0,0,0,
81,81,81,81,81,81,81,81,81,81,81,81,81,81,81,81,
81,81,81,81,81,81,81,81,81,81,81,81,81,81,81,81
</chunk>
   <chunk x="-80" y="-144" width="16" height="16">
0,0,0,0,0,0,0,0,0,0,0,0,0,0,0,0,
0,0,0,0,0,0,0,0,0,0,0,0,0,0,0,0,
0,0,0,0,0,0,0,0,0,0,0,0,0,0,0,0,
0,0,0,0,0,0,0,0,0,0,0,0,0,0,0,0,
0,0,0,0,0,0,0,0,0,0,0,0,0,0,0,0,
0,0,0,0,0,0,0,0,0,0,0,0,0,0,0,0,
0,0,0,0,0,0,0,0,0,0,0,0,0,0,0,0,
0,0,0,0,0,0,0,0,0,0,0,0,0,0,0,0,
0,0,0,0,0,0,0,0,0,0,0,0,0,0,0,0,
0,0,0,0,0,0,0,0,0,0,0,0,0,0,0,0,
0,0,0,0,0,0,0,0,0,0,0,0,0,0,0,0,
0,0,0,0,0,0,0,0,0,0,0,0,0,0,0,0,
0,0,0,0,0,0,0,0,0,0,0,0,0,0,0,0,
0,0,0,0,0,0,0,0,0,0,0,0,0,0,0,0,
81,81,81,81,81,81,81,81,81,81,81,81,81,81,81,81,
81,81,81,81,81,81,81,81,81,81,81,81,81,81,81,81
</chunk>
   <chunk x="-64" y="-144" width="16" height="16">
0,0,0,0,0,0,0,0,0,0,0,0,0,0,0,0,
0,0,0,0,0,0,0,0,0,0,0,0,0,0,0,0,
0,0,0,0,0,0,0,0,0,0,0,0,0,0,0,0,
0,0,0,0,0,0,0,0,0,0,0,0,0,0,0,0,
0,0,0,0,0,0,0,0,0,0,0,0,0,0,0,0,
0,0,0,0,0,0,0,0,0,0,0,0,0,0,0,0,
0,0,0,0,0,0,0,0,0,0,0,0,0,0,0,0,
0,0,0,0,0,0,0,0,0,0,0,0,0,0,0,0,
0,0,0,0,0,0,0,0,0,0,0,0,0,0,0,0,
0,0,0,0,0,0,0,0,0,0,0,0,0,0,0,0,
0,0,0,0,0,0,0,0,0,0,0,0,0,0,0,0,
0,0,0,0,0,0,0,0,0,0,0,0,0,0,0,0,
0,0,0,0,0,0,0,0,0,0,0,0,0,0,0,0,
0,0,0,0,0,0,0,0,0,0,0,0,0,0,0,0,
81,81,81,81,81,81,81,81,81,81,81,81,81,81,81,81,
81,81,81,81,81,81,81,81,81,81,81,81,81,81,81,81
</chunk>
   <chunk x="-48" y="-144" width="16" height="16">
0,0,0,0,0,0,0,0,0,0,0,0,0,0,0,0,
0,0,0,0,0,0,0,0,0,0,0,0,0,0,0,0,
0,0,0,0,0,0,0,0,0,0,0,0,0,0,0,0,
0,0,0,0,0,0,0,0,0,0,0,0,0,0,0,0,
0,0,0,0,0,0,0,0,81,81,81,81,81,81,81,81,
0,0,0,0,0,0,0,0,81,81,81,81,81,81,81,81,
0,0,0,0,0,0,0,0,81,81,81,81,81,81,81,81,
0,0,0,0,0,0,0,0,81,81,81,81,81,81,81,81,
0,0,0,0,0,0,0,0,81,81,81,81,81,81,81,81,
0,0,0,0,0,0,0,0,81,81,81,81,81,81,81,81,
0,0,0,0,0,0,0,0,81,81,81,81,81,81,81,81,
0,0,0,0,0,0,0,0,81,81,81,81,81,81,81,81,
0,0,0,0,0,0,0,0,81,81,81,81,81,81,81,81,
0,0,0,0,0,0,0,0,81,81,81,81,81,81,81,81,
81,81,81,81,81,81,81,81,81,81,81,81,81,81,81,81,
81,81,81,81,81,81,81,81,81,81,81,81,81,81,81,81
</chunk>
   <chunk x="-32" y="-144" width="16" height="16">
0,0,0,0,0,0,0,0,0,0,0,0,0,0,0,0,
0,0,0,0,0,0,0,0,0,0,0,0,0,0,0,0,
0,0,0,0,0,0,0,0,0,0,0,0,0,0,0,0,
0,0,0,0,0,0,0,0,0,0,0,0,0,0,0,0,
81,81,81,81,81,81,81,81,81,81,81,81,81,81,81,81,
81,81,81,81,81,81,81,81,81,81,81,81,81,81,81,81,
81,81,81,81,81,81,81,81,81,81,81,81,81,81,81,81,
81,81,81,81,81,81,81,81,81,81,81,81,81,81,81,81,
81,81,81,81,81,81,81,81,81,81,81,81,81,81,81,81,
81,81,81,81,81,81,81,81,81,81,81,81,81,81,81,81,
81,81,81,81,81,81,81,81,81,81,81,81,81,81,81,81,
81,81,81,81,81,81,81,81,81,81,81,81,81,81,81,81,
81,81,81,81,81,81,81,81,81,81,81,81,81,81,81,81,
81,81,81,81,81,81,81,81,81,81,81,81,81,81,81,81,
81,81,81,81,81,81,81,81,81,81,81,81,81,81,81,81,
81,81,81,81,81,81,81,81,81,81,81,81,81,81,81,81
</chunk>
   <chunk x="-16" y="-144" width="16" height="16">
0,0,0,0,0,0,0,0,0,0,0,0,0,0,0,0,
0,0,0,0,0,0,0,0,0,0,0,0,0,0,0,0,
0,0,0,0,0,0,0,0,0,0,0,0,0,0,0,0,
0,0,0,0,0,0,0,0,0,0,0,0,0,0,0,0,
81,81,81,81,81,81,0,0,0,0,0,0,0,0,0,0,
81,81,81,81,81,81,0,0,0,0,0,0,0,0,0,0,
81,81,81,81,81,81,0,0,0,0,0,0,0,0,0,0,
81,81,81,81,81,81,0,0,0,0,0,0,0,0,0,0,
81,81,81,81,81,81,0,0,0,0,0,0,0,0,0,0,
81,81,81,81,81,81,0,0,0,0,0,0,0,0,0,0,
81,81,81,81,81,81,0,0,0,0,0,0,0,0,0,0,
81,81,81,81,81,81,0,0,0,0,0,0,0,0,0,0,
81,81,81,81,81,81,0,0,0,0,0,0,0,0,0,0,
81,81,81,81,81,81,0,0,0,0,0,0,0,0,0,0,
81,81,81,81,81,81,0,0,0,0,0,0,0,0,0,0,
81,81,81,81,81,81,0,0,0,0,0,0,0,0,0,0
</chunk>
   <chunk x="-112" y="-128" width="16" height="16">
0,0,0,0,0,0,0,0,0,0,0,0,81,81,81,81,
0,0,0,0,0,0,0,0,0,0,0,0,81,81,81,81,
0,0,0,0,0,0,0,0,0,0,0,0,81,81,81,81,
0,0,0,0,0,0,0,0,0,0,0,0,81,81,81,81,
0,0,0,0,0,0,0,0,0,0,0,0,81,81,81,81,
0,0,0,0,0,0,0,0,0,0,0,0,81,81,81,81,
0,0,0,0,0,0,0,0,0,0,0,0,81,81,81,81,
0,0,0,0,0,0,0,0,0,0,0,0,81,81,81,81,
0,0,0,0,0,0,0,0,0,0,0,0,81,81,81,81,
0,0,0,0,0,0,0,0,0,0,0,0,81,81,81,81,
0,0,0,0,0,0,0,0,0,0,0,0,81,81,81,81,
0,0,0,0,0,0,0,0,0,0,0,0,81,81,81,81,
0,0,0,0,0,0,0,0,0,0,0,0,81,81,81,81,
0,0,0,0,0,0,0,0,0,0,0,0,81,81,81,81,
0,0,0,0,0,0,0,0,0,0,0,0,81,81,81,81,
0,0,0,0,0,0,0,0,0,0,0,0,81,81,81,81
</chunk>
   <chunk x="-96" y="-128" width="16" height="16">
81,81,81,81,81,81,81,81,81,81,81,81,81,81,81,81,
81,81,81,81,81,81,81,81,81,81,81,81,81,81,81,81,
81,81,81,81,81,81,81,81,81,81,81,81,81,81,81,81,
81,81,81,81,81,81,81,81,81,81,81,81,81,81,81,81,
81,81,81,81,81,81,81,81,81,81,81,81,81,81,81,81,
81,81,81,81,81,81,81,81,81,81,81,81,81,81,81,81,
81,81,81,81,81,81,81,81,81,81,81,81,81,81,81,81,
81,81,81,81,81,81,81,81,81,81,81,81,81,81,81,81,
81,81,81,81,81,81,0,0,0,0,0,0,0,0,0,0,
81,81,81,81,81,81,0,0,0,0,0,0,0,0,0,0,
81,81,81,81,81,81,0,0,0,0,0,0,0,0,0,0,
81,81,81,81,81,81,0,0,0,0,0,0,0,0,0,0,
81,81,81,81,81,81,0,0,0,0,0,0,0,0,0,0,
81,81,81,81,81,81,0,0,0,0,0,0,0,0,0,0,
81,81,81,81,81,81,0,0,0,0,0,0,0,0,0,0,
81,81,81,81,81,81,0,0,0,0,0,0,0,0,0,0
</chunk>
   <chunk x="-80" y="-128" width="16" height="16">
81,81,81,81,81,81,81,81,81,81,81,81,81,81,81,81,
81,81,81,81,81,81,81,81,81,81,81,81,81,81,81,81,
81,81,81,81,81,81,81,81,81,81,81,81,81,81,81,81,
81,81,81,81,81,81,81,81,81,81,81,81,81,81,81,81,
81,81,81,81,81,81,81,81,81,81,81,81,81,81,81,81,
81,81,81,81,81,81,81,81,81,81,81,81,81,81,81,81,
81,81,81,81,81,81,81,81,81,81,81,81,81,81,81,81,
81,81,81,81,81,81,81,81,81,81,81,81,81,81,81,81,
0,0,0,0,0,0,0,0,0,0,0,0,0,0,0,0,
0,0,0,0,0,0,0,0,0,0,0,0,0,0,0,0,
0,0,0,0,0,0,0,0,0,0,0,0,0,0,0,0,
0,0,0,0,0,0,0,0,0,0,0,0,0,0,0,0,
0,0,0,0,0,0,0,0,0,0,0,0,0,0,0,0,
0,0,0,0,0,0,0,0,0,0,0,0,0,0,0,0,
0,0,0,0,0,0,0,0,0,0,0,0,0,0,0,0,
0,0,0,0,0,0,0,0,0,0,0,0,0,0,0,0
</chunk>
   <chunk x="-64" y="-128" width="16" height="16">
81,81,81,81,81,81,81,81,81,81,81,81,81,81,81,81,
81,81,81,81,81,81,81,81,81,81,81,81,81,81,81,81,
81,81,81,81,81,81,81,81,81,81,81,81,81,81,81,81,
81,81,81,81,81,81,81,81,81,81,81,81,81,81,81,81,
81,81,81,81,81,81,81,81,81,81,81,81,81,81,81,81,
81,81,81,81,81,81,81,81,81,81,81,81,81,81,81,81,
81,81,81,81,81,81,81,81,81,81,81,81,81,81,81,81,
81,81,81,81,81,81,81,81,81,81,81,81,81,81,81,81,
0,0,0,0,0,0,0,0,0,0,0,0,0,0,0,0,
0,0,0,0,0,0,0,0,0,0,0,0,0,0,0,0,
0,0,0,0,0,0,0,0,0,0,0,0,0,0,0,0,
0,0,0,0,0,0,0,0,0,0,0,0,0,0,0,0,
0,0,0,0,0,0,0,0,0,0,0,0,0,0,0,0,
0,0,0,0,0,0,0,0,0,0,0,0,0,0,0,0,
0,0,0,0,0,0,0,0,0,0,0,0,0,0,0,0,
0,0,0,0,0,0,0,0,0,0,0,0,0,0,0,0
</chunk>
   <chunk x="-48" y="-128" width="16" height="16">
81,81,81,81,81,81,81,81,81,81,81,81,81,81,81,81,
81,81,81,81,81,81,81,81,81,81,81,81,81,81,81,81,
81,81,81,81,81,81,81,81,81,81,81,81,81,81,81,81,
81,81,81,81,81,81,81,81,81,81,81,81,81,81,81,81,
81,81,81,81,81,81,81,81,81,81,81,81,81,81,81,81,
81,81,81,81,81,81,81,81,81,81,81,81,81,81,81,81,
81,81,81,81,81,81,81,81,81,81,81,81,81,81,81,81,
81,81,81,81,81,81,81,81,81,81,81,81,81,81,81,81,
0,0,0,0,0,0,0,0,81,81,81,81,81,81,81,81,
0,0,0,0,0,0,0,0,81,81,81,81,81,81,81,81,
0,0,0,0,0,0,0,0,81,81,81,81,81,81,81,81,
0,0,0,0,0,0,0,0,81,81,81,81,81,81,81,81,
0,0,0,0,0,0,0,0,81,81,81,81,81,81,81,81,
0,0,0,0,0,0,0,0,81,81,81,81,81,81,81,81,
0,0,0,0,0,0,0,0,81,81,81,81,81,81,81,81,
0,0,0,0,0,0,0,0,81,81,81,81,81,81,81,81
</chunk>
   <chunk x="-32" y="-128" width="16" height="16">
81,81,81,81,81,81,81,81,81,81,81,81,81,81,81,81,
81,81,81,81,81,81,81,81,81,81,81,81,81,81,81,81,
81,81,81,81,81,81,81,81,81,81,81,81,81,81,81,81,
81,81,81,81,81,81,81,81,81,81,81,81,81,81,81,81,
81,81,81,81,81,81,81,81,81,81,81,81,81,81,81,81,
81,81,81,81,81,81,81,81,81,81,81,81,81,81,81,81,
81,81,81,81,81,81,81,81,81,81,81,81,81,81,81,81,
81,81,81,81,81,81,81,81,81,81,81,81,81,81,81,81,
81,81,81,81,81,81,81,81,81,81,81,81,81,81,81,81,
81,81,81,81,81,81,81,81,81,81,81,81,81,81,81,81,
81,81,81,81,81,81,81,81,81,81,81,81,81,81,81,81,
81,81,81,81,81,81,81,81,81,81,81,81,81,81,81,81,
81,81,81,81,81,81,81,81,81,81,81,81,81,81,81,81,
81,81,81,81,81,81,81,81,81,81,81,81,81,81,81,81,
81,81,81,81,81,81,81,81,81,81,81,81,81,81,81,81,
81,81,81,81,81,81,81,81,81,81,81,81,81,81,81,81
</chunk>
   <chunk x="-16" y="-128" width="16" height="16">
81,81,81,81,81,81,0,0,0,0,0,0,0,0,0,0,
81,81,81,81,81,81,0,0,0,0,0,0,0,0,0,0,
81,81,81,81,81,81,0,0,0,0,0,0,0,0,0,0,
81,81,81,81,81,81,0,0,0,0,0,0,0,0,0,0,
81,81,81,81,81,81,0,0,0,0,0,0,0,0,0,0,
81,81,81,81,81,81,0,0,0,0,0,0,0,0,0,0,
81,81,81,81,81,81,0,0,0,0,0,0,0,0,0,0,
81,81,81,81,81,81,0,0,0,0,0,0,0,0,0,0,
81,81,81,81,81,81,0,0,0,0,0,0,0,0,0,0,
81,81,81,81,81,81,0,0,0,0,0,0,0,0,0,0,
81,81,81,81,81,81,0,0,0,0,0,0,0,0,0,0,
81,81,81,81,81,81,0,0,0,0,0,0,0,0,0,0,
81,81,81,81,81,81,0,0,0,0,0,0,0,0,0,0,
81,81,81,81,81,81,0,0,0,0,0,0,0,0,0,0,
81,81,81,81,81,81,0,0,0,0,0,0,0,0,0,0,
81,81,81,81,81,81,0,0,0,0,0,0,0,0,0,0
</chunk>
   <chunk x="-112" y="-112" width="16" height="16">
0,0,0,0,0,0,0,0,0,0,0,0,81,81,81,81,
0,0,0,0,0,0,0,0,0,0,0,0,81,81,81,81,
0,0,0,0,0,0,0,0,0,0,0,0,81,81,81,81,
0,0,0,0,0,0,0,0,0,0,0,0,81,81,81,81,
0,0,0,0,0,0,0,0,0,0,0,0,81,81,81,81,
0,0,0,0,0,0,0,0,0,0,0,0,81,81,81,81,
0,0,0,0,0,0,0,0,0,0,0,0,81,81,81,81,
0,0,0,0,0,0,0,0,0,0,0,0,81,81,81,81,
0,0,0,0,0,0,0,0,0,0,0,0,81,81,81,81,
0,0,0,0,0,0,0,0,0,0,0,0,81,81,81,81,
0,0,0,0,0,0,0,0,0,0,0,0,81,81,81,81,
0,0,0,0,0,0,0,0,0,0,0,0,81,81,81,81,
0,0,0,0,0,0,0,0,0,0,0,0,81,81,81,81,
0,0,0,0,0,0,0,0,0,0,0,0,81,81,81,81,
0,0,0,0,0,0,0,0,0,0,0,0,81,81,81,81,
0,0,0,0,0,0,0,0,0,0,0,0,81,81,81,81
</chunk>
   <chunk x="-96" y="-112" width="16" height="16">
81,81,81,81,81,81,0,0,0,0,0,0,0,0,0,0,
81,81,81,81,81,81,0,0,0,0,0,0,0,0,0,0,
81,81,81,81,81,81,0,0,0,0,0,0,0,0,0,0,
81,81,81,81,81,81,0,0,0,0,0,0,0,0,0,0,
81,81,81,81,81,81,0,0,0,0,0,0,0,0,0,0,
81,81,81,81,81,81,0,0,0,0,0,0,0,0,0,0,
81,81,81,81,81,81,0,0,0,0,0,0,0,0,0,0,
81,81,81,81,81,81,0,0,0,0,0,0,0,0,0,0,
81,81,81,81,81,81,0,0,0,0,0,0,0,0,0,0,
81,81,81,81,81,81,0,0,0,0,0,0,0,0,0,0,
81,81,81,81,81,81,0,0,0,0,0,0,0,0,0,0,
81,81,81,81,81,81,0,0,0,0,0,0,0,0,0,0,
81,81,81,81,81,81,0,0,0,0,0,0,0,0,0,0,
81,81,81,81,81,81,0,0,0,0,0,0,0,0,0,0,
81,81,81,81,81,81,0,0,0,0,0,0,0,0,0,0,
81,81,81,81,81,81,0,0,0,0,0,0,0,0,0,0
</chunk>
   <chunk x="-48" y="-112" width="16" height="16">
0,0,0,0,0,0,0,0,81,81,81,81,81,81,81,81,
0,0,0,0,0,0,0,0,81,81,81,81,81,81,81,81,
0,0,0,0,0,0,0,0,0,0,0,0,0,0,0,0,
0,0,0,0,0,0,0,0,0,0,0,0,0,0,0,0,
0,0,0,0,0,0,0,0,0,0,0,0,0,0,0,0,
0,0,0,0,0,0,0,0,0,0,0,0,0,0,0,0,
0,0,0,0,0,0,0,0,0,0,0,0,0,0,0,0,
0,0,0,0,0,0,0,0,0,0,0,0,0,0,0,0,
0,0,0,0,0,0,0,0,0,0,0,0,0,0,0,0,
0,0,0,0,0,0,0,0,0,0,0,0,0,0,0,0,
0,0,0,0,0,0,0,0,0,0,0,0,0,0,0,0,
0,0,0,0,0,0,0,0,0,0,0,0,0,0,0,0,
0,0,0,0,0,0,0,0,0,0,0,0,0,0,0,0,
0,0,0,0,0,0,0,0,0,0,0,0,0,0,0,0,
0,0,0,0,0,0,0,0,0,0,0,0,0,0,0,0,
0,0,0,0,0,0,0,0,0,0,0,0,0,0,0,0
</chunk>
   <chunk x="-32" y="-112" width="16" height="16">
81,81,81,81,81,81,81,81,81,81,81,81,81,81,81,81,
81,81,81,81,81,81,81,81,81,81,81,81,81,81,81,81,
0,0,0,0,0,0,0,0,0,0,0,0,0,0,0,0,
0,0,0,0,0,0,0,0,0,0,0,0,0,0,0,0,
0,0,0,0,0,0,0,0,0,0,0,0,0,0,0,0,
0,0,0,0,0,0,0,0,0,0,0,0,0,0,0,0,
0,0,0,0,0,0,0,0,0,0,0,0,0,0,0,0,
0,0,0,0,0,0,0,0,0,0,0,0,0,0,0,0,
0,0,0,0,0,0,0,0,0,0,0,0,0,0,0,0,
0,0,0,0,0,0,0,0,0,0,0,0,0,0,0,0,
0,0,0,0,0,0,0,0,0,0,0,0,0,0,0,0,
0,0,0,0,0,0,0,0,0,0,0,0,0,0,0,0,
0,0,0,0,0,0,0,0,0,0,0,0,0,0,0,0,
0,0,0,0,0,0,0,0,0,0,0,0,0,0,0,0,
0,0,0,0,0,0,0,0,0,0,0,0,0,0,0,0,
0,0,0,0,0,0,0,0,0,0,0,0,0,0,0,0
</chunk>
   <chunk x="-16" y="-112" width="16" height="16">
81,81,81,81,81,81,0,0,0,0,0,0,0,0,0,0,
81,81,81,81,81,81,0,0,0,0,0,0,0,0,0,0,
0,0,0,0,0,0,0,0,0,0,0,0,0,0,0,0,
0,0,0,0,0,0,0,0,0,0,0,0,0,0,0,0,
0,0,0,0,0,0,0,0,0,0,0,0,0,0,0,0,
0,0,0,0,0,0,0,0,0,0,0,0,0,0,0,0,
0,0,0,0,0,0,0,0,0,0,0,0,0,0,0,0,
0,0,0,0,0,0,0,0,0,0,0,0,0,0,0,0,
0,0,0,0,0,0,0,0,0,0,0,0,0,0,0,0,
0,0,0,0,0,0,0,0,0,0,0,0,0,0,0,0,
0,0,0,0,0,0,0,0,0,0,0,0,0,0,0,0,
0,0,0,0,0,0,0,0,0,0,0,0,0,0,0,0,
0,0,0,0,0,0,0,0,0,0,0,0,0,0,0,0,
0,0,0,0,0,0,0,0,0,0,0,0,0,0,0,0,
0,0,0,0,0,0,0,0,0,0,0,0,0,0,0,0,
0,0,0,0,0,0,0,0,0,0,0,0,0,0,0,0
</chunk>
   <chunk x="-112" y="-96" width="16" height="16">
0,0,0,0,0,0,0,0,0,0,0,0,81,81,81,81,
0,0,0,0,0,0,0,0,0,0,0,0,81,81,81,81,
0,0,0,0,0,0,0,0,0,0,0,0,81,81,81,81,
0,0,0,0,0,0,0,0,0,0,0,0,81,81,81,81,
0,0,0,0,0,0,0,0,0,0,0,0,81,81,81,81,
0,0,0,0,0,0,0,0,0,0,0,0,81,81,81,81,
0,0,0,0,0,0,0,0,0,0,0,0,81,81,81,81,
0,0,0,0,0,0,0,0,0,0,0,0,81,81,81,81,
0,0,0,0,0,0,0,0,0,0,0,0,81,81,81,81,
0,0,0,0,0,0,0,0,0,0,0,0,81,81,81,81,
0,0,0,0,0,0,0,0,0,0,0,0,81,81,81,81,
0,0,0,0,0,0,0,0,0,0,0,0,81,81,81,81,
0,0,0,0,0,0,0,0,0,0,0,0,81,81,81,81,
0,0,0,0,0,0,0,0,0,0,0,0,81,81,81,81,
0,0,0,0,0,0,0,0,0,0,0,0,81,81,81,81,
0,0,0,0,0,0,0,0,0,0,0,0,81,81,81,81
</chunk>
   <chunk x="-96" y="-96" width="16" height="16">
81,81,81,81,81,81,0,0,0,0,0,0,0,0,0,0,
81,81,81,81,81,81,0,0,0,0,0,0,0,0,0,0,
81,81,81,81,81,81,0,0,0,0,0,0,0,0,0,0,
81,81,81,81,81,81,0,0,0,0,0,0,0,0,0,0,
81,81,81,81,81,81,0,0,0,0,0,0,0,0,0,0,
81,81,81,81,81,81,0,0,0,0,0,0,0,0,0,0,
81,81,81,81,81,81,81,81,81,81,81,81,81,81,81,81,
81,81,81,81,81,81,81,81,81,81,81,81,81,81,81,81,
81,81,81,81,81,81,81,81,81,81,81,81,81,81,81,81,
81,81,81,81,81,81,81,81,81,81,81,81,81,81,81,81,
81,81,81,81,81,81,81,81,81,81,81,81,81,81,81,81,
81,81,81,81,81,81,81,81,81,81,81,81,81,81,81,81,
81,81,81,81,81,81,81,81,81,81,81,81,81,81,81,81,
81,81,81,81,81,81,81,81,81,81,81,81,81,81,81,81,
81,81,81,81,81,81,81,81,81,81,81,81,81,81,81,81,
81,81,81,81,81,81,81,81,81,81,81,81,81,81,81,81
</chunk>
   <chunk x="-80" y="-96" width="16" height="16">
0,0,0,0,0,0,0,0,0,0,0,0,0,0,0,0,
0,0,0,0,0,0,0,0,0,0,0,0,0,0,0,0,
0,0,0,0,0,0,0,0,0,0,0,0,0,0,0,0,
0,0,0,0,0,0,0,0,0,0,0,0,0,0,0,0,
0,0,0,0,0,0,0,0,0,0,0,0,0,0,0,0,
0,0,0,0,0,0,0,0,0,0,0,0,0,0,0,0,
81,81,81,81,81,81,81,81,81,81,81,81,81,81,81,81,
81,81,81,81,81,81,81,81,81,81,81,81,81,81,81,81,
81,81,81,81,81,81,81,81,81,81,81,81,81,81,81,81,
81,81,81,81,81,81,81,81,81,81,81,81,81,81,81,81,
81,81,81,81,81,81,81,81,81,81,81,81,81,81,81,81,
81,81,81,81,81,81,81,81,81,81,81,81,81,81,81,81,
81,81,81,81,81,81,81,81,81,81,81,81,81,81,81,81,
81,81,81,81,81,81,81,81,81,81,81,81,81,81,81,81,
81,81,81,81,81,81,81,81,81,81,81,81,81,81,81,81,
81,81,81,81,81,81,81,81,81,81,81,81,81,81,81,81
</chunk>
   <chunk x="-64" y="-96" width="16" height="16">
0,0,0,0,0,0,0,0,0,0,0,0,0,0,0,0,
0,0,0,0,0,0,0,0,0,0,0,0,0,0,0,0,
0,0,0,0,0,0,0,0,0,0,0,0,0,0,0,0,
0,0,0,0,0,0,0,0,0,0,0,0,0,0,0,0,
0,0,0,0,0,0,0,0,0,0,0,0,0,0,0,0,
0,0,0,0,0,0,0,0,0,0,0,0,0,0,0,0,
81,81,81,81,81,81,81,81,81,81,81,81,81,81,0,0,
81,81,81,81,81,81,81,81,81,81,81,81,81,81,0,0,
81,81,81,81,81,81,81,81,81,81,81,81,81,81,0,0,
81,81,81,81,81,81,81,81,81,81,81,81,81,81,0,0,
81,81,81,81,81,81,81,81,81,81,81,81,81,81,0,0,
81,81,81,81,81,81,81,81,81,81,81,81,81,81,0,0,
81,81,81,81,81,81,81,81,81,81,81,81,81,81,0,0,
81,81,81,81,81,81,81,81,81,81,81,81,81,81,0,0,
81,81,81,81,81,81,81,81,81,81,81,81,81,81,0,0,
81,81,81,81,81,81,81,81,81,81,81,81,81,81,0,0
</chunk>
   <chunk x="-64" y="-80" width="16" height="16">
0,0,0,0,81,81,81,81,81,81,81,81,81,81,0,0,
0,0,0,0,81,81,81,81,81,81,81,81,81,81,0,0,
0,0,0,0,81,81,81,81,81,81,81,81,81,81,0,0,
0,0,0,0,81,81,81,81,81,81,81,81,81,81,0,0,
0,0,0,0,81,81,81,81,81,81,81,81,81,81,0,0,
0,0,0,0,81,81,81,81,81,81,81,81,81,81,0,0,
0,0,0,0,81,81,81,81,81,81,81,81,81,81,0,0,
0,0,0,0,81,81,81,81,81,81,81,81,81,81,0,0,
0,0,0,0,81,81,81,81,81,81,81,81,81,81,0,0,
0,0,0,0,81,81,81,81,81,81,81,81,81,81,0,0,
0,0,0,0,81,81,81,81,81,81,81,81,81,81,0,0,
0,0,0,0,81,81,81,81,81,81,81,81,81,81,0,0,
0,0,0,0,81,81,81,81,81,81,81,81,81,81,0,0,
0,0,0,0,81,81,81,81,81,81,81,81,81,81,0,0,
0,0,0,0,81,81,81,81,81,81,81,81,81,81,0,0,
0,0,0,0,81,81,81,81,81,81,81,81,81,81,0,0
</chunk>
   <chunk x="64" y="-80" width="16" height="16">
0,0,0,0,0,0,0,0,0,0,0,0,0,0,0,0,
0,0,0,0,0,0,0,0,0,0,0,0,0,0,0,0,
0,0,0,0,0,0,0,0,0,0,0,0,0,0,0,0,
0,0,0,0,0,0,0,0,0,0,0,0,0,0,0,0,
0,0,0,0,0,0,0,0,0,0,0,0,0,0,0,0,
0,0,0,0,0,0,0,0,0,0,0,0,0,0,0,0,
0,0,0,0,0,0,0,0,0,0,0,0,0,0,0,0,
0,0,0,0,0,0,0,0,0,0,0,0,0,0,0,0,
0,0,0,0,0,0,0,0,0,0,0,0,0,0,0,0,
0,0,0,0,0,0,0,0,0,0,0,0,0,0,0,0,
0,0,0,0,0,0,81,81,81,81,81,81,81,81,81,81,
0,0,0,0,0,0,81,81,81,81,81,81,81,81,81,81,
0,0,0,0,0,0,81,81,81,81,81,81,81,81,81,81,
0,0,0,0,0,0,81,81,81,81,81,81,81,81,81,81,
0,0,0,0,0,0,81,81,81,81,81,81,81,81,81,81,
0,0,0,0,0,0,81,81,81,81,81,81,81,81,81,81
</chunk>
   <chunk x="80" y="-80" width="16" height="16">
0,0,0,0,0,0,0,0,0,0,0,0,0,0,0,0,
0,0,0,0,0,0,0,0,0,0,0,0,0,0,0,0,
0,0,0,0,0,0,0,0,0,0,0,0,0,0,0,0,
0,0,0,0,0,0,0,0,0,0,0,0,0,0,0,0,
0,0,0,0,0,0,0,0,0,0,0,0,0,0,0,0,
0,0,0,0,0,0,0,0,0,0,0,0,0,0,0,0,
0,0,0,0,0,0,0,0,0,0,0,0,0,0,0,0,
0,0,0,0,0,0,0,0,0,0,0,0,0,0,0,0,
0,0,0,0,0,0,0,0,0,0,0,0,0,0,0,0,
0,0,0,0,0,0,0,0,0,0,0,0,0,0,0,0,
81,81,81,81,81,81,81,81,81,81,81,81,81,81,81,81,
81,81,81,81,81,81,81,81,81,81,81,81,81,81,81,81,
81,81,81,81,81,81,81,81,81,81,81,81,81,81,81,81,
81,81,81,81,81,81,81,81,81,81,81,81,81,81,81,81,
81,81,81,81,81,81,81,81,81,81,81,81,81,81,81,81,
81,81,81,81,81,81,81,81,81,81,81,81,81,81,81,81
</chunk>
   <chunk x="96" y="-80" width="16" height="16">
0,0,0,0,0,0,0,0,0,0,0,0,0,0,0,0,
0,0,0,0,0,0,0,0,0,0,0,0,0,0,0,0,
0,0,0,0,0,0,0,0,0,0,0,0,0,0,0,0,
0,0,0,0,0,0,0,0,0,0,0,0,0,0,0,0,
0,0,0,0,0,0,0,0,0,0,0,0,0,0,0,0,
0,0,0,0,0,0,0,0,0,0,0,0,0,0,0,0,
0,0,0,0,0,0,0,0,0,0,0,0,0,0,0,0,
0,0,0,0,0,0,0,0,0,0,0,0,0,0,0,0,
0,0,0,0,0,0,0,0,0,0,0,0,0,0,0,0,
0,0,0,0,0,0,0,0,0,0,0,0,0,0,0,0,
81,81,81,81,81,81,81,81,81,81,81,81,81,81,81,81,
81,81,81,81,81,81,81,81,81,81,81,81,81,81,81,81,
81,81,81,81,81,81,81,81,81,81,81,81,81,81,81,81,
81,81,81,81,81,81,81,81,81,81,81,81,81,81,81,81,
81,81,81,81,81,81,81,81,81,81,81,81,81,81,81,81,
81,81,81,81,81,81,81,81,81,81,81,81,81,81,81,81
</chunk>
   <chunk x="112" y="-80" width="16" height="16">
0,0,0,0,0,0,0,0,0,0,0,0,0,0,0,0,
0,0,0,0,0,0,0,0,0,0,0,0,0,0,0,0,
0,0,0,0,0,0,0,0,0,0,0,0,0,0,0,0,
0,0,0,0,0,0,0,0,0,0,0,0,0,0,0,0,
0,0,0,0,0,0,0,0,0,0,0,0,0,0,0,0,
0,0,0,0,0,0,0,0,0,0,0,0,0,0,0,0,
0,0,0,0,0,0,0,0,0,0,0,0,0,0,0,0,
0,0,0,0,0,0,0,0,0,0,0,0,0,0,0,0,
0,0,0,0,0,0,0,0,0,0,0,0,0,0,0,0,
0,0,0,0,0,0,0,0,0,0,0,0,0,0,0,0,
81,81,81,81,81,81,81,81,0,0,0,0,0,0,0,0,
81,81,81,81,81,81,81,81,0,0,0,0,0,0,0,0,
81,81,81,81,81,81,81,81,0,0,0,0,0,0,0,0,
81,81,81,81,81,81,81,81,0,0,0,0,0,0,0,0,
81,81,81,81,81,81,81,81,0,0,0,0,0,0,0,0,
81,81,81,81,81,81,81,81,0,0,0,0,0,0,0,0
</chunk>
   <chunk x="-64" y="-64" width="16" height="16">
0,0,0,0,81,81,81,81,81,81,81,81,81,81,0,0,
0,0,0,0,81,81,81,81,81,81,81,81,81,81,0,0,
0,0,0,0,81,81,81,81,81,81,81,81,81,81,0,0,
0,0,0,0,81,81,81,81,81,81,81,81,81,81,0,0,
0,0,0,0,0,0,0,0,0,0,0,0,0,0,0,0,
0,0,0,0,0,0,0,0,0,0,0,0,0,0,0,0,
0,0,0,0,0,0,0,0,0,0,0,0,0,0,0,0,
0,0,0,0,0,0,0,0,0,0,0,0,0,0,0,0,
0,0,0,0,0,0,0,0,0,0,0,0,0,0,0,0,
0,0,0,0,0,0,0,0,0,0,0,0,0,0,0,0,
0,0,0,0,0,0,0,0,0,0,0,0,0,0,0,0,
0,0,0,0,0,0,0,0,0,0,0,0,0,0,0,0,
0,0,0,0,0,0,0,0,0,0,0,0,0,0,0,0,
0,0,0,0,0,0,0,0,0,0,0,0,0,0,0,0,
0,0,0,0,0,0,0,0,0,0,0,0,0,0,0,0,
0,0,0,0,0,0,0,0,0,0,0,0,0,0,0,0
</chunk>
   <chunk x="64" y="-64" width="16" height="16">
0,0,0,0,0,0,81,81,81,81,81,81,81,81,81,81,
0,0,0,0,0,0,81,81,81,81,81,81,81,81,81,81,
0,0,0,0,0,0,81,81,81,81,81,81,81,81,81,81,
0,0,0,0,0,0,81,81,81,81,81,81,81,81,81,81,
0,0,0,0,0,0,81,81,81,81,81,81,81,81,81,81,
0,0,0,0,0,0,81,81,81,81,81,81,81,81,81,81,
0,0,0,0,0,0,81,81,81,81,81,81,81,81,81,81,
0,0,0,0,0,0,81,81,81,81,81,81,81,81,81,81,
0,0,0,0,0,0,81,81,81,81,81,81,81,81,81,81,
0,0,0,0,0,0,81,81,81,81,81,81,81,81,81,81,
0,0,0,0,0,0,81,81,81,81,81,81,81,81,81,81,
0,0,0,0,0,0,81,81,81,81,81,81,81,81,81,81,
0,0,0,0,0,0,81,81,81,81,81,81,81,81,81,81,
0,0,0,0,0,0,81,81,81,81,81,81,81,81,81,81,
0,0,0,0,0,0,81,81,81,81,81,81,81,81,81,81,
0,0,0,0,0,0,81,81,81,81,81,81,81,81,81,81
</chunk>
   <chunk x="80" y="-64" width="16" height="16">
81,81,81,81,81,81,81,81,81,81,81,81,81,81,81,81,
81,81,81,81,81,81,81,81,81,81,81,81,81,81,81,81,
81,81,81,81,81,81,81,81,81,81,81,81,81,81,81,81,
81,81,81,81,81,81,81,81,81,81,81,81,81,81,81,81,
81,81,81,81,81,81,81,81,81,81,81,81,81,81,81,81,
81,81,81,81,81,81,81,81,81,81,81,81,81,81,81,81,
81,81,81,81,81,81,81,81,81,81,81,81,81,81,81,81,
81,81,81,81,81,81,81,81,81,81,81,81,81,81,81,81,
81,81,81,81,81,81,81,81,81,81,81,81,81,81,81,81,
81,81,81,81,81,81,81,81,81,81,81,81,81,81,81,81,
81,81,81,81,81,81,81,81,81,81,81,81,81,81,81,81,
81,81,81,81,81,81,81,81,81,81,81,81,81,81,81,81,
81,81,81,81,81,81,81,81,81,81,81,81,81,81,81,81,
81,81,81,81,81,81,81,81,81,81,81,81,81,81,81,81,
81,81,81,81,81,81,81,81,81,81,81,81,81,81,81,81,
81,81,81,81,81,81,81,81,81,81,81,81,81,81,81,81
</chunk>
   <chunk x="96" y="-64" width="16" height="16">
81,81,81,81,81,81,81,81,81,81,81,81,81,81,81,81,
81,81,81,81,81,81,81,81,81,81,81,81,81,81,81,81,
81,81,81,81,81,81,81,81,81,81,81,81,81,81,81,81,
81,81,81,81,81,81,81,81,81,81,81,81,81,81,81,81,
81,81,81,81,81,81,81,81,81,81,81,81,81,81,81,81,
81,81,81,81,81,81,81,81,81,81,81,81,81,81,81,81,
81,81,81,81,81,81,81,81,81,81,81,81,81,81,81,81,
81,81,81,81,81,81,81,81,81,81,81,81,81,81,81,81,
81,81,81,81,81,81,81,81,81,81,81,81,81,81,81,81,
81,81,81,81,81,81,81,81,81,81,81,81,81,81,81,81,
81,81,81,81,81,81,81,81,81,81,81,81,81,81,81,81,
81,81,81,81,81,81,81,81,81,81,81,81,81,81,81,81,
81,81,81,81,81,81,81,81,81,81,81,81,81,81,81,81,
81,81,81,81,81,81,81,81,81,81,81,81,81,81,81,81,
81,81,81,81,81,81,81,81,81,81,81,81,81,81,81,81,
81,81,81,81,81,81,81,81,81,81,81,81,81,81,81,81
</chunk>
   <chunk x="112" y="-64" width="16" height="16">
81,81,81,81,81,81,81,81,0,0,0,0,0,0,0,0,
81,81,81,81,81,81,81,81,0,0,0,0,0,0,0,0,
81,81,81,81,81,81,81,81,0,0,0,0,0,0,0,0,
81,81,81,81,81,81,81,81,0,0,0,0,0,0,0,0,
81,81,81,81,81,81,81,81,0,0,0,0,0,0,0,0,
81,81,81,81,81,81,81,81,0,0,0,0,0,0,0,0,
81,81,81,81,81,81,81,81,0,0,0,0,0,0,0,0,
81,81,81,81,81,81,81,81,0,0,0,0,0,0,0,0,
81,81,81,81,81,81,81,81,0,0,0,0,0,0,0,0,
81,81,81,81,81,81,81,81,0,0,0,0,0,0,0,0,
81,81,81,81,81,81,81,81,0,0,0,0,0,0,0,0,
81,81,81,81,81,81,81,81,0,0,0,0,0,0,0,0,
81,81,81,81,81,81,81,81,0,0,0,0,0,0,0,0,
81,81,81,81,81,81,81,81,0,0,0,0,0,0,0,0,
81,81,81,81,81,81,81,81,0,0,0,0,0,0,0,0,
81,81,81,81,81,81,81,81,0,0,0,0,0,0,0,0
</chunk>
   <chunk x="-64" y="-48" width="16" height="16">
0,0,0,0,0,0,0,0,0,0,0,0,0,0,0,0,
0,0,0,0,0,0,0,0,0,0,0,0,0,0,0,0,
0,0,0,0,0,0,0,0,0,0,0,0,0,0,0,0,
0,0,0,0,0,0,0,0,0,0,0,0,0,0,0,0,
0,0,0,0,0,0,0,0,0,0,0,0,0,0,0,0,
0,0,0,0,0,0,0,0,0,0,0,0,0,0,0,0,
0,0,0,0,0,0,0,0,0,0,0,0,0,0,0,0,
0,0,0,0,0,0,0,0,0,0,0,0,0,0,0,0,
0,0,0,0,0,0,0,0,0,0,0,0,0,0,81,81,
0,0,0,0,0,0,0,0,0,0,0,0,0,0,81,81,
0,0,0,0,0,0,0,0,0,0,0,0,0,0,81,81,
0,0,0,0,0,0,0,0,0,0,0,0,0,0,81,81,
0,0,0,0,0,0,0,0,0,0,0,0,0,0,81,81,
0,0,0,0,0,0,0,0,0,0,0,0,0,0,81,81,
0,0,0,0,0,0,0,0,0,0,0,0,0,0,81,81,
0,0,0,0,0,0,0,0,0,0,0,0,0,0,81,81
</chunk>
   <chunk x="-48" y="-48" width="16" height="16">
0,0,0,0,0,0,0,0,0,0,0,0,0,0,0,0,
0,0,0,0,0,0,0,0,0,0,0,0,0,0,0,0,
0,0,0,0,0,0,0,0,0,0,0,0,0,0,0,0,
0,0,0,0,0,0,0,0,0,0,0,0,0,0,0,0,
0,0,0,0,0,0,0,0,0,0,0,0,0,0,0,0,
0,0,0,0,0,0,0,0,0,0,0,0,0,0,0,0,
0,0,0,0,0,0,0,0,0,0,0,0,0,0,0,0,
0,0,0,0,0,0,0,0,0,0,0,0,0,0,0,0,
81,81,81,81,81,81,81,81,0,0,0,0,0,0,0,0,
81,81,81,81,81,81,81,81,0,0,0,0,0,0,0,0,
81,81,81,81,81,81,81,81,0,0,0,0,0,0,0,0,
81,81,81,81,81,81,81,81,0,0,0,0,0,0,0,0,
81,81,81,81,81,81,81,81,0,0,0,0,0,0,0,0,
81,81,81,81,81,81,81,81,0,0,0,0,0,0,0,0,
81,81,81,81,81,81,81,81,0,0,0,0,0,0,0,0,
81,81,81,81,81,81,81,81,0,0,0,0,0,0,0,0
</chunk>
   <chunk x="48" y="-48" width="16" height="16">
0,0,0,0,0,0,0,0,0,0,0,0,0,0,0,0,
0,0,0,0,0,0,0,0,0,0,0,0,0,0,0,0,
0,0,0,0,0,0,0,0,0,0,0,0,0,0,0,0,
0,0,0,0,0,0,0,0,0,0,0,0,0,0,0,0,
0,0,0,0,0,0,0,0,0,0,0,0,0,0,0,0,
0,0,0,0,0,0,0,0,0,0,0,0,0,0,0,0,
0,0,0,0,0,0,0,0,0,0,0,0,0,0,0,0,
0,0,0,0,0,0,0,0,0,0,0,0,0,0,0,0,
0,0,0,0,0,0,0,0,0,0,0,0,81,81,81,81,
0,0,0,0,0,0,0,0,0,0,0,0,81,81,81,81,
0,0,0,0,0,0,0,0,0,0,0,0,81,81,81,81,
0,0,0,0,0,0,0,0,0,0,0,0,81,81,81,81,
0,0,0,0,0,0,0,0,0,0,0,0,81,81,81,81,
0,0,0,0,0,0,0,0,0,0,0,0,81,81,81,81,
0,0,0,0,0,0,0,0,0,0,0,0,81,81,81,81,
0,0,0,0,0,0,0,0,0,0,0,0,81,81,81,81
</chunk>
   <chunk x="64" y="-48" width="16" height="16">
0,0,0,0,0,0,81,81,81,81,81,81,81,81,81,81,
0,0,0,0,0,0,81,81,81,81,81,81,81,81,81,81,
0,0,0,0,0,0,81,81,81,81,81,81,81,81,81,81,
0,0,0,0,0,0,81,81,81,81,81,81,81,81,81,81,
0,0,0,0,0,0,81,81,81,81,81,81,81,81,81,81,
0,0,0,0,0,0,81,81,81,81,81,81,81,81,81,81,
0,0,0,0,0,0,81,81,81,81,81,81,81,81,81,81,
0,0,0,0,0,0,81,81,81,81,81,81,81,81,81,81,
81,81,81,81,81,81,81,81,81,81,81,81,81,81,81,81,
81,81,81,81,81,81,81,81,81,81,81,81,81,81,81,81,
81,81,81,81,81,81,81,81,81,81,81,81,81,81,81,81,
81,81,81,81,81,81,81,81,81,81,81,81,81,81,81,81,
81,81,81,81,81,81,81,81,81,81,81,81,81,81,81,81,
81,81,81,81,81,81,81,81,81,81,81,81,81,81,81,81,
81,81,81,81,81,81,81,81,81,81,81,81,81,81,81,81,
81,81,81,81,81,81,81,81,81,81,81,81,81,81,81,81
</chunk>
   <chunk x="80" y="-48" width="16" height="16">
81,81,81,81,81,81,81,81,81,81,81,81,81,81,81,81,
81,81,81,81,81,81,81,81,81,81,81,81,81,81,81,81,
81,81,81,81,81,81,81,81,81,81,81,81,81,81,81,81,
81,81,81,81,81,81,81,81,81,81,81,81,81,81,81,81,
81,81,81,81,81,81,81,81,81,81,81,81,81,81,81,81,
81,81,81,81,81,81,81,81,81,81,81,81,81,81,81,81,
81,81,81,81,81,81,81,81,81,81,81,81,81,81,81,81,
81,81,81,81,81,81,81,81,81,81,81,81,81,81,81,81,
81,81,81,81,81,81,81,81,81,81,81,81,81,81,81,81,
81,81,81,81,81,81,81,81,81,81,81,81,81,81,81,81,
81,81,81,81,81,81,81,81,81,81,81,81,81,81,81,81,
81,81,81,81,81,81,81,81,81,81,81,81,81,81,81,81,
81,81,81,81,81,81,81,81,81,81,81,81,81,81,81,81,
81,81,81,81,81,81,81,81,81,81,81,81,81,81,81,81,
81,81,81,81,81,81,81,81,81,81,81,81,81,81,81,81,
81,81,81,81,81,81,81,81,81,81,81,81,81,81,81,81
</chunk>
   <chunk x="96" y="-48" width="16" height="16">
81,81,81,81,81,81,81,81,81,81,81,81,81,81,81,81,
81,81,81,81,81,81,81,81,81,81,81,81,81,81,81,81,
81,81,81,81,81,81,81,81,81,81,81,81,81,81,81,81,
81,81,81,81,81,81,81,81,81,81,81,81,81,81,81,81,
81,81,81,81,81,81,81,81,81,81,81,81,81,81,81,81,
81,81,81,81,81,81,81,81,81,81,81,81,81,81,81,81,
81,81,81,81,81,81,81,81,81,81,81,81,81,81,81,81,
81,81,81,81,81,81,81,81,81,81,81,81,81,81,81,81,
81,81,81,81,81,81,81,81,81,81,81,81,81,81,81,81,
81,81,81,81,81,81,81,81,81,81,81,81,81,81,81,81,
81,81,81,81,81,81,81,81,81,81,81,81,81,81,81,81,
81,81,81,81,81,81,81,81,81,81,81,81,81,81,81,81,
81,81,81,81,81,81,81,81,81,81,81,81,81,81,81,81,
81,81,81,81,81,81,81,81,81,81,81,81,81,81,81,81,
81,81,81,81,81,81,81,81,81,81,81,81,81,81,81,81,
81,81,81,81,81,81,81,81,81,81,81,81,81,81,81,81
</chunk>
   <chunk x="112" y="-48" width="16" height="16">
81,81,81,81,81,81,81,81,0,0,0,0,0,0,0,0,
81,81,81,81,81,81,81,81,0,0,0,0,0,0,0,0,
81,81,81,81,81,81,81,81,0,0,0,0,0,0,0,0,
81,81,81,81,81,81,81,81,0,0,0,0,0,0,0,0,
81,81,81,81,81,81,81,81,0,0,0,0,0,0,0,0,
81,81,81,81,81,81,81,81,0,0,0,0,0,0,0,0,
81,81,81,81,81,81,81,81,0,0,0,0,0,0,0,0,
81,81,81,81,81,81,81,81,0,0,0,0,0,0,0,0,
81,81,81,81,81,81,81,81,81,81,81,81,81,81,81,81,
81,81,81,81,81,81,81,81,81,81,81,81,81,81,81,81,
81,81,81,81,81,81,81,81,81,81,81,81,81,81,81,81,
81,81,81,81,81,81,81,81,81,81,81,81,81,81,81,81,
81,81,81,81,81,81,81,81,81,81,81,81,81,81,81,81,
81,81,81,81,81,81,81,81,81,81,81,81,81,81,81,81,
81,81,81,81,81,81,81,81,81,81,81,81,81,81,81,81,
81,81,81,81,81,81,81,81,81,81,81,81,81,81,81,81
</chunk>
   <chunk x="128" y="-48" width="16" height="16">
0,0,0,0,0,0,0,0,0,0,0,0,0,0,0,0,
0,0,0,0,0,0,0,0,0,0,0,0,0,0,0,0,
0,0,0,0,0,0,0,0,0,0,0,0,0,0,0,0,
0,0,0,0,0,0,0,0,0,0,0,0,0,0,0,0,
0,0,0,0,0,0,0,0,0,0,0,0,0,0,0,0,
0,0,0,0,0,0,0,0,0,0,0,0,0,0,0,0,
0,0,0,0,0,0,0,0,0,0,0,0,0,0,0,0,
0,0,0,0,0,0,0,0,0,0,0,0,0,0,0,0,
81,81,0,0,0,0,0,0,0,0,0,0,0,0,0,0,
81,81,0,0,0,0,0,0,0,0,0,0,0,0,0,0,
81,81,0,0,0,0,0,0,0,0,0,0,0,0,0,0,
81,81,0,0,0,0,0,0,0,0,0,0,0,0,0,0,
81,81,0,0,0,0,0,0,0,0,0,0,0,0,0,0,
81,81,0,0,0,0,0,0,0,0,0,0,0,0,0,0,
81,81,0,0,0,0,0,0,0,0,0,0,0,0,0,0,
81,81,0,0,0,0,0,0,0,0,0,0,0,0,0,0
</chunk>
   <chunk x="-64" y="-32" width="16" height="16">
0,0,0,0,0,0,0,0,0,0,0,0,0,0,81,81,
0,0,0,0,0,0,0,0,0,0,0,0,0,0,81,81,
0,0,0,0,0,0,0,0,0,0,0,0,0,0,81,81,
0,0,0,0,0,0,0,0,0,0,0,0,0,0,81,81,
0,0,0,0,0,0,0,0,0,0,0,0,0,0,81,81,
0,0,0,0,0,0,0,0,0,0,0,0,0,0,81,81,
0,0,0,0,0,0,0,0,0,0,0,0,0,0,81,81,
0,0,0,0,0,0,0,0,0,0,0,0,0,0,81,81,
0,0,0,0,0,0,0,0,0,0,0,0,0,0,81,81,
0,0,0,0,0,0,0,0,0,0,0,0,0,0,81,81,
0,0,0,0,0,0,0,0,0,0,0,0,0,0,81,81,
0,0,0,0,0,0,0,0,0,0,0,0,0,0,81,81,
0,0,0,0,0,0,0,0,0,0,0,0,0,0,81,81,
0,0,0,0,0,0,0,0,0,0,0,0,0,0,81,81,
0,0,0,0,0,0,0,0,0,0,0,0,0,0,81,81,
0,0,0,0,0,0,0,0,0,0,0,0,0,0,81,81
</chunk>
   <chunk x="-48" y="-32" width="16" height="16">
81,81,81,81,81,81,81,81,0,0,0,0,0,0,0,0,
81,81,81,81,81,81,81,81,0,0,0,0,0,0,0,0,
81,81,81,81,81,81,81,81,0,0,0,0,0,0,0,0,
81,81,81,81,81,81,81,81,0,0,0,0,0,0,0,0,
81,81,81,81,81,81,81,81,0,0,0,0,0,0,0,0,
81,81,81,81,81,81,81,81,0,0,0,0,0,0,0,0,
81,81,81,81,81,81,81,81,0,0,0,0,0,0,0,0,
81,81,81,81,81,81,81,81,0,0,0,0,0,0,0,0,
81,81,81,81,81,81,81,81,0,0,0,0,0,0,0,0,
81,81,81,81,81,81,81,81,0,0,0,0,0,0,0,0,
81,81,81,81,81,81,81,81,0,0,0,0,0,0,0,0,
81,81,81,81,81,81,81,81,0,0,0,0,0,0,0,0,
81,81,81,81,81,81,81,81,81,81,81,81,81,81,81,81,
81,81,81,81,81,81,81,81,81,81,81,81,81,81,81,81,
81,81,81,81,81,81,81,81,81,81,81,81,81,81,81,81,
81,81,81,81,81,81,81,81,81,81,81,81,81,81,81,81
</chunk>
   <chunk x="-32" y="-32" width="16" height="16">
0,0,0,0,0,0,0,0,0,0,0,0,0,0,0,0,
0,0,0,0,0,0,0,0,0,0,0,0,0,0,0,0,
0,0,0,0,0,0,0,0,0,0,0,0,0,0,0,0,
0,0,0,0,0,0,0,0,0,0,0,0,0,0,0,0,
0,0,0,0,0,0,0,0,0,0,0,0,0,0,0,0,
0,0,0,0,0,0,0,0,0,0,0,0,0,0,0,0,
0,0,0,0,0,0,0,0,0,0,0,0,0,0,0,0,
0,0,0,0,0,0,0,0,0,0,0,0,0,0,0,0,
0,0,0,0,0,0,0,0,0,0,0,0,0,0,0,0,
0,0,0,0,0,0,0,0,0,0,0,0,0,0,0,0,
0,0,0,0,0,0,0,0,0,0,0,0,0,0,0,0,
0,0,0,0,0,0,0,0,0,0,0,0,0,0,0,0,
81,81,81,81,81,81,81,81,81,81,81,81,81,81,81,81,
81,81,81,81,81,81,81,81,81,81,81,81,81,81,81,81,
81,81,81,81,81,81,81,81,81,81,81,81,81,81,81,81,
81,81,81,81,81,81,81,81,81,81,81,81,81,81,81,81
</chunk>
   <chunk x="-16" y="-32" width="16" height="16">
0,0,0,0,0,0,0,0,0,0,0,0,0,0,0,0,
0,0,0,0,0,0,0,0,0,0,0,0,0,0,0,0,
0,0,0,0,0,0,0,0,0,0,0,0,0,0,0,0,
0,0,0,0,0,0,0,0,0,0,0,0,0,0,0,0,
0,0,0,0,0,0,0,0,0,0,0,0,0,0,0,0,
0,0,0,0,0,0,0,0,0,0,0,0,0,0,0,0,
0,0,0,0,0,0,0,0,0,0,0,0,0,0,0,0,
0,0,0,0,0,0,0,0,0,0,0,0,0,0,0,0,
0,0,0,0,0,0,0,0,0,0,0,0,0,0,0,0,
0,0,0,0,0,0,0,0,0,0,0,0,0,0,0,0,
0,0,0,0,0,0,0,0,0,0,0,0,0,0,0,0,
0,0,0,0,0,0,0,0,0,0,0,0,0,0,0,0,
81,81,81,81,81,81,81,81,81,81,81,81,81,81,81,81,
81,81,81,81,81,81,81,81,81,81,81,81,81,81,81,81,
81,81,81,81,81,81,81,81,81,81,81,81,81,81,81,81,
81,81,81,81,81,81,81,81,81,81,81,81,81,81,81,81
</chunk>
   <chunk x="48" y="-32" width="16" height="16">
0,0,0,0,0,0,0,0,0,0,0,0,81,81,81,81,
0,0,0,0,0,0,0,0,0,0,0,0,81,81,81,81,
0,0,0,0,0,0,0,0,0,0,0,0,81,81,81,81,
0,0,0,0,0,0,0,0,0,0,0,0,81,81,81,81,
0,0,0,0,0,0,0,0,0,0,0,0,81,81,81,81,
0,0,0,0,0,0,0,0,0,0,0,0,81,81,81,81,
0,0,0,0,0,0,0,0,0,0,0,0,81,81,81,81,
0,0,0,0,0,0,0,0,0,0,0,0,81,81,81,81,
0,0,0,0,0,0,0,0,0,0,0,0,81,81,81,81,
0,0,0,0,0,0,0,0,0,0,0,0,81,81,81,81,
0,0,0,0,0,0,0,0,0,0,0,0,81,81,81,81,
0,0,0,0,0,0,0,0,0,0,0,0,81,81,81,81,
0,0,0,0,0,0,0,0,0,0,0,0,81,81,81,81,
0,0,0,0,0,0,0,0,0,0,0,0,81,81,81,81,
0,0,0,0,0,0,0,0,0,0,0,0,81,81,81,81,
0,0,0,0,0,0,0,0,0,0,0,0,81,81,81,81
</chunk>
   <chunk x="64" y="-32" width="16" height="16">
81,81,81,81,81,81,81,81,81,81,81,81,81,81,81,81,
81,81,81,81,81,81,81,81,81,81,81,81,81,81,81,81,
81,81,81,81,81,81,81,81,81,81,81,81,81,81,81,81,
81,81,81,81,81,81,81,81,81,81,81,81,81,81,81,81,
81,81,81,81,81,81,81,81,81,81,81,81,81,81,81,81,
81,81,81,81,81,81,81,81,81,81,81,81,81,81,81,81,
81,81,81,81,81,81,81,81,81,81,81,81,81,81,81,81,
81,81,81,81,81,81,81,81,81,81,81,81,81,81,81,81,
81,81,81,81,81,81,81,81,81,81,81,81,81,81,81,81,
81,81,81,81,81,81,81,81,81,81,81,81,81,81,81,81,
81,81,81,81,81,81,81,81,81,81,81,81,81,81,81,81,
81,81,81,81,81,81,81,81,81,81,81,81,81,81,81,81,
81,81,81,81,81,81,81,81,81,81,81,81,81,81,81,81,
81,81,81,81,81,81,81,81,81,81,81,81,81,81,81,81,
81,81,81,81,81,81,81,81,81,81,81,81,81,81,81,81,
81,81,81,81,81,81,81,81,81,81,81,81,81,81,81,81
</chunk>
   <chunk x="80" y="-32" width="16" height="16">
81,81,81,81,81,81,81,81,81,81,81,81,81,81,81,81,
81,81,81,81,81,81,81,81,81,81,81,81,81,81,81,81,
81,81,81,81,81,81,81,81,81,81,81,81,81,81,81,81,
81,81,81,81,81,81,81,81,81,81,81,81,81,81,81,81,
81,81,81,81,81,81,81,81,81,81,81,81,81,81,81,81,
81,81,81,81,81,81,81,81,81,81,81,81,81,81,81,81,
81,81,81,81,81,81,81,81,81,81,81,81,81,81,81,81,
81,81,81,81,81,81,81,81,81,81,81,81,81,81,81,81,
81,81,81,81,81,81,81,81,81,81,81,81,81,81,81,81,
81,81,81,81,81,81,81,81,81,81,81,81,81,81,81,81,
81,81,81,81,81,81,81,81,81,81,81,81,81,81,81,81,
81,81,81,81,81,81,81,81,81,81,81,81,81,81,81,81,
81,81,81,81,81,81,81,81,81,81,81,81,81,81,81,81,
81,81,81,81,81,81,81,81,81,81,81,81,81,81,81,81,
81,81,81,81,81,81,81,81,81,81,81,81,81,81,81,81,
81,81,81,81,81,81,81,81,81,81,81,81,81,81,81,81
</chunk>
   <chunk x="96" y="-32" width="16" height="16">
81,81,81,81,81,81,81,81,81,81,81,81,81,81,81,81,
81,81,81,81,81,81,81,81,81,81,81,81,81,81,81,81,
81,81,81,81,81,81,81,81,81,81,81,81,81,81,81,81,
81,81,81,81,81,81,81,81,81,81,81,81,81,81,81,81,
81,81,81,81,81,81,81,81,81,81,81,81,81,81,81,81,
81,81,81,81,81,81,81,81,81,81,81,81,81,81,81,81,
81,81,81,81,81,81,81,81,81,81,81,81,81,81,81,81,
81,81,81,81,81,81,81,81,81,81,81,81,81,81,81,81,
81,81,81,81,81,81,81,81,81,81,81,81,81,81,81,81,
81,81,81,81,81,81,81,81,81,81,81,81,81,81,81,81,
81,81,81,81,81,81,81,81,81,81,81,81,81,81,81,81,
81,81,81,81,81,81,81,81,81,81,81,81,81,81,81,81,
81,81,81,81,81,81,81,81,81,81,81,81,81,81,81,81,
81,81,81,81,81,81,81,81,81,81,81,81,81,81,81,81,
81,81,81,81,81,81,81,81,81,81,81,81,81,81,81,81,
81,81,81,81,81,81,81,81,81,81,81,81,81,81,81,81
</chunk>
   <chunk x="112" y="-32" width="16" height="16">
81,81,81,81,81,81,81,81,81,81,81,81,81,81,81,81,
81,81,81,81,81,81,81,81,81,81,81,81,81,81,81,81,
81,81,81,81,81,81,81,81,81,81,81,81,81,81,81,81,
81,81,81,81,81,81,81,81,81,81,81,81,81,81,81,81,
81,81,81,81,81,81,81,81,81,81,81,81,81,81,81,81,
81,81,81,81,81,81,81,81,81,81,81,81,81,81,81,81,
81,81,81,81,81,81,81,81,81,81,81,81,81,81,81,81,
81,81,81,81,81,81,81,81,81,81,81,81,81,81,81,81,
81,81,81,81,81,81,81,81,81,81,81,81,81,81,81,81,
81,81,81,81,81,81,81,81,81,81,81,81,81,81,81,81,
81,81,81,81,81,81,81,81,81,81,81,81,81,81,81,81,
81,81,81,81,81,81,81,81,81,81,81,81,81,81,81,81,
81,81,81,81,81,81,81,81,81,81,81,81,81,81,81,81,
81,81,81,81,81,81,81,81,81,81,81,81,81,81,81,81,
81,81,81,81,81,81,81,81,81,81,81,81,81,81,81,81,
81,81,81,81,81,81,81,81,81,81,81,81,81,81,81,81
</chunk>
   <chunk x="128" y="-32" width="16" height="16">
81,81,0,0,0,0,0,0,0,0,0,0,0,0,0,0,
81,81,0,0,0,0,0,0,0,0,0,0,0,0,0,0,
81,81,0,0,0,0,0,0,0,0,0,0,0,0,0,0,
81,81,0,0,0,0,0,0,0,0,0,0,0,0,0,0,
81,81,0,0,0,0,0,0,0,0,0,0,0,0,0,0,
81,81,0,0,0,0,0,0,0,0,0,0,0,0,0,0,
81,81,0,0,0,0,0,0,0,0,0,0,0,0,0,0,
81,81,0,0,0,0,0,0,0,0,0,0,0,0,0,0,
81,81,0,0,0,0,0,0,0,0,0,0,0,0,0,0,
81,81,0,0,0,0,0,0,0,0,0,0,0,0,0,0,
81,81,0,0,0,0,0,0,0,0,0,0,0,0,0,0,
81,81,0,0,0,0,0,0,0,0,0,0,0,0,0,0,
81,81,0,0,0,0,0,0,0,0,0,0,0,0,0,0,
81,81,0,0,0,0,0,0,0,0,0,0,0,0,0,0,
81,81,0,0,0,0,0,0,0,0,0,0,0,0,0,0,
81,81,0,0,0,0,0,0,0,0,0,0,0,0,0,0
</chunk>
   <chunk x="-64" y="-16" width="16" height="16">
0,0,0,0,0,0,0,0,0,0,0,0,0,0,81,81,
0,0,0,0,0,0,0,0,0,0,0,0,0,0,81,81,
0,0,0,0,0,0,0,0,0,0,0,0,0,0,81,81,
0,0,0,0,0,0,0,0,0,0,0,0,0,0,81,81,
0,0,0,0,0,0,0,0,0,0,0,0,0,0,81,81,
0,0,0,0,0,0,0,0,0,0,0,0,0,0,81,81,
0,0,0,0,0,0,0,0,0,0,0,0,0,0,81,81,
0,0,0,0,0,0,0,0,0,0,0,0,0,0,81,81,
0,0,0,0,0,0,0,0,0,0,0,0,0,0,81,81,
0,0,0,0,0,0,0,0,0,0,0,0,0,0,81,81,
0,0,0,0,0,0,0,0,0,0,0,0,0,0,81,81,
0,0,0,0,0,0,0,0,0,0,0,0,0,0,81,81,
0,0,0,0,0,0,0,0,0,0,0,0,0,0,81,81,
0,0,0,0,0,0,0,0,0,0,0,0,0,0,81,81,
0,0,0,0,0,0,0,0,0,0,0,0,0,0,81,81,
0,0,0,0,0,0,0,0,0,0,0,0,0,0,81,81
</chunk>
   <chunk x="-48" y="-16" width="16" height="16">
81,81,81,81,81,81,81,81,81,81,81,81,81,81,81,81,
81,81,81,81,81,81,81,81,81,81,81,81,81,81,81,81,
81,81,81,81,81,81,81,81,81,81,81,81,81,81,81,81,
81,81,81,81,81,81,81,81,81,81,81,81,81,81,81,81,
81,81,81,81,81,81,81,81,81,81,81,81,81,81,81,81,
81,81,81,81,81,81,81,81,81,81,81,81,81,81,81,81,
81,81,81,81,81,81,81,81,81,81,81,81,81,81,81,81,
81,81,81,81,81,81,81,81,81,81,81,81,81,81,81,81,
81,81,81,81,81,81,81,81,81,81,81,81,81,81,81,81,
81,81,81,81,81,81,81,81,81,81,81,81,81,81,81,81,
81,81,81,81,81,81,81,81,81,81,81,81,81,81,81,81,
81,81,81,81,81,81,81,81,81,81,81,81,81,81,81,81,
81,81,81,81,81,81,81,81,81,81,81,81,81,81,81,81,
81,81,81,81,81,81,81,81,81,81,81,81,81,81,81,81,
81,81,81,81,81,81,81,81,81,81,81,81,81,81,81,81,
81,81,81,81,81,81,81,81,81,81,81,81,81,81,81,81
</chunk>
   <chunk x="-32" y="-16" width="16" height="16">
81,81,81,81,81,81,81,81,81,81,81,81,81,81,81,81,
81,81,81,81,81,81,81,81,81,81,81,81,81,81,81,81,
81,81,81,81,81,81,81,81,81,81,81,81,81,81,81,81,
81,81,81,81,81,81,81,81,81,81,81,81,81,81,81,81,
81,81,81,81,81,81,81,81,81,81,81,81,81,81,81,81,
81,81,81,81,81,81,81,81,81,81,81,81,81,81,81,81,
81,81,81,81,81,81,81,81,81,81,81,81,0,0,0,0,
81,81,81,81,81,81,81,81,81,81,81,81,0,0,0,0,
81,81,81,81,81,81,81,81,81,81,81,81,0,0,0,0,
81,81,81,81,81,81,81,81,81,81,81,81,0,0,0,0,
81,81,81,81,81,81,81,81,81,81,81,81,0,0,0,0,
81,81,81,81,81,81,81,81,81,81,81,81,0,0,0,0,
81,81,81,81,81,81,81,81,81,81,81,81,0,0,0,0,
81,81,81,81,81,81,81,81,81,81,81,81,0,0,0,0,
81,81,81,81,81,81,81,81,81,81,81,81,0,0,0,0,
81,81,81,81,81,81,81,81,81,81,81,81,0,0,0,0
</chunk>
   <chunk x="-16" y="-16" width="16" height="16">
81,81,81,81,81,81,81,81,81,81,81,81,81,81,81,81,
81,81,81,81,81,81,81,81,81,81,81,81,81,81,81,81,
81,81,81,81,81,81,81,81,81,81,81,81,81,81,81,81,
81,81,81,81,81,81,81,81,81,81,81,81,81,81,81,81,
81,81,81,81,81,81,81,81,81,81,81,81,81,81,81,81,
81,81,81,81,81,81,81,81,81,81,81,81,81,81,81,81,
0,0,0,0,0,0,81,81,81,81,81,81,81,81,81,81,
0,0,0,0,0,0,81,81,81,81,81,81,81,81,81,81,
0,0,0,0,0,0,81,81,81,81,81,81,81,81,81,81,
0,0,0,0,0,0,81,81,81,81,81,81,81,81,81,81,
0,0,0,0,0,0,81,81,81,81,81,81,81,81,81,81,
0,0,0,0,0,0,81,81,81,81,81,81,81,81,81,81,
0,0,0,0,0,0,81,81,81,81,81,81,81,81,81,81,
0,0,0,0,0,0,81,81,81,81,81,81,81,81,81,81,
0,0,0,0,0,0,81,81,81,81,81,81,81,81,81,81,
0,0,0,0,0,0,81,81,81,81,81,81,81,81,81,81
</chunk>
   <chunk x="48" y="-16" width="16" height="16">
0,0,0,0,0,0,0,0,0,0,0,0,81,81,81,81,
0,0,0,0,0,0,0,0,0,0,0,0,81,81,81,81,
0,0,0,0,0,0,0,0,0,0,0,0,81,81,81,81,
0,0,0,0,0,0,0,0,0,0,0,0,81,81,81,81,
0,0,0,0,0,0,0,0,0,0,0,0,81,81,81,81,
0,0,0,0,0,0,0,0,0,0,0,0,81,81,81,81,
0,0,81,81,81,81,81,81,81,81,81,81,81,81,81,81,
0,0,81,81,81,81,81,81,81,81,81,81,81,81,81,81,
0,0,81,81,81,81,81,81,81,81,81,81,81,81,81,81,
0,0,81,81,81,81,81,81,81,81,81,81,81,81,81,81,
0,0,81,81,81,81,81,81,81,81,81,81,81,81,81,81,
0,0,81,81,81,81,81,81,81,81,81,81,81,81,81,81,
0,0,81,81,81,81,81,81,81,81,81,81,81,81,81,81,
0,0,81,81,81,81,81,81,81,81,81,81,81,81,81,81,
0,0,81,81,81,81,81,81,81,81,81,81,81,81,81,81,
0,0,81,81,81,81,81,81,81,81,81,81,81,81,81,81
</chunk>
   <chunk x="64" y="-16" width="16" height="16">
81,81,81,81,81,81,81,81,81,81,81,81,81,81,81,81,
81,81,81,81,81,81,81,81,81,81,81,81,81,81,81,81,
81,81,81,81,81,81,81,81,81,81,81,81,81,81,81,81,
81,81,81,81,81,81,81,81,81,81,81,81,81,81,81,81,
81,81,81,81,81,81,81,81,81,81,81,81,81,81,81,81,
81,81,81,81,81,81,81,81,81,81,81,81,81,81,81,81,
81,81,81,81,81,81,81,81,81,81,81,81,81,81,81,81,
81,81,81,81,81,81,81,81,81,81,81,81,81,81,81,81,
81,81,81,81,81,81,81,81,81,81,81,81,81,81,81,81,
81,81,81,81,81,81,81,81,81,81,81,81,81,81,81,81,
81,81,81,81,81,81,81,81,81,81,81,81,81,81,81,81,
81,81,81,81,81,81,81,81,81,81,81,81,81,81,81,81,
81,81,81,81,81,81,81,81,81,81,81,81,81,81,81,81,
81,81,81,81,81,81,81,81,81,81,81,81,81,81,81,81,
81,81,81,81,81,81,81,81,81,81,81,81,81,81,81,81,
81,81,81,81,81,81,81,81,81,81,81,81,81,81,81,81
</chunk>
   <chunk x="80" y="-16" width="16" height="16">
81,81,81,81,81,81,81,81,81,81,81,81,81,81,81,81,
81,81,81,81,81,81,81,81,81,81,81,81,81,81,81,81,
81,81,81,81,81,81,81,81,81,81,81,81,81,81,81,81,
81,81,81,81,81,81,81,81,81,81,81,81,81,81,81,81,
81,81,81,81,81,81,81,81,81,81,81,81,81,81,81,81,
81,81,81,81,81,81,81,81,81,81,81,81,81,81,81,81,
81,81,81,81,81,81,81,81,81,81,81,81,81,81,81,81,
81,81,81,81,81,81,81,81,81,81,81,81,81,81,81,81,
81,81,81,81,81,81,81,81,81,81,81,81,81,81,81,81,
81,81,81,81,81,81,81,81,81,81,81,81,81,81,81,81,
81,81,81,81,81,81,81,81,81,81,81,81,81,81,81,81,
81,81,81,81,81,81,81,81,81,81,81,81,81,81,81,81,
81,81,81,81,81,81,81,81,81,81,81,81,81,81,81,81,
81,81,81,81,81,81,81,81,81,81,81,81,81,81,81,81,
81,81,81,81,81,81,81,81,81,81,81,81,81,81,81,81,
81,81,81,81,81,81,81,81,81,81,81,81,81,81,81,81
</chunk>
   <chunk x="96" y="-16" width="16" height="16">
81,81,81,81,81,81,81,81,81,81,81,81,81,81,81,81,
81,81,81,81,81,81,81,81,81,81,81,81,81,81,81,81,
81,81,81,81,81,81,81,81,81,81,81,81,81,81,81,81,
81,81,81,81,81,81,81,81,81,81,81,81,81,81,81,81,
81,81,81,81,81,81,81,81,81,81,81,81,81,81,81,81,
81,81,81,81,81,81,81,81,81,81,81,81,81,81,81,81,
81,81,81,81,81,81,81,81,81,81,81,81,81,81,81,81,
81,81,81,81,81,81,81,81,81,81,81,81,81,81,81,81,
81,81,81,81,81,81,81,81,81,81,81,81,81,81,81,81,
81,81,81,81,81,81,81,81,81,81,81,81,81,81,81,81,
81,81,81,81,81,81,81,81,81,81,81,81,81,81,81,81,
81,81,81,81,81,81,81,81,81,81,81,81,81,81,81,81,
81,81,81,81,81,81,81,81,81,81,81,81,81,81,81,81,
81,81,81,81,81,81,81,81,81,81,81,81,81,81,81,81,
81,81,81,81,81,81,81,81,81,81,81,81,81,81,81,81,
81,81,81,81,81,81,81,81,81,81,81,81,81,81,81,81
</chunk>
   <chunk x="112" y="-16" width="16" height="16">
81,81,81,81,81,81,81,81,81,81,81,81,81,81,81,81,
81,81,81,81,81,81,81,81,81,81,81,81,81,81,81,81,
81,81,81,81,81,81,81,81,81,81,81,81,81,81,81,81,
81,81,81,81,81,81,81,81,81,81,81,81,81,81,81,81,
81,81,81,81,81,81,81,81,81,81,81,81,81,81,81,81,
81,81,81,81,81,81,81,81,81,81,81,81,81,81,81,81,
81,81,81,81,81,81,81,81,81,81,81,81,81,81,81,81,
81,81,81,81,81,81,81,81,81,81,81,81,81,81,81,81,
81,81,81,81,81,81,81,81,81,81,81,81,81,81,81,81,
81,81,81,81,81,81,81,81,81,81,81,81,81,81,81,81,
81,81,81,81,81,81,81,81,81,81,81,81,81,81,81,81,
81,81,81,81,81,81,81,81,81,81,81,81,81,81,81,81,
81,81,81,81,81,81,81,81,81,81,81,81,81,81,81,81,
81,81,81,81,81,81,81,81,81,81,81,81,81,81,81,81,
81,81,81,81,81,81,81,81,81,81,81,81,81,81,81,81,
81,81,81,81,81,81,81,81,81,81,81,81,81,81,81,81
</chunk>
   <chunk x="128" y="-16" width="16" height="16">
81,81,0,0,0,0,0,0,0,0,0,0,0,0,0,0,
81,81,0,0,0,0,0,0,0,0,0,0,0,0,0,0,
81,81,0,0,0,0,0,0,0,0,0,0,0,0,0,0,
81,81,0,0,0,0,0,0,0,0,0,0,0,0,0,0,
81,81,0,0,0,0,0,0,0,0,0,0,0,0,0,0,
81,81,0,0,0,0,0,0,0,0,0,0,0,0,0,0,
81,81,81,81,81,81,81,81,81,81,81,81,0,0,0,0,
81,81,81,81,81,81,81,81,81,81,81,81,0,0,0,0,
81,81,81,81,81,81,81,81,81,81,81,81,0,0,0,0,
81,81,81,81,81,81,81,81,81,81,81,81,0,0,0,0,
81,81,81,81,81,81,81,81,81,81,81,81,0,0,0,0,
81,81,81,81,81,81,81,81,81,81,81,81,0,0,0,0,
81,81,81,81,81,81,81,81,81,81,81,81,0,0,0,0,
81,81,81,81,81,81,81,81,81,81,81,81,0,0,0,0,
81,81,81,81,81,81,81,81,81,81,81,81,0,0,0,0,
81,81,81,81,81,81,81,81,81,81,81,81,0,0,0,0
</chunk>
   <chunk x="-16" y="0" width="16" height="16">
0,0,0,0,0,0,81,81,81,81,81,81,81,81,81,81,
0,0,0,0,0,0,81,81,81,81,81,81,81,81,81,81,
0,0,0,0,0,0,81,81,81,81,81,81,81,81,81,81,
0,0,0,0,0,0,81,81,81,81,81,81,81,81,81,81,
0,0,0,0,0,0,81,81,81,81,81,81,81,81,81,81,
0,0,0,0,0,0,81,81,81,81,81,81,81,81,81,81,
0,0,0,0,0,0,81,81,81,81,81,81,81,81,81,81,
0,0,0,0,0,0,81,81,81,81,81,81,81,81,81,81,
0,0,0,0,0,0,81,81,81,81,81,81,81,81,81,81,
0,0,0,0,0,0,81,81,81,81,81,81,81,81,81,81,
0,0,0,0,0,0,81,81,81,81,81,81,81,81,81,81,
0,0,0,0,0,0,81,81,81,81,81,81,81,81,81,81,
0,0,0,0,0,0,81,81,81,81,81,81,81,81,81,81,
0,0,0,0,0,0,81,81,81,81,81,81,81,81,81,81,
0,0,0,0,0,0,81,81,81,81,81,81,81,81,81,81,
0,0,0,0,0,0,81,81,81,81,81,81,81,81,81,81
</chunk>
   <chunk x="48" y="0" width="16" height="16">
0,0,81,81,81,81,81,81,81,81,81,81,81,81,81,81,
0,0,81,81,81,81,81,81,81,81,81,81,81,81,81,81,
0,0,81,81,81,81,81,81,81,81,81,81,81,81,81,81,
0,0,81,81,81,81,81,81,81,81,81,81,81,81,81,81,
0,0,81,81,81,81,81,81,81,81,81,81,81,81,81,81,
0,0,81,81,81,81,81,81,81,81,81,81,81,81,81,81,
0,0,81,81,81,81,81,81,81,81,81,81,81,81,81,81,
0,0,81,81,81,81,81,81,81,81,81,81,81,81,81,81,
0,0,81,81,81,81,81,81,81,81,81,81,81,81,81,81,
0,0,81,81,81,81,81,81,81,81,81,81,81,81,81,81,
0,0,81,81,81,81,81,81,81,81,81,81,81,81,81,81,
0,0,81,81,81,81,81,81,81,81,81,81,81,81,81,81,
0,0,81,81,81,81,81,81,81,81,81,81,81,81,81,81,
0,0,81,81,81,81,81,81,81,81,81,81,81,81,81,81,
0,0,81,81,81,81,81,81,81,81,81,81,81,81,81,81,
0,0,81,81,81,81,81,81,81,81,81,81,81,81,81,81
</chunk>
   <chunk x="64" y="0" width="16" height="16">
81,81,81,81,81,81,81,81,81,81,81,81,81,81,81,81,
81,81,81,81,81,81,81,81,81,81,81,81,81,81,81,81,
81,81,81,81,81,81,81,81,81,81,81,81,81,81,81,81,
81,81,81,81,81,81,81,81,81,81,81,81,81,81,81,81,
81,81,81,81,81,81,81,81,81,81,81,81,81,81,81,81,
81,81,81,81,81,81,81,81,81,81,81,81,81,81,81,81,
81,81,81,81,81,81,81,81,81,81,81,81,81,81,81,81,
81,81,81,81,81,81,81,81,81,81,81,81,81,81,81,81,
81,81,81,81,81,81,81,81,81,81,81,81,81,81,81,81,
81,81,81,81,81,81,81,81,81,81,81,81,81,81,81,81,
81,81,81,81,81,81,81,81,81,81,81,81,81,81,81,81,
81,81,81,81,81,81,81,81,81,81,81,81,81,81,81,81,
81,81,81,81,81,81,81,81,81,81,81,81,81,81,81,81,
81,81,81,81,81,81,81,81,81,81,81,81,81,81,81,81,
81,81,81,81,81,81,81,81,81,81,81,81,81,81,81,81,
81,81,81,81,81,81,81,81,81,81,81,81,81,81,81,81
</chunk>
   <chunk x="80" y="0" width="16" height="16">
81,81,81,81,81,81,81,81,81,81,81,81,81,81,81,81,
81,81,81,81,81,81,81,81,81,81,81,81,81,81,81,81,
81,81,81,81,81,81,81,81,81,81,81,81,81,81,81,81,
81,81,81,81,81,81,81,81,81,81,81,81,81,81,81,81,
81,81,81,81,81,81,81,81,81,81,81,81,81,81,81,81,
81,81,81,81,81,81,81,81,81,81,81,81,81,81,81,81,
81,81,81,81,81,81,81,81,81,81,81,81,81,81,81,81,
81,81,81,81,81,81,81,81,81,81,81,81,81,81,81,81,
81,81,81,81,81,81,81,81,81,81,81,81,81,81,81,81,
81,81,81,81,81,81,81,81,81,81,81,81,81,81,81,81,
81,81,81,81,81,81,81,81,81,81,81,81,81,81,81,81,
81,81,81,81,81,81,81,81,81,81,81,81,81,81,81,81,
81,81,81,81,81,81,81,81,81,81,81,81,81,81,81,81,
81,81,81,81,81,81,81,81,81,81,81,81,81,81,81,81,
81,81,81,81,81,81,81,81,81,81,81,81,81,81,81,81,
81,81,81,81,81,81,81,81,81,81,81,81,81,81,81,81
</chunk>
   <chunk x="96" y="0" width="16" height="16">
81,81,81,81,81,81,81,81,81,81,81,81,81,81,81,81,
81,81,81,81,81,81,81,81,81,81,81,81,81,81,81,81,
81,81,81,81,81,81,81,81,81,81,81,81,81,81,81,81,
81,81,81,81,81,81,81,81,81,81,81,81,81,81,81,81,
81,81,81,81,81,81,81,81,81,81,81,81,81,81,81,81,
81,81,81,81,81,81,81,81,81,81,81,81,81,81,81,81,
81,81,81,81,81,81,81,81,81,81,81,81,81,81,81,81,
81,81,81,81,81,81,81,81,81,81,81,81,81,81,81,81,
81,81,81,81,81,81,81,81,81,81,81,81,81,81,81,81,
81,81,81,81,81,81,81,81,81,81,81,81,81,81,81,81,
81,81,81,81,81,81,81,81,81,81,81,81,81,81,81,81,
81,81,81,81,81,81,81,81,81,81,81,81,81,81,81,81,
81,81,81,81,81,81,81,81,81,81,81,81,81,81,81,81,
81,81,81,81,81,81,81,81,81,81,81,81,81,81,81,81,
81,81,81,81,81,81,81,81,81,81,81,81,81,81,81,81,
81,81,81,81,81,81,81,81,81,81,81,81,81,81,81,81
</chunk>
   <chunk x="112" y="0" width="16" height="16">
81,81,81,81,81,81,81,81,81,81,81,81,81,81,81,81,
81,81,81,81,81,81,81,81,81,81,81,81,81,81,81,81,
81,81,81,81,81,81,81,81,81,81,81,81,81,81,81,81,
81,81,81,81,81,81,81,81,81,81,81,81,81,81,81,81,
81,81,81,81,81,81,81,81,81,81,81,81,81,81,81,81,
81,81,81,81,81,81,81,81,81,81,81,81,81,81,81,81,
81,81,81,81,81,81,81,81,81,81,81,81,81,81,81,81,
81,81,81,81,81,81,81,81,81,81,81,81,81,81,81,81,
81,81,81,81,81,81,81,81,81,81,81,81,81,81,81,81,
81,81,81,81,81,81,81,81,81,81,81,81,81,81,81,81,
81,81,81,81,81,81,81,81,81,81,81,81,81,81,81,81,
81,81,81,81,81,81,81,81,81,81,81,81,81,81,81,81,
81,81,81,81,81,81,81,81,81,81,81,81,81,81,81,81,
81,81,81,81,81,81,81,81,81,81,81,81,81,81,81,81,
81,81,81,81,81,81,81,81,81,81,81,81,81,81,81,81,
81,81,81,81,81,81,81,81,81,81,81,81,81,81,81,81
</chunk>
   <chunk x="128" y="0" width="16" height="16">
81,81,81,81,81,81,81,81,81,81,81,81,0,0,0,0,
81,81,81,81,81,81,81,81,81,81,81,81,0,0,0,0,
81,81,81,81,81,81,81,81,81,81,81,81,0,0,0,0,
81,81,81,81,81,81,81,81,81,81,81,81,0,0,0,0,
81,81,81,81,81,81,81,81,81,81,81,81,0,0,0,0,
81,81,81,81,81,81,81,81,81,81,81,81,0,0,0,0,
81,81,81,81,81,81,81,81,81,81,81,81,0,0,0,0,
81,81,81,81,81,81,81,81,81,81,81,81,0,0,0,0,
81,81,81,81,81,81,81,81,81,81,81,81,0,0,0,0,
81,81,81,81,81,81,81,81,81,81,81,81,0,0,0,0,
81,81,81,81,81,81,81,81,81,81,81,81,0,0,0,0,
81,81,81,81,81,81,81,81,81,81,81,81,0,0,0,0,
81,81,81,81,81,81,81,81,81,81,81,81,0,0,0,0,
81,81,81,81,81,81,81,81,81,81,81,81,0,0,0,0,
81,81,81,81,81,81,81,81,81,81,81,81,0,0,0,0,
81,81,81,81,81,81,81,81,81,81,81,81,0,0,0,0
</chunk>
   <chunk x="-32" y="16" width="16" height="16">
0,0,0,0,0,0,0,0,0,0,0,0,0,0,0,0,
0,0,0,0,0,0,0,0,0,0,0,0,0,0,0,0,
0,0,0,0,0,0,0,0,0,0,0,0,0,0,0,0,
0,0,0,0,0,0,0,0,0,0,0,0,0,0,0,0,
0,0,0,0,0,0,0,0,0,0,0,0,81,81,81,81,
0,0,0,0,0,0,0,0,0,0,0,0,81,81,81,81,
0,0,0,0,0,0,0,0,0,0,0,0,81,81,81,81,
0,0,0,0,0,0,0,0,0,0,0,0,81,81,81,81,
0,0,0,0,0,0,0,0,0,0,0,0,81,81,81,81,
0,0,0,0,0,0,0,0,0,0,0,0,81,81,81,81,
0,0,0,0,0,0,0,0,0,0,0,0,81,81,81,81,
0,0,0,0,0,0,0,0,0,0,0,0,81,81,81,81,
0,0,0,0,0,0,0,0,0,0,0,0,81,81,81,81,
0,0,0,0,0,0,0,0,0,0,0,0,81,81,81,81,
0,0,0,0,0,0,0,0,0,0,0,0,81,81,81,81,
0,0,0,0,0,0,0,0,0,0,0,0,81,81,81,81
</chunk>
   <chunk x="-16" y="16" width="16" height="16">
0,0,0,0,0,0,81,81,81,81,81,81,81,81,81,81,
0,0,0,0,0,0,81,81,81,81,81,81,81,81,81,81,
0,0,0,0,0,0,81,81,81,81,81,81,81,81,81,81,
0,0,0,0,0,0,81,81,81,81,81,81,81,81,81,81,
81,81,81,81,81,81,81,81,81,81,81,81,81,81,81,81,
81,81,81,81,81,81,81,81,81,81,81,81,81,81,81,81,
81,81,81,81,81,81,81,81,81,81,81,81,81,81,81,81,
81,81,81,81,81,81,81,81,81,81,81,81,81,81,81,81,
81,81,81,81,81,81,81,81,81,81,81,81,81,81,81,81,
81,81,81,81,81,81,81,81,81,81,81,81,81,81,81,81,
81,81,81,81,81,81,81,81,81,81,81,81,81,81,81,81,
81,81,81,81,81,81,81,81,81,81,81,81,81,81,81,81,
81,81,81,81,81,81,81,81,81,81,81,81,81,81,81,81,
81,81,81,81,81,81,81,81,81,81,81,81,81,81,81,81,
81,81,81,81,81,81,81,81,81,81,81,81,81,81,81,81,
81,81,81,81,81,81,81,81,81,81,81,81,81,81,81,81
</chunk>
   <chunk x="0" y="16" width="16" height="16">
0,0,0,0,0,0,0,0,0,0,0,0,0,0,0,0,
0,0,0,0,0,0,0,0,0,0,0,0,0,0,0,0,
0,0,0,0,0,0,0,0,0,0,0,0,0,0,0,0,
0,0,0,0,0,0,0,0,0,0,0,0,0,0,0,0,
81,81,81,81,81,81,81,81,81,81,81,81,81,81,81,81,
81,81,81,81,81,81,81,81,81,81,81,81,81,81,81,81,
81,81,81,81,81,81,81,81,81,81,81,81,81,81,81,81,
81,81,81,81,81,81,81,81,81,81,81,81,81,81,81,81,
81,81,81,81,81,81,81,81,81,81,81,81,81,81,81,81,
81,81,81,81,81,81,81,81,81,81,81,81,81,81,81,81,
81,81,81,81,81,81,81,81,81,81,81,81,81,81,81,81,
81,81,81,81,81,81,81,81,81,81,81,81,81,81,81,81,
81,81,81,81,81,81,81,81,81,81,81,81,81,81,81,81,
81,81,81,81,81,81,81,81,81,81,81,81,81,81,81,81,
81,81,81,81,81,81,81,81,81,81,81,81,81,81,81,81,
81,81,81,81,81,81,81,81,81,81,81,81,81,81,81,81
</chunk>
   <chunk x="16" y="16" width="16" height="16">
0,0,0,0,0,0,0,0,0,0,0,0,0,0,0,0,
0,0,0,0,0,0,0,0,0,0,0,0,0,0,0,0,
0,0,0,0,0,0,0,0,0,0,0,0,0,0,0,0,
0,0,0,0,0,0,0,0,0,0,0,0,0,0,0,0,
81,81,81,81,0,0,0,0,0,0,0,0,0,0,0,0,
81,81,81,81,0,0,0,0,0,0,0,0,0,0,0,0,
81,81,81,81,0,0,0,0,0,0,0,0,0,0,0,0,
81,81,81,81,0,0,0,0,0,0,0,0,0,0,0,0,
81,81,81,81,0,0,0,0,0,0,0,0,0,0,0,0,
81,81,81,81,0,0,0,0,0,0,0,0,0,0,0,0,
81,81,81,81,0,0,0,0,0,0,0,0,0,0,0,0,
81,81,81,81,0,0,0,0,0,0,0,0,0,0,0,0,
81,81,81,81,0,0,0,0,0,0,0,0,0,0,0,0,
81,81,81,81,0,0,0,0,0,0,0,0,0,0,0,0,
81,81,81,81,81,81,81,81,81,81,81,81,81,81,81,81,
81,81,81,81,81,81,81,81,81,81,81,81,81,81,81,81
</chunk>
   <chunk x="32" y="16" width="16" height="16">
0,0,0,0,0,0,0,0,0,0,0,0,0,0,0,0,
0,0,0,0,0,0,0,0,0,0,0,0,0,0,0,0,
0,0,0,0,0,0,0,0,0,0,0,0,0,0,0,0,
0,0,0,0,0,0,0,0,0,0,0,0,0,0,0,0,
0,0,0,0,0,0,0,0,0,0,0,0,0,0,0,0,
0,0,0,0,0,0,0,0,0,0,0,0,0,0,0,0,
0,0,0,0,0,0,0,0,0,0,0,0,0,0,0,0,
0,0,0,0,0,0,0,0,0,0,0,0,0,0,0,0,
0,0,0,0,0,0,0,0,0,0,0,0,0,0,0,0,
0,0,0,0,0,0,0,0,0,0,0,0,0,0,0,0,
0,0,0,0,0,0,0,0,0,0,0,0,0,0,0,0,
0,0,0,0,0,0,0,0,0,0,0,0,0,0,0,0,
0,0,0,0,0,0,0,0,0,0,0,0,0,0,0,0,
0,0,0,0,0,0,0,0,0,0,0,0,0,0,0,0,
81,81,81,81,81,81,81,81,81,81,81,81,81,81,81,81,
81,81,81,81,81,81,81,81,81,81,81,81,81,81,81,81
</chunk>
   <chunk x="48" y="16" width="16" height="16">
0,0,81,81,81,81,81,81,81,81,81,81,81,81,81,81,
0,0,81,81,81,81,81,81,81,81,81,81,81,81,81,81,
0,0,81,81,81,81,81,81,81,81,81,81,81,81,81,81,
0,0,81,81,81,81,81,81,81,81,81,81,81,81,81,81,
0,0,81,81,81,81,81,81,81,81,81,81,81,81,81,81,
0,0,81,81,81,81,81,81,81,81,81,81,81,81,81,81,
0,0,81,81,81,81,81,81,81,81,81,81,81,81,81,81,
0,0,81,81,81,81,81,81,81,81,81,81,81,81,81,81,
0,0,81,81,81,81,81,81,81,81,81,81,81,81,81,81,
0,0,81,81,81,81,81,81,81,81,81,81,81,81,81,81,
0,0,81,81,81,81,81,81,81,81,81,81,81,81,81,81,
0,0,81,81,81,81,81,81,81,81,81,81,81,81,81,81,
0,0,81,81,81,81,81,81,81,81,81,81,81,81,81,81,
0,0,81,81,81,81,81,81,81,81,81,81,81,81,81,81,
81,81,81,81,81,81,81,81,81,81,81,81,81,81,81,81,
81,81,81,81,81,81,81,81,81,81,81,81,81,81,81,81
</chunk>
   <chunk x="64" y="16" width="16" height="16">
81,81,81,81,81,81,81,81,81,81,81,81,81,81,81,81,
81,81,81,81,81,81,81,81,81,81,81,81,81,81,81,81,
81,81,81,81,81,81,81,81,81,81,81,81,81,81,81,81,
81,81,81,81,81,81,81,81,81,81,81,81,81,81,81,81,
81,81,81,81,81,81,81,81,81,81,81,81,81,81,81,81,
81,81,81,81,81,81,81,81,81,81,81,81,81,81,81,81,
81,81,81,81,81,81,81,81,81,81,81,81,81,81,81,81,
81,81,81,81,81,81,81,81,81,81,81,81,81,81,81,81,
81,81,81,81,81,81,81,81,81,81,81,81,81,81,81,81,
81,81,81,81,81,81,81,81,81,81,81,81,81,81,81,81,
81,81,81,81,81,81,81,81,81,81,81,81,81,81,81,81,
81,81,81,81,81,81,81,81,81,81,81,81,81,81,81,81,
81,81,81,81,81,81,81,81,81,81,81,81,81,81,81,81,
81,81,81,81,81,81,81,81,81,81,81,81,81,81,81,81,
81,81,81,81,81,81,81,81,81,81,81,81,81,81,81,81,
81,81,81,81,81,81,81,81,81,81,81,81,81,81,81,81
</chunk>
   <chunk x="80" y="16" width="16" height="16">
81,81,81,81,81,81,81,81,81,81,81,81,81,81,81,81,
81,81,81,81,81,81,81,81,81,81,81,81,81,81,81,81,
81,81,81,81,81,81,81,81,81,81,81,81,81,81,81,81,
81,81,81,81,81,81,81,81,81,81,81,81,81,81,81,81,
81,81,81,81,81,81,81,81,81,81,81,81,81,81,81,81,
81,81,81,81,81,81,81,81,81,81,81,81,81,81,81,81,
81,81,81,81,81,81,81,81,81,81,81,81,81,81,81,81,
81,81,81,81,81,81,81,81,81,81,81,81,81,81,81,81,
81,81,81,81,81,81,81,81,81,81,81,81,81,81,81,81,
81,81,81,81,81,81,81,81,81,81,81,81,81,81,81,81,
81,81,81,81,81,81,81,81,81,81,81,81,81,81,81,81,
81,81,81,81,81,81,81,81,81,81,81,81,81,81,81,81,
81,81,81,81,81,81,81,81,81,81,81,81,81,81,81,81,
81,81,81,81,81,81,81,81,81,81,81,81,81,81,81,81,
81,81,81,81,81,81,81,81,81,81,81,81,81,81,81,81,
81,81,81,81,81,81,81,81,81,81,81,81,81,81,81,81
</chunk>
   <chunk x="96" y="16" width="16" height="16">
81,81,81,81,81,81,81,81,81,81,81,81,81,81,81,81,
81,81,81,81,81,81,81,81,81,81,81,81,81,81,81,81,
81,81,81,81,81,81,81,81,81,81,81,81,81,81,81,81,
81,81,81,81,81,81,81,81,81,81,81,81,81,81,81,81,
81,81,81,81,81,81,81,81,81,81,81,81,81,81,81,81,
81,81,81,81,81,81,81,81,81,81,81,81,81,81,81,81,
81,81,81,81,81,81,81,81,81,81,81,81,81,81,81,81,
81,81,81,81,81,81,81,81,81,81,81,81,81,81,81,81,
81,81,81,81,81,81,81,81,81,81,81,81,81,81,81,81,
81,81,81,81,81,81,81,81,81,81,81,81,81,81,81,81,
81,81,81,81,81,81,81,81,81,81,81,81,81,81,81,81,
81,81,81,81,81,81,81,81,81,81,81,81,81,81,81,81,
81,81,81,81,81,81,81,81,81,81,81,81,81,81,81,81,
81,81,81,81,81,81,81,81,81,81,81,81,81,81,81,81,
81,81,81,81,81,81,81,81,81,81,81,81,81,81,81,81,
81,81,81,81,81,81,81,81,81,81,81,81,81,81,81,81
</chunk>
   <chunk x="112" y="16" width="16" height="16">
81,81,81,81,81,81,81,81,81,81,81,81,81,81,81,81,
81,81,81,81,81,81,81,81,81,81,81,81,81,81,81,81,
81,81,81,81,81,81,81,81,81,81,81,81,81,81,81,81,
81,81,81,81,81,81,81,81,81,81,81,81,81,81,81,81,
81,81,81,81,81,81,81,81,81,81,81,81,81,81,81,81,
81,81,81,81,81,81,81,81,81,81,81,81,81,81,81,81,
81,81,81,81,81,81,81,81,81,81,81,81,81,81,81,81,
81,81,81,81,81,81,81,81,81,81,81,81,81,81,81,81,
81,81,81,81,81,81,81,81,81,81,81,81,81,81,81,81,
81,81,81,81,81,81,81,81,81,81,81,81,81,81,81,81,
81,81,81,81,81,81,81,81,81,81,81,81,81,81,81,81,
81,81,81,81,81,81,81,81,81,81,81,81,81,81,81,81,
81,81,81,81,81,81,81,81,81,81,81,81,81,81,81,81,
81,81,81,81,81,81,81,81,81,81,81,81,81,81,81,81,
81,81,81,81,81,81,81,81,81,81,81,81,81,81,81,81,
81,81,81,81,81,81,81,81,81,81,81,81,81,81,81,81
</chunk>
   <chunk x="128" y="16" width="16" height="16">
81,81,81,81,81,81,81,81,81,81,81,81,0,0,0,0,
81,81,81,81,81,81,81,81,81,81,81,81,0,0,0,0,
81,81,81,81,81,81,81,81,81,81,81,81,0,0,0,0,
81,81,81,81,81,81,81,81,81,81,81,81,0,0,0,0,
81,81,81,81,81,81,81,81,81,81,81,81,0,0,0,0,
81,81,81,81,81,81,81,81,81,81,81,81,0,0,0,0,
81,81,81,81,81,81,81,81,81,81,81,81,0,0,0,0,
81,81,81,81,81,81,81,81,81,81,81,81,0,0,0,0,
81,81,81,81,81,81,81,81,81,81,81,81,0,0,0,0,
81,81,81,81,81,81,81,81,81,81,81,81,0,0,0,0,
81,81,81,81,81,81,81,81,81,81,81,81,0,0,0,0,
81,81,81,81,81,81,81,81,81,81,81,81,0,0,0,0,
81,81,81,81,81,81,81,81,81,81,81,81,0,0,0,0,
81,81,81,81,81,81,81,81,81,81,81,81,0,0,0,0,
81,81,81,81,81,81,81,81,81,81,81,81,0,0,0,0,
81,81,81,81,81,81,81,81,81,81,81,81,0,0,0,0
</chunk>
   <chunk x="-32" y="32" width="16" height="16">
0,0,0,0,0,0,0,0,0,0,0,0,81,81,81,81,
0,0,0,0,0,0,0,0,0,0,0,0,81,81,81,81,
0,0,0,0,0,0,0,0,0,0,0,0,81,81,81,81,
0,0,0,0,0,0,0,0,0,0,0,0,81,81,81,81,
0,0,0,0,0,0,0,0,0,0,0,0,81,81,81,81,
0,0,0,0,0,0,0,0,0,0,0,0,81,81,81,81,
0,0,0,0,0,0,0,0,0,0,0,0,81,81,81,81,
0,0,0,0,0,0,0,0,0,0,0,0,81,81,81,81,
0,0,0,0,0,0,0,0,0,0,0,0,81,81,81,81,
0,0,0,0,0,0,0,0,0,0,0,0,81,81,81,81,
0,0,0,0,0,0,0,0,0,0,0,0,81,81,81,81,
0,0,0,0,0,0,0,0,0,0,0,0,81,81,81,81,
0,0,0,0,0,0,0,0,0,0,0,0,81,81,81,81,
0,0,0,0,0,0,0,0,0,0,0,0,81,81,81,81,
0,0,0,0,0,0,0,0,0,0,0,0,81,81,81,81,
0,0,0,0,0,0,0,0,0,0,0,0,81,81,81,81
</chunk>
   <chunk x="-16" y="32" width="16" height="16">
81,81,81,81,81,81,81,81,81,81,81,81,81,81,81,81,
81,81,81,81,81,81,81,81,81,81,81,81,81,81,81,81,
81,81,81,81,81,81,81,81,81,81,81,81,81,81,81,81,
81,81,81,81,81,81,81,81,81,81,81,81,81,81,81,81,
81,81,81,81,81,81,81,81,81,81,81,81,81,81,81,81,
81,81,81,81,81,81,81,81,81,81,81,81,81,81,81,81,
81,81,81,81,81,81,81,81,81,81,81,81,81,81,81,81,
81,81,81,81,81,81,81,81,81,81,81,81,81,81,81,81,
81,81,81,81,81,81,81,81,81,81,81,81,81,81,81,81,
81,81,81,81,81,81,81,81,81,81,81,81,81,81,81,81,
81,81,81,81,81,81,81,81,81,81,81,81,81,81,81,81,
81,81,81,81,81,81,81,81,81,81,81,81,81,81,81,81,
81,81,81,81,81,81,81,81,81,81,81,81,81,81,81,81,
81,81,81,81,81,81,81,81,81,81,81,81,81,81,81,81,
81,81,81,81,81,81,81,81,81,81,81,81,81,81,81,81,
81,81,81,81,81,81,81,81,81,81,81,81,81,81,81,81
</chunk>
   <chunk x="0" y="32" width="16" height="16">
81,81,81,81,81,81,81,81,81,81,81,81,81,81,81,81,
81,81,81,81,81,81,81,81,81,81,81,81,81,81,81,81,
81,81,81,81,81,81,81,81,81,81,81,81,81,81,81,81,
81,81,81,81,81,81,81,81,81,81,81,81,81,81,81,81,
81,81,81,81,81,81,81,81,81,81,81,81,81,81,81,81,
81,81,81,81,81,81,81,81,81,81,81,81,81,81,81,81,
81,81,81,81,81,81,81,81,81,81,81,81,81,81,81,81,
81,81,81,81,81,81,81,81,81,81,81,81,81,81,81,81,
81,81,81,81,81,81,81,81,81,81,81,81,81,81,81,81,
81,81,81,81,81,81,81,81,81,81,81,81,81,81,81,81,
81,81,81,81,81,81,81,81,81,81,81,81,81,81,81,81,
81,81,81,81,81,81,81,81,81,81,81,81,81,81,81,81,
81,81,81,81,81,81,81,81,81,81,81,81,81,81,81,81,
81,81,81,81,81,81,81,81,81,81,81,81,81,81,81,81,
81,81,81,81,81,81,81,81,81,81,81,81,81,81,81,81,
81,81,81,81,81,81,81,81,81,81,81,81,81,81,81,81
</chunk>
   <chunk x="16" y="32" width="16" height="16">
81,81,81,81,81,81,81,81,81,81,81,81,81,81,81,81,
81,81,81,81,81,81,81,81,81,81,81,81,81,81,81,81,
81,81,81,81,81,81,81,81,81,81,81,81,81,81,81,81,
81,81,81,81,81,81,81,81,81,81,81,81,81,81,81,81,
81,81,81,81,81,81,81,81,81,81,81,81,81,81,81,81,
81,81,81,81,81,81,81,81,81,81,81,81,81,81,81,81,
81,81,81,81,81,81,81,81,81,81,81,81,81,81,81,81,
81,81,81,81,81,81,81,81,81,81,81,81,81,81,81,81,
81,81,81,81,0,0,0,0,0,0,0,0,0,0,0,0,
81,81,81,81,0,0,0,0,0,0,0,0,0,0,0,0,
81,81,81,81,0,0,0,0,0,0,0,0,0,0,0,0,
81,81,81,81,0,0,0,0,0,0,0,0,0,0,0,0,
81,81,81,81,0,0,0,0,0,0,0,0,0,0,0,0,
81,81,81,81,0,0,0,0,0,0,0,0,0,0,0,0,
81,81,81,81,0,0,0,0,0,0,0,0,0,0,0,0,
81,81,81,81,0,0,0,0,0,0,0,0,0,0,0,0
</chunk>
   <chunk x="32" y="32" width="16" height="16">
81,81,81,81,81,81,81,81,81,81,81,81,81,81,81,81,
81,81,81,81,81,81,81,81,81,81,81,81,81,81,81,81,
81,81,81,81,81,81,81,81,81,81,81,81,81,81,81,81,
81,81,81,81,81,81,81,81,81,81,81,81,81,81,81,81,
81,81,81,81,81,81,81,81,81,81,81,81,81,81,81,81,
81,81,81,81,81,81,81,81,81,81,81,81,81,81,81,81,
81,81,81,81,81,81,81,81,81,81,81,81,81,81,81,81,
81,81,81,81,81,81,81,81,81,81,81,81,81,81,81,81,
0,0,0,0,0,0,0,0,0,0,0,0,0,0,0,0,
0,0,0,0,0,0,0,0,0,0,0,0,0,0,0,0,
0,0,0,0,0,0,0,0,0,0,0,0,0,0,0,0,
0,0,0,0,0,0,0,0,0,0,0,0,0,0,0,0,
0,0,0,0,0,0,0,0,0,0,0,0,0,0,0,0,
0,0,0,0,0,0,0,0,0,0,0,0,0,0,0,0,
0,0,0,0,0,0,0,0,0,0,0,0,0,0,0,0,
0,0,0,0,0,0,0,0,0,0,0,0,0,0,0,0
</chunk>
   <chunk x="48" y="32" width="16" height="16">
81,81,81,81,81,81,81,81,81,81,81,81,81,81,81,81,
81,81,81,81,81,81,81,81,81,81,81,81,81,81,81,81,
81,81,81,81,81,81,81,81,81,81,81,81,81,81,81,81,
81,81,81,81,81,81,81,81,81,81,81,81,81,81,81,81,
81,81,81,81,81,81,81,81,81,81,81,81,81,81,81,81,
81,81,81,81,81,81,81,81,81,81,81,81,81,81,81,81,
81,81,81,81,81,81,81,81,81,81,81,81,81,81,81,81,
81,81,81,81,81,81,81,81,81,81,81,81,81,81,81,81,
0,0,81,81,81,81,81,81,81,81,81,81,81,81,81,81,
0,0,81,81,81,81,81,81,81,81,81,81,81,81,81,81,
0,0,81,81,81,81,81,81,81,81,81,81,81,81,81,81,
0,0,81,81,81,81,81,81,81,81,81,81,81,81,81,81,
0,0,81,81,81,81,81,81,81,81,81,81,81,81,81,81,
0,0,81,81,81,81,81,81,81,81,81,81,81,81,81,81,
0,0,81,81,81,81,81,81,81,81,81,81,81,81,81,81,
0,0,81,81,81,81,81,81,81,81,81,81,81,81,81,81
</chunk>
   <chunk x="64" y="32" width="16" height="16">
81,81,81,81,81,81,81,81,81,81,81,81,81,81,81,81,
81,81,81,81,81,81,81,81,81,81,81,81,81,81,81,81,
81,81,81,81,81,81,81,81,81,81,81,81,81,81,81,81,
81,81,81,81,81,81,81,81,81,81,81,81,81,81,81,81,
81,81,81,81,81,81,81,81,81,81,81,81,81,81,81,81,
81,81,81,81,81,81,81,81,81,81,81,81,81,81,81,81,
81,81,81,81,81,81,81,81,81,81,81,81,81,81,81,81,
81,81,81,81,81,81,81,81,81,81,81,81,81,81,81,81,
81,81,81,81,81,81,81,81,81,81,81,81,81,81,81,81,
81,81,81,81,81,81,81,81,81,81,81,81,81,81,81,81,
81,81,81,81,81,81,81,81,81,81,81,81,81,81,81,81,
81,81,81,81,81,81,81,81,81,81,81,81,81,81,81,81,
81,81,81,81,81,81,81,81,81,81,81,81,81,81,81,81,
81,81,81,81,81,81,81,81,81,81,81,81,81,81,81,81,
81,81,81,81,81,81,81,81,81,81,81,81,81,81,81,81,
81,81,81,81,81,81,81,81,81,81,81,81,81,81,81,81
</chunk>
   <chunk x="80" y="32" width="16" height="16">
81,81,81,81,81,81,81,81,81,81,81,81,81,81,81,81,
81,81,81,81,81,81,81,81,81,81,81,81,81,81,81,81,
81,81,81,81,81,81,81,81,81,81,81,81,81,81,81,81,
81,81,81,81,81,81,81,81,81,81,81,81,81,81,81,81,
81,81,81,81,81,81,81,81,81,81,81,81,81,81,81,81,
81,81,81,81,81,81,81,81,81,81,81,81,81,81,81,81,
81,81,81,81,81,81,81,81,81,81,81,81,81,81,81,81,
81,81,81,81,81,81,81,81,81,81,81,81,81,81,81,81,
81,81,81,81,81,81,81,81,81,81,81,81,81,81,81,81,
81,81,81,81,81,81,81,81,81,81,81,81,81,81,81,81,
81,81,81,81,81,81,81,81,81,81,81,81,81,81,81,81,
81,81,81,81,81,81,81,81,81,81,81,81,81,81,81,81,
81,81,81,81,81,81,81,81,81,81,81,81,81,81,81,81,
81,81,81,81,81,81,81,81,81,81,81,81,81,81,81,81,
81,81,81,81,81,81,81,81,81,81,81,81,81,81,81,81,
81,81,81,81,81,81,81,81,81,81,81,81,81,81,81,81
</chunk>
   <chunk x="96" y="32" width="16" height="16">
81,81,81,81,81,81,81,81,81,81,81,81,81,81,81,81,
81,81,81,81,81,81,81,81,81,81,81,81,81,81,81,81,
81,81,81,81,81,81,81,81,81,81,81,81,81,81,81,81,
81,81,81,81,81,81,81,81,81,81,81,81,81,81,81,81,
81,81,81,81,81,81,81,81,81,81,81,81,81,81,81,81,
81,81,81,81,81,81,81,81,81,81,81,81,81,81,81,81,
81,81,81,81,81,81,81,81,81,81,81,81,81,81,81,81,
81,81,81,81,81,81,81,81,81,81,81,81,81,81,81,81,
81,81,81,81,81,81,81,81,81,81,81,81,81,81,81,81,
81,81,81,81,81,81,81,81,81,81,81,81,81,81,81,81,
81,81,81,81,81,81,81,81,81,81,81,81,81,81,81,81,
81,81,81,81,81,81,81,81,81,81,81,81,81,81,81,81,
81,81,81,81,81,81,81,81,81,81,81,81,81,81,81,81,
81,81,81,81,81,81,81,81,81,81,81,81,81,81,81,81,
81,81,81,81,81,81,81,81,81,81,81,81,81,81,81,81,
81,81,81,81,81,81,81,81,81,81,81,81,81,81,81,81
</chunk>
   <chunk x="112" y="32" width="16" height="16">
81,81,81,81,81,81,81,81,81,81,81,81,81,81,81,81,
81,81,81,81,81,81,81,81,81,81,81,81,81,81,81,81,
81,81,81,81,81,81,81,81,81,81,81,81,81,81,81,81,
81,81,81,81,81,81,81,81,81,81,81,81,81,81,81,81,
81,81,81,81,81,81,81,81,81,81,81,81,81,81,81,81,
81,81,81,81,81,81,81,81,81,81,81,81,81,81,81,81,
81,81,81,81,81,81,81,81,81,81,81,81,81,81,81,81,
81,81,81,81,81,81,81,81,81,81,81,81,81,81,81,81,
81,81,81,81,81,81,81,81,81,81,81,81,81,81,81,81,
81,81,81,81,81,81,81,81,81,81,81,81,81,81,81,81,
81,81,81,81,81,81,81,81,81,81,81,81,81,81,81,81,
81,81,81,81,81,81,81,81,81,81,81,81,81,81,81,81,
81,81,81,81,81,81,81,81,81,81,81,81,81,81,81,81,
81,81,81,81,81,81,81,81,81,81,81,81,81,81,81,81,
81,81,81,81,81,81,81,81,81,81,81,81,81,81,81,81,
81,81,81,81,81,81,81,81,81,81,81,81,81,81,81,81
</chunk>
   <chunk x="128" y="32" width="16" height="16">
81,81,81,81,81,81,81,81,81,81,81,81,0,0,0,0,
81,81,81,81,81,81,81,81,81,81,81,81,0,0,0,0,
81,81,81,81,81,81,81,81,81,81,81,81,0,0,0,0,
81,81,81,81,81,81,81,81,81,81,81,81,0,0,0,0,
81,81,81,81,81,81,81,81,81,81,81,81,0,0,0,0,
81,81,81,81,81,81,81,81,81,81,81,81,0,0,0,0,
81,81,81,81,81,81,81,81,81,81,81,81,0,0,0,0,
81,81,81,81,81,81,81,81,81,81,81,81,0,0,0,0,
81,81,81,81,81,81,81,81,81,81,81,81,81,81,81,81,
81,81,81,81,81,81,81,81,81,81,81,81,81,81,81,81,
81,81,81,81,81,81,81,81,81,81,81,81,81,81,81,81,
81,81,81,81,81,81,81,81,81,81,81,81,81,81,81,81,
81,81,81,81,81,81,81,81,81,81,81,81,81,81,81,81,
81,81,81,81,81,81,81,81,81,81,81,81,81,81,81,81,
81,81,81,81,81,81,81,81,81,81,81,81,81,81,81,81,
81,81,81,81,81,81,81,81,81,81,81,81,81,81,81,81
</chunk>
   <chunk x="144" y="32" width="16" height="16">
0,0,0,0,0,0,0,0,0,0,0,0,0,0,0,0,
0,0,0,0,0,0,0,0,0,0,0,0,0,0,0,0,
0,0,0,0,0,0,0,0,0,0,0,0,0,0,0,0,
0,0,0,0,0,0,0,0,0,0,0,0,0,0,0,0,
0,0,0,0,0,0,0,0,0,0,0,0,0,0,0,0,
0,0,0,0,0,0,0,0,0,0,0,0,0,0,0,0,
0,0,0,0,0,0,0,0,0,0,0,0,0,0,0,0,
0,0,0,0,0,0,0,0,0,0,0,0,0,0,0,0,
81,81,81,81,81,81,81,81,81,81,81,81,81,81,81,81,
81,81,81,81,81,81,81,81,81,81,81,81,81,81,81,81,
81,81,81,81,81,81,81,81,81,81,81,81,81,81,81,81,
81,81,81,81,81,81,81,81,81,81,81,81,81,81,81,81,
81,81,81,81,81,81,81,81,81,81,81,81,81,81,81,81,
81,81,81,81,81,81,81,81,81,81,81,81,81,81,81,81,
81,81,81,81,81,81,81,81,81,81,81,81,81,81,81,81,
81,81,81,81,81,81,81,81,81,81,81,81,81,81,81,81
</chunk>
   <chunk x="160" y="32" width="16" height="16">
0,0,0,0,0,0,0,0,0,0,0,0,0,0,0,0,
0,0,0,0,0,0,0,0,0,0,0,0,0,0,0,0,
0,0,0,0,0,0,0,0,0,0,0,0,0,0,0,0,
0,0,0,0,0,0,0,0,0,0,0,0,0,0,0,0,
0,0,0,0,0,0,0,0,0,0,0,0,0,0,0,0,
0,0,0,0,0,0,0,0,0,0,0,0,0,0,0,0,
0,0,0,0,0,0,0,0,0,0,0,0,0,0,0,0,
0,0,0,0,0,0,0,0,0,0,0,0,0,0,0,0,
81,81,81,81,81,81,81,81,81,81,81,81,81,81,81,81,
81,81,81,81,81,81,81,81,81,81,81,81,81,81,81,81,
81,81,81,81,81,81,81,81,81,81,81,81,81,81,81,81,
81,81,81,81,81,81,81,81,81,81,81,81,81,81,81,81,
81,81,81,81,81,81,81,81,81,81,81,81,81,81,81,81,
81,81,81,81,81,81,81,81,81,81,81,81,81,81,81,81,
81,81,81,81,81,81,81,81,81,81,81,81,81,81,81,81,
81,81,81,81,81,81,81,81,81,81,81,81,81,81,81,81
</chunk>
   <chunk x="176" y="32" width="16" height="16">
0,0,0,0,0,0,0,0,0,0,0,0,0,0,0,0,
0,0,0,0,0,0,0,0,0,0,0,0,0,0,0,0,
0,0,0,0,0,0,0,0,0,0,0,0,0,0,0,0,
0,0,0,0,0,0,0,0,0,0,0,0,0,0,0,0,
0,0,0,0,0,0,0,0,0,0,0,0,0,0,0,0,
0,0,0,0,0,0,0,0,0,0,0,0,0,0,0,0,
0,0,0,0,0,0,0,0,0,0,0,0,0,0,0,0,
0,0,0,0,0,0,0,0,0,0,0,0,0,0,0,0,
81,81,81,81,81,81,81,81,81,81,81,81,81,81,81,81,
81,81,81,81,81,81,81,81,81,81,81,81,81,81,81,81,
81,81,81,81,81,81,81,81,81,81,81,81,81,81,81,81,
81,81,81,81,81,81,81,81,81,81,81,81,81,81,81,81,
81,81,81,81,81,81,81,81,81,81,81,81,81,81,81,81,
81,81,81,81,81,81,81,81,81,81,81,81,81,81,81,81,
81,81,81,81,81,81,81,81,81,81,81,81,81,81,81,81,
81,81,81,81,81,81,81,81,81,81,81,81,81,81,81,81
</chunk>
   <chunk x="192" y="32" width="16" height="16">
0,0,0,0,0,0,0,0,0,0,0,0,0,0,0,0,
0,0,0,0,0,0,0,0,0,0,0,0,0,0,0,0,
0,0,0,0,0,0,0,0,0,0,0,0,0,0,0,0,
0,0,0,0,0,0,0,0,0,0,0,0,0,0,0,0,
0,0,0,0,0,0,0,0,0,0,0,0,0,0,0,0,
0,0,0,0,0,0,0,0,0,0,0,0,0,0,0,0,
0,0,0,0,0,0,0,0,0,0,0,0,0,0,0,0,
0,0,0,0,0,0,0,0,0,0,0,0,0,0,0,0,
81,81,81,81,81,81,81,81,0,0,0,0,0,0,0,0,
81,81,81,81,81,81,81,81,0,0,0,0,0,0,0,0,
81,81,81,81,81,81,81,81,0,0,0,0,0,0,0,0,
81,81,81,81,81,81,81,81,0,0,0,0,0,0,0,0,
81,81,81,81,81,81,81,81,0,0,0,0,0,0,0,0,
81,81,81,81,81,81,81,81,0,0,0,0,0,0,0,0,
81,81,81,81,81,81,81,81,0,0,0,0,0,0,0,0,
81,81,81,81,81,81,81,81,0,0,0,0,0,0,0,0
</chunk>
   <chunk x="-32" y="48" width="16" height="16">
0,0,0,0,0,0,0,0,0,0,0,0,81,81,81,81,
0,0,0,0,0,0,0,0,0,0,0,0,81,81,81,81,
0,0,0,0,0,0,0,0,0,0,0,0,0,0,0,0,
0,0,0,0,0,0,0,0,0,0,0,0,0,0,0,0,
0,0,0,0,0,0,0,0,0,0,0,0,0,0,0,0,
0,0,0,0,0,0,0,0,0,0,0,0,0,0,0,0,
0,0,0,0,0,0,0,0,0,0,0,0,0,0,0,0,
0,0,0,0,0,0,0,0,0,0,0,0,0,0,0,0,
0,0,0,0,0,0,0,0,0,0,0,0,0,0,0,0,
0,0,0,0,0,0,0,0,0,0,0,0,0,0,0,0,
0,0,0,0,0,0,0,0,0,0,0,0,0,0,0,0,
0,0,0,0,0,0,0,0,0,0,0,0,0,0,0,0,
0,0,0,0,0,0,0,0,0,0,0,0,0,0,0,0,
0,0,0,0,0,0,0,0,0,0,0,0,0,0,0,0,
0,0,0,0,0,0,0,0,0,0,0,0,0,0,0,0,
0,0,0,0,0,0,0,0,0,0,0,0,0,0,0,0
</chunk>
   <chunk x="-16" y="48" width="16" height="16">
81,81,81,81,81,81,81,81,81,81,81,81,81,81,81,81,
81,81,81,81,81,81,81,81,81,81,81,81,81,81,81,81,
0,0,0,0,0,0,81,81,81,81,81,81,81,81,81,81,
0,0,0,0,0,0,81,81,81,81,81,81,81,81,81,81,
0,0,0,0,0,0,81,81,81,81,81,81,81,81,81,81,
0,0,0,0,0,0,81,81,81,81,81,81,81,81,81,81,
0,0,0,0,0,0,81,81,81,81,81,81,81,81,81,81,
0,0,0,0,0,0,81,81,81,81,81,81,81,81,81,81,
0,0,0,0,0,0,81,81,81,81,81,81,81,81,81,81,
0,0,0,0,0,0,81,81,81,81,81,81,81,81,81,81,
0,0,0,0,0,0,81,81,81,81,81,81,81,81,81,81,
0,0,0,0,0,0,81,81,81,81,81,81,81,81,81,81,
0,0,0,0,0,0,81,81,81,81,81,81,81,81,81,81,
0,0,0,0,0,0,81,81,81,81,81,81,81,81,81,81,
0,0,0,0,0,0,81,81,81,81,81,81,81,81,81,81,
0,0,0,0,0,0,81,81,81,81,81,81,81,81,81,81
</chunk>
   <chunk x="0" y="48" width="16" height="16">
81,81,81,81,81,81,81,81,81,81,81,81,81,81,81,81,
81,81,81,81,81,81,81,81,81,81,81,81,81,81,81,81,
0,0,0,0,0,0,0,0,0,0,0,0,0,0,0,0,
0,0,0,0,0,0,0,0,0,0,0,0,0,0,0,0,
0,0,0,0,0,0,0,0,0,0,0,0,0,0,0,0,
0,0,0,0,0,0,0,0,0,0,0,0,0,0,0,0,
0,0,0,0,0,0,0,0,0,0,0,0,0,0,0,0,
0,0,0,0,0,0,0,0,0,0,0,0,0,0,0,0,
0,0,0,0,0,0,0,0,0,0,0,0,0,0,0,0,
0,0,0,0,0,0,0,0,0,0,0,0,0,0,0,0,
0,0,0,0,0,0,0,0,0,0,0,0,0,0,0,0,
0,0,0,0,0,0,0,0,0,0,0,0,0,0,0,0,
0,0,0,0,0,0,0,0,0,0,0,0,0,0,0,0,
0,0,0,0,0,0,0,0,0,0,0,0,0,0,0,0,
0,0,0,0,0,0,0,0,0,0,0,0,0,0,0,0,
0,0,0,0,0,0,0,0,0,0,0,0,0,0,0,0
</chunk>
   <chunk x="16" y="48" width="16" height="16">
81,81,81,81,0,0,0,0,0,0,0,0,0,0,0,0,
81,81,81,81,0,0,0,0,0,0,0,0,0,0,0,0,
0,0,0,0,0,0,0,0,0,0,0,0,0,0,0,0,
0,0,0,0,0,0,0,0,0,0,0,0,0,0,0,0,
0,0,0,0,0,0,0,0,0,0,0,0,0,0,0,0,
0,0,0,0,0,0,0,0,0,0,0,0,0,0,0,0,
0,0,0,0,0,0,0,0,0,0,0,0,0,0,0,0,
0,0,0,0,0,0,0,0,0,0,0,0,0,0,0,0,
0,0,0,0,0,0,0,0,0,0,0,0,0,0,0,0,
0,0,0,0,0,0,0,0,0,0,0,0,0,0,0,0,
0,0,0,0,0,0,0,0,0,0,0,0,0,0,0,0,
0,0,0,0,0,0,0,0,0,0,0,0,0,0,0,0,
0,0,0,0,0,0,0,0,0,0,0,0,0,0,0,0,
0,0,0,0,0,0,0,0,0,0,0,0,0,0,0,0,
0,0,0,0,0,0,0,0,0,0,0,0,0,0,0,0,
0,0,0,0,0,0,0,0,0,0,0,0,0,0,0,0
</chunk>
   <chunk x="48" y="48" width="16" height="16">
0,0,81,81,81,81,81,81,81,81,81,81,81,81,81,81,
0,0,81,81,81,81,81,81,81,81,81,81,81,81,81,81,
0,0,81,81,81,81,81,81,81,81,81,81,81,81,81,81,
0,0,81,81,81,81,81,81,81,81,81,81,81,81,81,81,
0,0,81,81,81,81,81,81,81,81,81,81,81,81,81,81,
0,0,81,81,81,81,81,81,81,81,81,81,81,81,81,81,
0,0,81,81,81,81,81,81,81,81,81,81,81,81,81,81,
0,0,81,81,81,81,81,81,81,81,81,81,81,81,81,81,
0,0,81,81,81,81,81,81,81,81,81,81,81,81,81,81,
0,0,81,81,81,81,81,81,81,81,81,81,81,81,81,81,
0,0,81,81,81,81,81,81,81,81,81,81,81,81,81,81,
0,0,81,81,81,81,81,81,81,81,81,81,81,81,81,81,
0,0,0,0,0,0,0,0,0,0,0,0,0,0,0,0,
0,0,0,0,0,0,0,0,0,0,0,0,0,0,0,0,
0,0,0,0,0,0,0,0,0,0,0,0,0,0,0,0,
0,0,0,0,0,0,0,0,0,0,0,0,0,0,0,0
</chunk>
   <chunk x="64" y="48" width="16" height="16">
81,81,81,81,81,81,81,81,81,81,81,81,81,81,81,81,
81,81,81,81,81,81,81,81,81,81,81,81,81,81,81,81,
81,81,81,81,81,81,81,81,81,81,81,81,81,81,81,81,
81,81,81,81,81,81,81,81,81,81,81,81,81,81,81,81,
81,81,81,81,81,81,81,81,81,81,81,81,81,81,81,81,
81,81,81,81,81,81,81,81,81,81,81,81,81,81,81,81,
81,81,81,81,81,81,81,81,81,81,81,81,81,81,81,81,
81,81,81,81,81,81,81,81,81,81,81,81,81,81,81,81,
81,81,81,81,81,81,81,81,81,81,81,81,81,81,81,81,
81,81,81,81,81,81,81,81,81,81,81,81,81,81,81,81,
81,81,81,81,81,81,81,81,81,81,81,81,81,81,81,81,
81,81,81,81,81,81,81,81,81,81,81,81,81,81,81,81,
0,0,0,0,0,0,0,0,0,0,0,0,0,0,0,0,
0,0,0,0,0,0,0,0,0,0,0,0,0,0,0,0,
0,0,0,0,0,0,0,0,0,0,0,0,0,0,0,0,
0,0,0,0,0,0,0,0,0,0,0,0,0,0,0,0
</chunk>
   <chunk x="80" y="48" width="16" height="16">
81,81,81,81,81,81,81,81,81,81,81,81,81,81,81,81,
81,81,81,81,81,81,81,81,81,81,81,81,81,81,81,81,
81,81,81,81,81,81,81,81,81,81,81,81,81,81,81,81,
81,81,81,81,81,81,81,81,81,81,81,81,81,81,81,81,
81,81,81,81,81,81,81,81,81,81,81,81,81,81,81,81,
81,81,81,81,81,81,81,81,81,81,81,81,81,81,81,81,
81,81,81,81,81,81,81,81,81,81,81,81,81,81,81,81,
81,81,81,81,81,81,81,81,81,81,81,81,81,81,81,81,
81,81,81,81,81,81,81,81,81,81,81,81,81,81,81,81,
81,81,81,81,81,81,81,81,81,81,81,81,81,81,81,81,
81,81,81,81,81,81,81,81,81,81,81,81,81,81,81,81,
81,81,81,81,81,81,81,81,81,81,81,81,81,81,81,81,
0,0,0,0,0,0,0,0,0,0,0,0,0,0,0,0,
0,0,0,0,0,0,0,0,0,0,0,0,0,0,0,0,
0,0,0,0,0,0,0,0,0,0,0,0,0,0,0,0,
0,0,0,0,0,0,0,0,0,0,0,0,0,0,0,0
</chunk>
   <chunk x="96" y="48" width="16" height="16">
81,81,81,81,81,81,81,81,81,81,81,81,81,81,81,81,
81,81,81,81,81,81,81,81,81,81,81,81,81,81,81,81,
81,81,81,81,81,81,81,81,81,81,81,81,81,81,81,81,
81,81,81,81,81,81,81,81,81,81,81,81,81,81,81,81,
81,81,81,81,81,81,81,81,81,81,81,81,81,81,81,81,
81,81,81,81,81,81,81,81,81,81,81,81,81,81,81,81,
81,81,81,81,81,81,81,81,81,81,81,81,81,81,81,81,
81,81,81,81,81,81,81,81,81,81,81,81,81,81,81,81,
81,81,81,81,81,81,81,81,81,81,81,81,81,81,81,81,
81,81,81,81,81,81,81,81,81,81,81,81,81,81,81,81,
81,81,81,81,81,81,81,81,81,81,81,81,81,81,81,81,
81,81,81,81,81,81,81,81,81,81,81,81,81,81,81,81,
0,0,0,0,0,0,0,0,0,0,0,0,0,0,0,0,
0,0,0,0,0,0,0,0,0,0,0,0,0,0,0,0,
0,0,0,0,0,0,0,0,0,0,0,0,0,0,0,0,
0,0,0,0,0,0,0,0,0,0,0,0,0,0,0,0
</chunk>
   <chunk x="112" y="48" width="16" height="16">
81,81,81,81,81,81,81,81,81,81,81,81,81,81,81,81,
81,81,81,81,81,81,81,81,81,81,81,81,81,81,81,81,
81,81,81,81,81,81,81,81,81,81,81,81,81,81,81,81,
81,81,81,81,81,81,81,81,81,81,81,81,81,81,81,81,
81,81,81,81,81,81,81,81,81,81,81,81,81,81,81,81,
81,81,81,81,81,81,81,81,81,81,81,81,81,81,81,81,
81,81,81,81,81,81,81,81,81,81,81,81,81,81,81,81,
81,81,81,81,81,81,81,81,81,81,81,81,81,81,81,81,
81,81,81,81,81,81,81,81,81,81,81,81,81,81,81,81,
81,81,81,81,81,81,81,81,81,81,81,81,81,81,81,81,
81,81,81,81,81,81,81,81,81,81,81,81,81,81,81,81,
81,81,81,81,81,81,81,81,81,81,81,81,81,81,81,81,
0,0,0,0,0,0,0,0,0,0,0,0,0,0,0,0,
0,0,0,0,0,0,0,0,0,0,0,0,0,0,0,0,
0,0,0,0,0,0,0,0,0,0,0,0,0,0,0,0,
0,0,0,0,0,0,0,0,0,0,0,0,0,0,0,0
</chunk>
   <chunk x="128" y="48" width="16" height="16">
81,81,81,81,81,81,81,81,81,81,81,81,81,81,81,81,
81,81,81,81,81,81,81,81,81,81,81,81,81,81,81,81,
81,81,81,81,81,81,81,81,81,81,81,81,0,0,0,0,
81,81,81,81,81,81,81,81,81,81,81,81,0,0,0,0,
81,81,81,81,81,81,81,81,81,81,81,81,0,0,0,0,
81,81,81,81,81,81,81,81,81,81,81,81,0,0,0,0,
81,81,81,81,81,81,81,81,81,81,81,81,0,0,0,0,
81,81,81,81,81,81,81,81,81,81,81,81,0,0,0,0,
81,81,81,81,81,81,81,81,81,81,81,81,0,0,0,0,
81,81,81,81,81,81,81,81,81,81,81,81,0,0,0,0,
81,81,81,81,81,81,81,81,81,81,81,81,0,0,0,0,
81,81,81,81,81,81,81,81,81,81,81,81,0,0,0,0,
0,0,0,0,0,0,0,0,0,0,0,0,0,0,0,0,
0,0,0,0,0,0,0,0,0,0,0,0,0,0,0,0,
0,0,0,0,0,0,0,0,0,0,0,0,0,0,0,0,
0,0,0,0,0,0,0,0,0,0,0,0,0,0,0,0
</chunk>
   <chunk x="144" y="48" width="16" height="16">
81,81,81,81,81,81,81,81,81,81,81,81,81,81,81,81,
81,81,81,81,81,81,81,81,81,81,81,81,81,81,81,81,
0,0,0,0,0,0,0,0,0,0,0,0,0,0,0,0,
0,0,0,0,0,0,0,0,0,0,0,0,0,0,0,0,
0,0,0,0,0,0,0,0,0,0,0,0,0,0,0,0,
0,0,0,0,0,0,0,0,0,0,0,0,0,0,0,0,
0,0,0,0,0,0,0,0,0,0,0,0,0,0,0,0,
0,0,0,0,0,0,0,0,0,0,0,0,0,0,0,0,
0,0,0,0,0,0,0,0,0,0,0,0,0,0,0,0,
0,0,0,0,0,0,0,0,0,0,0,0,0,0,0,0,
0,0,0,0,0,0,0,0,0,0,0,0,0,0,0,0,
0,0,0,0,0,0,0,0,0,0,0,0,0,0,0,0,
0,0,0,0,0,0,0,0,0,0,0,0,0,0,0,0,
0,0,0,0,0,0,0,0,0,0,0,0,0,0,0,0,
0,0,0,0,0,0,0,0,0,0,0,0,0,0,0,0,
0,0,0,0,0,0,0,0,0,0,0,0,0,0,0,0
</chunk>
   <chunk x="160" y="48" width="16" height="16">
81,81,81,81,81,81,81,81,81,81,81,81,81,81,81,81,
81,81,81,81,81,81,81,81,81,81,81,81,81,81,81,81,
0,0,0,0,0,0,0,0,0,0,81,81,81,81,81,81,
0,0,0,0,0,0,0,0,0,0,81,81,81,81,81,81,
0,0,0,0,0,0,0,0,0,0,81,81,81,81,81,81,
0,0,0,0,0,0,0,0,0,0,81,81,81,81,81,81,
0,0,0,0,0,0,0,0,0,0,81,81,81,81,81,81,
0,0,0,0,0,0,0,0,0,0,81,81,81,81,81,81,
0,0,0,0,0,0,0,0,0,0,81,81,81,81,81,81,
0,0,0,0,0,0,0,0,0,0,81,81,81,81,81,81,
0,0,0,0,0,0,0,0,0,0,81,81,81,81,81,81,
0,0,0,0,0,0,0,0,0,0,81,81,81,81,81,81,
0,0,0,0,0,0,0,0,0,0,81,81,81,81,81,81,
0,0,0,0,0,0,0,0,0,0,81,81,81,81,81,81,
0,0,0,0,0,0,0,0,0,0,81,81,81,81,81,81,
0,0,0,0,0,0,0,0,0,0,81,81,81,81,81,81
</chunk>
   <chunk x="176" y="48" width="16" height="16">
81,81,81,81,81,81,81,81,81,81,81,81,81,81,81,81,
81,81,81,81,81,81,81,81,81,81,81,81,81,81,81,81,
81,81,81,81,81,81,81,81,81,81,81,81,81,81,81,81,
81,81,81,81,81,81,81,81,81,81,81,81,81,81,81,81,
81,81,81,81,81,81,81,81,81,81,81,81,81,81,81,81,
81,81,81,81,81,81,81,81,81,81,81,81,81,81,81,81,
81,81,81,81,81,81,81,81,81,81,81,81,81,81,81,81,
81,81,81,81,81,81,81,81,81,81,81,81,81,81,81,81,
81,81,81,81,81,81,81,81,81,81,81,81,81,81,81,81,
81,81,81,81,81,81,81,81,81,81,81,81,81,81,81,81,
81,81,81,81,81,81,81,81,81,81,81,81,81,81,81,81,
81,81,81,81,81,81,81,81,81,81,81,81,81,81,81,81,
81,81,81,81,81,81,81,81,81,81,81,81,81,81,81,81,
81,81,81,81,81,81,81,81,81,81,81,81,81,81,81,81,
81,81,81,81,81,81,81,81,81,81,81,81,81,81,81,81,
81,81,81,81,81,81,81,81,81,81,81,81,81,81,81,81
</chunk>
   <chunk x="192" y="48" width="16" height="16">
81,81,81,81,81,81,81,81,0,0,0,0,0,0,0,0,
81,81,81,81,81,81,81,81,0,0,0,0,0,0,0,0,
81,81,81,81,81,81,81,81,0,0,0,0,0,0,0,0,
81,81,81,81,81,81,81,81,0,0,0,0,0,0,0,0,
81,81,81,81,81,81,81,81,0,0,0,0,0,0,0,0,
81,81,81,81,81,81,81,81,0,0,0,0,0,0,0,0,
81,81,81,81,81,81,81,81,0,0,0,0,0,0,0,0,
81,81,81,81,81,81,81,81,0,0,0,0,0,0,0,0,
81,81,81,81,81,81,81,81,0,0,0,0,0,0,0,0,
81,81,81,81,81,81,81,81,0,0,0,0,0,0,0,0,
81,81,81,81,81,81,81,81,0,0,0,0,0,0,0,0,
81,81,81,81,81,81,81,81,0,0,0,0,0,0,0,0,
81,81,81,81,81,81,81,81,0,0,0,0,0,0,0,0,
81,81,81,81,81,81,81,81,0,0,0,0,0,0,0,0,
81,81,81,81,81,81,81,81,0,0,0,0,0,0,0,0,
81,81,81,81,81,81,81,81,0,0,0,0,0,0,0,0
</chunk>
   <chunk x="-16" y="64" width="16" height="16">
0,0,0,0,0,0,81,81,81,81,81,81,81,81,81,81,
0,0,0,0,0,0,81,81,81,81,81,81,81,81,81,81,
0,0,0,0,0,0,81,81,81,81,81,81,81,81,81,81,
0,0,0,0,0,0,81,81,81,81,81,81,81,81,81,81,
0,0,0,0,0,0,81,81,81,81,81,81,81,81,81,81,
0,0,0,0,0,0,81,81,81,81,81,81,81,81,81,81,
0,0,0,0,0,0,81,81,81,81,81,81,81,81,81,81,
0,0,0,0,0,0,81,81,81,81,81,81,81,81,81,81,
0,0,0,0,0,0,81,81,81,81,81,81,81,81,81,81,
0,0,0,0,0,0,81,81,81,81,81,81,81,81,81,81,
0,0,0,0,0,0,81,81,81,81,81,81,81,81,81,81,
0,0,0,0,0,0,81,81,81,81,81,81,81,81,81,81,
0,0,0,0,0,0,81,81,81,81,81,81,81,81,81,81,
0,0,0,0,0,0,81,81,81,81,81,81,81,81,81,81,
0,0,0,0,0,0,81,81,81,81,81,81,81,81,81,81,
0,0,0,0,0,0,81,81,81,81,81,81,81,81,81,81
</chunk>
   <chunk x="160" y="64" width="16" height="16">
0,0,0,0,0,0,0,0,0,0,81,81,81,81,81,81,
0,0,0,0,0,0,0,0,0,0,81,81,81,81,81,81,
0,0,0,0,0,0,0,0,0,0,81,81,81,81,81,81,
0,0,0,0,0,0,0,0,0,0,81,81,81,81,81,81,
0,0,0,0,0,0,0,0,0,0,81,81,81,81,81,81,
0,0,0,0,0,0,0,0,0,0,81,81,81,81,81,81,
0,0,0,0,0,0,0,0,0,0,81,81,81,81,81,81,
0,0,0,0,0,0,0,0,0,0,81,81,81,81,81,81,
0,0,0,0,0,0,0,0,0,0,81,81,81,81,81,81,
0,0,0,0,0,0,0,0,0,0,81,81,81,81,81,81,
0,0,0,0,0,0,0,0,0,0,81,81,81,81,81,81,
0,0,0,0,0,0,0,0,0,0,81,81,81,81,81,81,
0,0,0,0,0,0,0,0,0,0,81,81,81,81,81,81,
0,0,0,0,0,0,0,0,0,0,81,81,81,81,81,81,
0,0,0,0,0,0,0,0,0,0,81,81,81,81,81,81,
0,0,0,0,0,0,0,0,0,0,81,81,81,81,81,81
</chunk>
   <chunk x="176" y="64" width="16" height="16">
81,81,81,81,81,81,81,81,81,81,81,81,81,81,81,81,
81,81,81,81,81,81,81,81,81,81,81,81,81,81,81,81,
81,81,81,81,81,81,81,81,81,81,81,81,81,81,81,81,
81,81,81,81,81,81,81,81,81,81,81,81,81,81,81,81,
81,81,81,81,81,81,81,81,81,81,81,81,81,81,81,81,
81,81,81,81,81,81,81,81,81,81,81,81,81,81,81,81,
81,81,81,81,0,0,0,0,0,0,0,0,0,0,0,0,
81,81,81,81,0,0,0,0,0,0,0,0,0,0,0,0,
81,81,81,81,0,0,0,0,0,0,0,0,0,0,0,0,
81,81,81,81,0,0,0,0,0,0,0,0,0,0,0,0,
81,81,81,81,0,0,0,0,0,0,0,0,0,0,0,0,
81,81,81,81,0,0,0,0,0,0,0,0,0,0,0,0,
81,81,81,81,0,0,0,0,0,0,0,0,0,0,0,0,
81,81,81,81,0,0,0,0,0,0,0,0,0,0,0,0,
81,81,81,81,0,0,0,0,0,0,0,0,0,0,0,0,
81,81,81,81,0,0,0,0,0,0,0,0,0,0,0,0
</chunk>
   <chunk x="192" y="64" width="16" height="16">
81,81,81,81,81,81,81,81,0,0,0,0,0,0,0,0,
81,81,81,81,81,81,81,81,0,0,0,0,0,0,0,0,
81,81,81,81,81,81,81,81,0,0,0,0,0,0,0,0,
81,81,81,81,81,81,81,81,0,0,0,0,0,0,0,0,
81,81,81,81,81,81,81,81,0,0,0,0,0,0,0,0,
81,81,81,81,81,81,81,81,0,0,0,0,0,0,0,0,
0,0,0,0,0,0,0,0,0,0,0,0,0,0,0,0,
0,0,0,0,0,0,0,0,0,0,0,0,0,0,0,0,
0,0,0,0,0,0,0,0,0,0,0,0,0,0,0,0,
0,0,0,0,0,0,0,0,0,0,0,0,0,0,0,0,
0,0,0,0,0,0,0,0,0,0,0,0,0,0,0,0,
0,0,0,0,0,0,0,0,0,0,0,0,0,0,0,0,
0,0,0,0,0,0,0,0,0,0,0,0,0,0,0,0,
0,0,0,0,0,0,0,0,0,0,0,0,0,0,0,0,
0,0,0,0,0,0,0,0,0,0,0,0,0,0,0,0,
0,0,0,0,0,0,0,0,0,0,0,0,0,0,0,0
</chunk>
   <chunk x="-64" y="80" width="16" height="16">
0,0,0,0,81,81,81,81,81,81,81,81,81,81,81,81,
0,0,0,0,81,81,81,81,81,81,81,81,81,81,81,81,
0,0,0,0,81,81,81,81,81,81,81,81,81,81,81,81,
0,0,0,0,81,81,81,81,81,81,81,81,81,81,81,81,
0,0,0,0,81,81,81,81,81,81,81,81,81,81,81,81,
0,0,0,0,81,81,81,81,81,81,81,81,81,81,81,81,
0,0,0,0,81,81,81,81,81,81,81,81,81,81,81,81,
0,0,0,0,81,81,81,81,81,81,81,81,81,81,81,81,
0,0,0,0,81,81,81,81,81,81,81,81,81,81,81,81,
0,0,0,0,81,81,81,81,81,81,81,81,81,81,81,81,
0,0,0,0,81,81,81,81,81,81,81,81,81,81,81,81,
0,0,0,0,81,81,81,81,81,81,81,81,81,81,81,81,
0,0,0,0,81,81,81,81,81,81,81,81,81,81,81,81,
0,0,0,0,81,81,81,81,81,81,81,81,81,81,81,81,
0,0,0,0,81,81,81,81,81,81,81,81,81,81,81,81,
0,0,0,0,81,81,81,81,81,81,81,81,81,81,81,81
</chunk>
   <chunk x="-48" y="80" width="16" height="16">
81,81,81,81,81,81,81,81,81,81,81,81,81,81,81,81,
81,81,81,81,81,81,81,81,81,81,81,81,81,81,81,81,
81,81,81,81,81,81,81,81,81,81,81,81,81,81,81,81,
81,81,81,81,81,81,81,81,81,81,81,81,81,81,81,81,
81,81,81,81,81,81,81,81,81,81,81,81,81,81,81,81,
81,81,81,81,81,81,81,81,81,81,81,81,81,81,81,81,
81,81,81,81,81,81,81,81,81,81,81,81,81,81,81,81,
81,81,81,81,81,81,81,81,81,81,81,81,81,81,81,81,
81,81,81,81,81,81,81,81,81,81,81,81,81,81,81,81,
81,81,81,81,81,81,81,81,81,81,81,81,81,81,81,81,
81,81,81,81,81,81,81,81,81,81,81,81,81,81,81,81,
81,81,81,81,81,81,81,81,81,81,81,81,81,81,81,81,
81,81,81,81,81,81,81,81,81,81,81,81,81,81,81,81,
81,81,81,81,81,81,81,81,81,81,81,81,81,81,81,81,
81,81,81,81,81,81,81,81,81,81,81,81,81,81,81,81,
81,81,81,81,81,81,81,81,81,81,81,81,81,81,81,81
</chunk>
   <chunk x="-32" y="80" width="16" height="16">
81,81,81,81,81,81,81,81,81,81,81,81,0,0,0,0,
81,81,81,81,81,81,81,81,81,81,81,81,0,0,0,0,
81,81,81,81,81,81,81,81,81,81,81,81,0,0,0,0,
81,81,81,81,81,81,81,81,81,81,81,81,0,0,0,0,
81,81,81,81,81,81,81,81,81,81,81,81,0,0,0,0,
81,81,81,81,81,81,81,81,81,81,81,81,0,0,0,0,
81,81,81,81,81,81,81,81,81,81,81,81,0,0,0,0,
81,81,81,81,81,81,81,81,81,81,81,81,0,0,0,0,
81,81,81,81,81,81,81,81,81,81,81,81,0,0,0,0,
81,81,81,81,81,81,81,81,81,81,81,81,0,0,0,0,
81,81,81,81,81,81,81,81,81,81,81,81,81,81,81,81,
81,81,81,81,81,81,81,81,81,81,81,81,81,81,81,81,
81,81,81,81,81,81,81,81,81,81,81,81,81,81,81,81,
81,81,81,81,81,81,81,81,81,81,81,81,81,81,81,81,
81,81,81,81,81,81,81,81,81,81,81,81,81,81,81,81,
81,81,81,81,81,81,81,81,81,81,81,81,81,81,81,81
</chunk>
   <chunk x="-16" y="80" width="16" height="16">
0,0,0,0,0,0,81,81,81,81,81,81,81,81,81,81,
0,0,0,0,0,0,81,81,81,81,81,81,81,81,81,81,
0,0,0,0,0,0,81,81,81,81,81,81,81,81,81,81,
0,0,0,0,0,0,81,81,81,81,81,81,81,81,81,81,
0,0,0,0,0,0,81,81,81,81,81,81,81,81,81,81,
0,0,0,0,0,0,81,81,81,81,81,81,81,81,81,81,
0,0,0,0,0,0,81,81,81,81,81,81,81,81,81,81,
0,0,0,0,0,0,81,81,81,81,81,81,81,81,81,81,
0,0,0,0,0,0,81,81,81,81,81,81,81,81,81,81,
0,0,0,0,0,0,81,81,81,81,81,81,81,81,81,81,
81,81,81,81,81,81,81,81,81,81,81,81,81,81,81,81,
81,81,81,81,81,81,81,81,81,81,81,81,81,81,81,81,
81,81,81,81,81,81,81,81,81,81,81,81,81,81,81,81,
81,81,81,81,81,81,81,81,81,81,81,81,81,81,81,81,
81,81,81,81,81,81,81,81,81,81,81,81,81,81,81,81,
81,81,81,81,81,81,81,81,81,81,81,81,81,81,81,81
</chunk>
   <chunk x="160" y="80" width="16" height="16">
0,0,0,0,0,0,0,0,0,0,81,81,81,81,81,81,
0,0,0,0,0,0,0,0,0,0,81,81,81,81,81,81,
0,0,0,0,0,0,0,0,0,0,81,81,81,81,81,81,
0,0,0,0,0,0,0,0,0,0,81,81,81,81,81,81,
0,0,0,0,0,0,0,0,0,0,81,81,81,81,81,81,
0,0,0,0,0,0,0,0,0,0,81,81,81,81,81,81,
0,0,0,0,0,0,0,0,0,0,81,81,81,81,81,81,
0,0,0,0,0,0,0,0,0,0,81,81,81,81,81,81,
0,0,0,0,0,0,0,0,0,0,81,81,81,81,81,81,
0,0,0,0,0,0,0,0,0,0,81,81,81,81,81,81,
0,0,0,0,0,0,0,0,0,0,81,81,81,81,81,81,
0,0,0,0,0,0,0,0,0,0,81,81,81,81,81,81,
0,0,0,0,0,0,0,0,0,0,81,81,81,81,81,81,
0,0,0,0,0,0,0,0,0,0,81,81,81,81,81,81,
0,0,0,0,0,0,0,0,0,0,81,81,81,81,81,81,
0,0,0,0,0,0,0,0,0,0,81,81,81,81,81,81
</chunk>
   <chunk x="176" y="80" width="16" height="16">
81,81,81,81,0,0,0,0,0,0,0,0,0,0,0,0,
81,81,81,81,0,0,0,0,0,0,0,0,0,0,0,0,
81,81,81,81,0,0,0,0,0,0,0,0,0,0,0,0,
81,81,81,81,0,0,0,0,0,0,0,0,0,0,0,0,
81,81,81,81,0,0,0,0,0,0,0,0,0,0,0,0,
81,81,81,81,0,0,0,0,0,0,0,0,0,0,0,0,
81,81,81,81,0,0,0,0,0,0,0,0,0,0,0,0,
81,81,81,81,0,0,0,0,0,0,0,0,0,0,0,0,
81,81,81,81,0,0,0,0,0,0,0,0,0,0,0,0,
81,81,81,81,0,0,0,0,0,0,0,0,0,0,0,0,
81,81,81,81,0,0,0,0,0,0,0,0,0,0,0,0,
81,81,81,81,0,0,0,0,0,0,0,0,0,0,0,0,
81,81,81,81,0,0,0,0,0,0,0,0,0,0,0,0,
81,81,81,81,0,0,0,0,0,0,0,0,0,0,0,0,
81,81,81,81,0,0,0,0,0,0,0,0,0,0,0,0,
81,81,81,81,0,0,0,0,0,0,0,0,0,0,0,0
</chunk>
   <chunk x="-64" y="96" width="16" height="16">
0,0,0,0,81,81,81,81,81,81,81,81,81,81,81,81,
0,0,0,0,81,81,81,81,81,81,81,81,81,81,81,81,
0,0,0,0,81,81,81,81,81,81,81,81,81,81,81,81,
0,0,0,0,81,81,81,81,81,81,81,81,81,81,81,81,
0,0,0,0,81,81,81,81,81,81,81,81,81,81,81,81,
0,0,0,0,81,81,81,81,81,81,81,81,81,81,81,81,
0,0,0,0,81,81,81,81,81,81,81,81,81,81,81,81,
0,0,0,0,81,81,81,81,81,81,81,81,81,81,81,81,
0,0,0,0,81,81,81,81,81,81,81,81,81,81,81,81,
0,0,0,0,81,81,81,81,81,81,81,81,81,81,81,81,
0,0,0,0,81,81,81,81,81,81,81,81,81,81,81,81,
0,0,0,0,81,81,81,81,81,81,81,81,81,81,81,81,
0,0,0,0,81,81,81,81,81,81,81,81,81,81,81,81,
0,0,0,0,81,81,81,81,81,81,81,81,81,81,81,81,
0,0,0,0,81,81,81,81,81,81,81,81,81,81,81,81,
0,0,0,0,81,81,81,81,81,81,81,81,81,81,81,81
</chunk>
   <chunk x="-48" y="96" width="16" height="16">
81,81,81,81,81,81,81,81,81,81,81,81,81,81,81,81,
81,81,81,81,81,81,81,81,81,81,81,81,81,81,81,81,
81,81,81,81,81,81,81,81,81,81,81,81,81,81,81,81,
81,81,81,81,81,81,81,81,81,81,81,81,81,81,81,81,
81,81,81,81,81,81,81,81,81,81,81,81,81,81,81,81,
81,81,81,81,81,81,81,81,81,81,81,81,81,81,81,81,
81,81,81,81,81,81,81,81,81,81,81,81,81,81,81,81,
81,81,81,81,81,81,81,81,81,81,81,81,81,81,81,81,
81,81,81,81,81,81,81,81,81,81,81,81,81,81,81,81,
81,81,81,81,81,81,81,81,81,81,81,81,81,81,81,81,
81,81,81,81,81,81,81,81,81,81,81,81,81,81,81,81,
81,81,81,81,81,81,81,81,81,81,81,81,81,81,81,81,
81,81,81,81,81,81,81,81,81,81,81,81,81,81,81,81,
81,81,81,81,81,81,81,81,81,81,81,81,81,81,81,81,
81,81,81,81,81,81,81,81,81,81,81,81,81,81,81,81,
81,81,81,81,81,81,81,81,81,81,81,81,81,81,81,81
</chunk>
   <chunk x="-32" y="96" width="16" height="16">
81,81,81,81,81,81,81,81,81,81,81,81,81,81,81,81,
81,81,81,81,81,81,81,81,81,81,81,81,81,81,81,81,
81,81,81,81,81,81,81,81,81,81,81,81,81,81,81,81,
81,81,81,81,81,81,81,81,81,81,81,81,81,81,81,81,
81,81,81,81,81,81,81,81,81,81,81,81,0,0,0,0,
81,81,81,81,81,81,81,81,81,81,81,81,0,0,0,0,
81,81,81,81,81,81,81,81,81,81,81,81,0,0,0,0,
81,81,81,81,81,81,81,81,81,81,81,81,0,0,0,0,
81,81,81,81,81,81,81,81,81,81,81,81,0,0,0,0,
81,81,81,81,81,81,81,81,81,81,81,81,0,0,0,0,
81,81,81,81,81,81,81,81,81,81,81,81,0,0,0,0,
81,81,81,81,81,81,81,81,81,81,81,81,0,0,0,0,
81,81,81,81,81,81,81,81,81,81,81,81,0,0,0,0,
81,81,81,81,81,81,81,81,81,81,81,81,0,0,0,0,
81,81,81,81,81,81,81,81,81,81,81,81,0,0,0,0,
81,81,81,81,81,81,81,81,81,81,81,81,0,0,0,0
</chunk>
   <chunk x="-16" y="96" width="16" height="16">
81,81,81,81,81,81,81,81,81,81,81,81,81,81,81,81,
81,81,81,81,81,81,81,81,81,81,81,81,81,81,81,81,
81,81,81,81,81,81,81,81,81,81,81,81,81,81,81,81,
81,81,81,81,81,81,81,81,81,81,81,81,81,81,81,81,
0,0,0,0,0,0,0,0,0,0,0,0,0,0,0,0,
0,0,0,0,0,0,0,0,0,0,0,0,0,0,0,0,
0,0,0,0,0,0,0,0,0,0,0,0,0,0,0,0,
0,0,0,0,0,0,0,0,0,0,0,0,0,0,0,0,
0,0,0,0,0,0,0,0,0,0,0,0,0,0,0,0,
0,0,0,0,0,0,0,0,0,0,0,0,0,0,0,0,
0,0,0,0,0,0,0,0,0,0,0,0,0,0,0,0,
0,0,0,0,0,0,0,0,0,0,0,0,0,0,0,0,
0,0,0,0,0,0,0,0,0,0,0,0,0,0,0,0,
0,0,0,0,0,0,0,0,0,0,0,0,0,0,0,0,
0,0,0,0,0,0,0,0,0,0,0,0,0,0,0,0,
0,0,0,0,0,0,0,0,0,0,0,0,0,0,0,0
</chunk>
   <chunk x="16" y="96" width="16" height="16">
0,0,0,0,0,0,0,0,0,0,0,0,0,0,0,0,
0,0,0,0,0,0,0,0,0,0,0,0,0,0,0,0,
0,0,0,0,0,0,0,0,0,0,0,0,0,0,0,0,
0,0,0,0,0,0,0,0,0,0,0,0,0,0,0,0,
0,0,0,0,0,0,0,0,0,0,0,0,0,0,0,0,
0,0,0,0,0,0,0,0,0,0,0,0,0,0,0,0,
0,0,0,0,0,0,0,0,0,0,0,0,0,0,0,0,
0,0,0,0,0,0,0,0,0,0,0,0,0,0,0,0,
0,0,0,0,0,0,0,0,0,0,0,0,0,0,0,0,
0,0,0,0,0,0,0,0,0,0,0,0,0,0,0,0,
0,0,0,0,0,0,0,0,0,0,0,0,0,0,0,0,
0,0,0,0,0,0,0,0,0,0,0,0,0,0,0,0,
0,0,0,0,0,0,0,0,0,0,0,0,0,0,0,0,
0,0,0,0,0,0,0,0,0,0,0,0,0,0,0,0,
0,0,0,0,0,0,0,0,0,0,0,0,0,0,81,81,
0,0,0,0,0,0,0,0,0,0,0,0,0,0,81,81
</chunk>
   <chunk x="32" y="96" width="16" height="16">
0,0,0,0,0,0,0,0,0,0,0,0,0,0,0,0,
0,0,0,0,0,0,0,0,0,0,0,0,0,0,0,0,
0,0,0,0,0,0,0,0,0,0,0,0,0,0,0,0,
0,0,0,0,0,0,0,0,0,0,0,0,0,0,0,0,
0,0,0,0,0,0,0,0,0,0,0,0,0,0,0,0,
0,0,0,0,0,0,0,0,0,0,0,0,0,0,0,0,
0,0,0,0,0,0,0,0,0,0,0,0,0,0,0,0,
0,0,0,0,0,0,0,0,0,0,0,0,0,0,0,0,
0,0,0,0,0,0,0,0,0,0,0,0,0,0,0,0,
0,0,0,0,0,0,0,0,0,0,0,0,0,0,0,0,
0,0,0,0,0,0,0,0,0,0,0,0,0,0,0,0,
0,0,0,0,0,0,0,0,0,0,0,0,0,0,0,0,
0,0,0,0,0,0,0,0,0,0,0,0,0,0,0,0,
0,0,0,0,0,0,0,0,0,0,0,0,0,0,0,0,
81,81,81,81,81,81,81,81,81,81,81,81,81,81,81,81,
81,81,81,81,81,81,81,81,81,81,81,81,81,81,81,81
</chunk>
   <chunk x="48" y="96" width="16" height="16">
0,0,0,0,0,0,0,0,0,0,0,0,0,0,0,0,
0,0,0,0,0,0,0,0,0,0,0,0,0,0,0,0,
0,0,0,0,0,0,0,0,0,0,0,0,0,0,0,0,
0,0,0,0,0,0,0,0,0,0,0,0,0,0,0,0,
0,0,0,0,0,0,0,0,0,0,0,0,0,0,0,0,
0,0,0,0,0,0,0,0,0,0,0,0,0,0,0,0,
0,0,0,0,0,0,0,0,0,0,0,0,0,0,0,0,
0,0,0,0,0,0,0,0,0,0,0,0,0,0,0,0,
0,0,0,0,0,0,0,0,0,0,0,0,0,0,0,0,
0,0,0,0,0,0,0,0,0,0,0,0,0,0,0,0,
0,0,0,0,0,0,0,0,0,0,0,0,0,0,0,0,
0,0,0,0,0,0,0,0,0,0,0,0,0,0,0,0,
0,0,0,0,0,0,0,0,0,0,0,0,0,0,0,0,
0,0,0,0,0,0,0,0,0,0,0,0,0,0,0,0,
81,81,81,81,81,81,81,81,81,81,81,81,81,81,81,81,
81,81,81,81,81,81,81,81,81,81,81,81,81,81,81,81
</chunk>
   <chunk x="64" y="96" width="16" height="16">
0,0,0,0,0,0,0,0,0,0,0,0,0,0,0,0,
0,0,0,0,0,0,0,0,0,0,0,0,0,0,0,0,
0,0,0,0,0,0,0,0,0,0,0,0,0,0,0,0,
0,0,0,0,0,0,0,0,0,0,0,0,0,0,0,0,
0,0,0,0,0,0,0,0,0,0,0,0,0,0,0,0,
0,0,0,0,0,0,0,0,0,0,0,0,0,0,0,0,
0,0,0,0,0,0,0,0,0,0,0,0,0,0,0,0,
0,0,0,0,0,0,0,0,0,0,0,0,0,0,0,0,
0,0,0,0,0,0,0,0,0,0,0,0,0,0,0,0,
0,0,0,0,0,0,0,0,0,0,0,0,0,0,0,0,
0,0,0,0,0,0,0,0,0,0,0,0,0,0,0,0,
0,0,0,0,0,0,0,0,0,0,0,0,0,0,0,0,
0,0,0,0,0,0,0,0,0,0,0,0,0,0,0,0,
0,0,0,0,0,0,0,0,0,0,0,0,0,0,0,0,
81,81,81,81,81,81,0,0,0,0,0,0,0,0,0,0,
81,81,81,81,81,81,0,0,0,0,0,0,0,0,0,0
</chunk>
   <chunk x="160" y="96" width="16" height="16">
0,0,0,0,0,0,0,0,0,0,81,81,81,81,81,81,
0,0,0,0,0,0,0,0,0,0,81,81,81,81,81,81,
0,0,0,0,0,0,0,0,0,0,81,81,81,81,81,81,
0,0,0,0,0,0,0,0,0,0,81,81,81,81,81,81,
0,0,0,0,0,0,0,0,0,0,81,81,81,81,81,81,
0,0,0,0,0,0,0,0,0,0,81,81,81,81,81,81,
0,0,0,0,0,0,0,0,0,0,81,81,81,81,81,81,
0,0,0,0,0,0,0,0,0,0,81,81,81,81,81,81,
0,0,0,0,0,0,0,0,0,0,81,81,81,81,81,81,
0,0,0,0,0,0,0,0,0,0,81,81,81,81,81,81,
0,0,0,0,0,0,0,0,0,0,81,81,81,81,81,81,
0,0,0,0,0,0,0,0,0,0,81,81,81,81,81,81,
0,0,0,0,0,0,0,0,0,0,81,81,81,81,81,81,
0,0,0,0,0,0,0,0,0,0,81,81,81,81,81,81,
81,81,81,81,81,81,81,81,81,81,81,81,81,81,81,81,
81,81,81,81,81,81,81,81,81,81,81,81,81,81,81,81
</chunk>
   <chunk x="176" y="96" width="16" height="16">
81,81,81,81,0,0,0,0,0,0,0,0,0,0,0,0,
81,81,81,81,0,0,0,0,0,0,0,0,0,0,0,0,
81,81,81,81,0,0,0,0,0,0,0,0,0,0,0,0,
81,81,81,81,0,0,0,0,0,0,0,0,0,0,0,0,
81,81,81,81,0,0,0,0,0,0,0,0,0,0,0,0,
81,81,81,81,0,0,0,0,0,0,0,0,0,0,0,0,
81,81,81,81,0,0,0,0,0,0,0,0,0,0,0,0,
81,81,81,81,0,0,0,0,0,0,0,0,0,0,0,0,
81,81,81,81,0,0,0,0,0,0,0,0,0,0,0,0,
81,81,81,81,0,0,0,0,0,0,0,0,0,0,0,0,
81,81,81,81,0,0,0,0,0,0,0,0,0,0,0,0,
81,81,81,81,0,0,0,0,0,0,0,0,0,0,0,0,
81,81,81,81,0,0,0,0,0,0,0,0,0,0,0,0,
81,81,81,81,0,0,0,0,0,0,0,0,0,0,0,0,
81,81,81,81,0,0,0,0,0,0,0,0,0,0,0,0,
81,81,81,81,0,0,0,0,0,0,0,0,0,0,0,0
</chunk>
   <chunk x="-64" y="112" width="16" height="16">
0,0,0,0,81,81,81,81,81,81,81,81,81,81,81,81,
0,0,0,0,81,81,81,81,81,81,81,81,81,81,81,81,
0,0,0,0,81,81,81,81,81,81,81,81,81,81,81,81,
0,0,0,0,81,81,81,81,81,81,81,81,81,81,81,81,
0,0,0,0,81,81,81,81,81,81,81,81,81,81,81,81,
0,0,0,0,81,81,81,81,81,81,81,81,81,81,81,81,
0,0,0,0,81,81,81,81,81,81,81,81,81,81,81,81,
0,0,0,0,81,81,81,81,81,81,81,81,81,81,81,81,
0,0,0,0,0,0,0,0,0,0,0,0,0,0,0,0,
0,0,0,0,0,0,0,0,0,0,0,0,0,0,0,0,
0,0,0,0,0,0,0,0,0,0,0,0,0,0,0,0,
0,0,0,0,0,0,0,0,0,0,0,0,0,0,0,0,
0,0,0,0,0,0,0,0,0,0,0,0,0,0,0,0,
0,0,0,0,0,0,0,0,0,0,0,0,0,0,0,0,
0,0,0,0,0,0,0,0,0,0,0,0,0,0,0,0,
0,0,0,0,0,0,0,0,0,0,0,0,0,0,0,0
</chunk>
   <chunk x="-48" y="112" width="16" height="16">
81,81,81,81,81,81,81,81,81,81,81,81,81,81,81,81,
81,81,81,81,81,81,81,81,81,81,81,81,81,81,81,81,
81,81,81,81,81,81,81,81,81,81,81,81,81,81,81,81,
81,81,81,81,81,81,81,81,81,81,81,81,81,81,81,81,
81,81,81,81,81,81,81,81,81,81,81,81,81,81,81,81,
81,81,81,81,81,81,81,81,81,81,81,81,81,81,81,81,
81,81,81,81,81,81,81,81,81,81,81,81,81,81,81,81,
81,81,81,81,81,81,81,81,81,81,81,81,81,81,81,81,
0,0,0,0,0,0,0,0,81,81,81,81,81,81,81,81,
0,0,0,0,0,0,0,0,81,81,81,81,81,81,81,81,
0,0,0,0,0,0,0,0,81,81,81,81,81,81,81,81,
0,0,0,0,0,0,0,0,81,81,81,81,81,81,81,81,
0,0,0,0,0,0,0,0,81,81,81,81,81,81,81,81,
0,0,0,0,0,0,0,0,81,81,81,81,81,81,81,81,
0,0,0,0,0,0,0,0,81,81,81,81,81,81,81,81,
0,0,0,0,0,0,0,0,81,81,81,81,81,81,81,81
</chunk>
   <chunk x="-32" y="112" width="16" height="16">
81,81,81,81,81,81,81,81,81,81,81,81,0,0,0,0,
81,81,81,81,81,81,81,81,81,81,81,81,0,0,0,0,
81,81,81,81,81,81,81,81,81,81,81,81,0,0,0,0,
81,81,81,81,81,81,81,81,81,81,81,81,0,0,0,0,
81,81,81,81,81,81,81,81,81,81,81,81,0,0,0,0,
81,81,81,81,81,81,81,81,81,81,81,81,0,0,0,0,
81,81,81,81,81,81,81,81,81,81,81,81,0,0,0,0,
81,81,81,81,81,81,81,81,81,81,81,81,0,0,0,0,
81,81,81,81,81,81,81,81,81,81,81,81,81,81,81,81,
81,81,81,81,81,81,81,81,81,81,81,81,81,81,81,81,
81,81,81,81,81,81,81,81,81,81,81,81,81,81,81,81,
81,81,81,81,81,81,81,81,81,81,81,81,81,81,81,81,
81,81,81,81,81,81,81,81,81,81,81,81,81,81,81,81,
81,81,81,81,81,81,81,81,81,81,81,81,81,81,81,81,
81,81,81,81,81,81,81,81,81,81,81,81,81,81,81,81,
81,81,81,81,81,81,81,81,81,81,81,81,81,81,81,81
</chunk>
   <chunk x="-16" y="112" width="16" height="16">
0,0,0,0,0,0,0,0,0,0,0,0,0,0,0,0,
0,0,0,0,0,0,0,0,0,0,0,0,0,0,0,0,
0,0,0,0,0,0,0,0,0,0,0,0,0,0,0,0,
0,0,0,0,0,0,0,0,0,0,0,0,0,0,0,0,
0,0,0,0,0,0,0,0,0,0,0,0,0,0,0,0,
0,0,0,0,0,0,0,0,0,0,0,0,0,0,0,0,
0,0,0,0,0,0,0,0,0,0,0,0,0,0,0,0,
0,0,0,0,0,0,0,0,0,0,0,0,0,0,0,0,
81,81,81,81,81,81,81,81,81,81,81,81,81,81,81,81,
81,81,81,81,81,81,81,81,81,81,81,81,81,81,81,81,
81,81,81,81,81,81,81,81,81,81,81,81,81,81,81,81,
81,81,81,81,81,81,81,81,81,81,81,81,81,81,81,81,
81,81,81,81,81,81,81,81,81,81,81,81,81,81,81,81,
81,81,81,81,81,81,81,81,81,81,81,81,81,81,81,81,
81,81,81,81,81,81,81,81,81,81,81,81,81,81,81,81,
81,81,81,81,81,81,81,81,81,81,81,81,81,81,81,81
</chunk>
   <chunk x="0" y="112" width="16" height="16">
0,0,0,0,0,0,0,0,0,0,0,0,0,0,0,0,
0,0,0,0,0,0,0,0,0,0,0,0,0,0,0,0,
0,0,0,0,0,0,0,0,0,0,0,0,0,0,0,0,
0,0,0,0,0,0,0,0,0,0,0,0,0,0,0,0,
0,0,0,0,0,0,0,0,0,0,0,0,0,0,0,0,
0,0,0,0,0,0,0,0,0,0,0,0,0,0,0,0,
0,0,0,0,0,0,0,0,0,0,0,0,0,0,0,0,
0,0,0,0,0,0,0,0,0,0,0,0,0,0,0,0,
81,81,81,81,81,81,81,81,81,81,81,81,81,81,81,81,
81,81,81,81,81,81,81,81,81,81,81,81,81,81,81,81,
81,81,81,81,81,81,81,81,81,81,81,81,81,81,81,81,
81,81,81,81,81,81,81,81,81,81,81,81,81,81,81,81,
81,81,81,81,81,81,81,81,81,81,81,81,81,81,81,81,
81,81,81,81,81,81,81,81,81,81,81,81,81,81,81,81,
81,81,81,81,81,81,81,81,81,81,81,81,81,81,81,81,
81,81,81,81,81,81,81,81,81,81,81,81,81,81,81,81
</chunk>
   <chunk x="16" y="112" width="16" height="16">
0,0,0,0,0,0,0,0,0,0,0,0,0,0,81,81,
0,0,0,0,0,0,0,0,0,0,0,0,0,0,81,81,
0,0,0,0,0,0,0,0,0,0,0,0,0,0,81,81,
0,0,0,0,0,0,0,0,0,0,0,0,0,0,81,81,
0,0,0,0,0,0,0,0,0,0,0,0,0,0,81,81,
0,0,0,0,0,0,0,0,0,0,0,0,0,0,81,81,
0,0,0,0,0,0,0,0,0,0,0,0,0,0,81,81,
0,0,0,0,0,0,0,0,0,0,0,0,0,0,81,81,
81,81,81,81,81,81,81,81,81,81,81,81,81,81,81,81,
81,81,81,81,81,81,81,81,81,81,81,81,81,81,81,81,
81,81,81,81,81,81,81,81,81,81,81,81,81,81,81,81,
81,81,81,81,81,81,81,81,81,81,81,81,81,81,81,81,
81,81,81,81,81,81,81,81,81,81,81,81,81,81,81,81,
81,81,81,81,81,81,81,81,81,81,81,81,81,81,81,81,
81,81,81,81,81,81,81,81,81,81,81,81,81,81,81,81,
81,81,81,81,81,81,81,81,81,81,81,81,81,81,81,81
</chunk>
   <chunk x="32" y="112" width="16" height="16">
81,81,81,81,81,81,81,81,81,81,81,81,81,81,81,81,
81,81,81,81,81,81,81,81,81,81,81,81,81,81,81,81,
81,81,81,81,81,81,81,81,81,81,81,81,81,81,81,81,
81,81,81,81,81,81,81,81,81,81,81,81,81,81,81,81,
81,81,81,81,81,81,81,81,81,81,81,81,81,81,81,81,
81,81,81,81,81,81,81,81,81,81,81,81,81,81,81,81,
81,81,81,81,81,81,81,81,81,81,81,81,81,81,81,81,
81,81,81,81,81,81,81,81,81,81,81,81,81,81,81,81,
81,81,81,81,81,81,81,81,81,81,81,81,81,81,81,81,
81,81,81,81,81,81,81,81,81,81,81,81,81,81,81,81,
81,81,81,81,81,81,81,81,81,81,81,81,81,81,81,81,
81,81,81,81,81,81,81,81,81,81,81,81,81,81,81,81,
81,81,81,81,81,81,81,81,81,81,81,81,81,81,81,81,
81,81,81,81,81,81,81,81,81,81,81,81,81,81,81,81,
81,81,81,81,81,81,81,81,81,81,81,81,81,81,81,81,
81,81,81,81,81,81,81,81,81,81,81,81,81,81,81,81
</chunk>
   <chunk x="48" y="112" width="16" height="16">
81,81,81,81,81,81,81,81,81,81,81,81,81,81,81,81,
81,81,81,81,81,81,81,81,81,81,81,81,81,81,81,81,
81,81,81,81,81,81,81,81,81,81,81,81,81,81,81,81,
81,81,81,81,81,81,81,81,81,81,81,81,81,81,81,81,
81,81,81,81,81,81,81,81,81,81,81,81,81,81,81,81,
81,81,81,81,81,81,81,81,81,81,81,81,81,81,81,81,
81,81,81,81,81,81,81,81,81,81,81,81,81,81,81,81,
81,81,81,81,81,81,81,81,81,81,81,81,81,81,81,81,
81,81,81,81,81,81,81,81,81,81,81,81,81,81,81,81,
81,81,81,81,81,81,81,81,81,81,81,81,81,81,81,81,
81,81,81,81,81,81,81,81,81,81,81,81,81,81,81,81,
81,81,81,81,81,81,81,81,81,81,81,81,81,81,81,81,
81,81,81,81,81,81,81,81,81,81,81,81,81,81,81,81,
81,81,81,81,81,81,81,81,81,81,81,81,81,81,81,81,
81,81,81,81,81,81,81,81,81,81,81,81,81,81,81,81,
81,81,81,81,81,81,81,81,81,81,81,81,81,81,81,81
</chunk>
   <chunk x="64" y="112" width="16" height="16">
81,81,81,81,81,81,0,0,0,0,0,0,0,0,0,0,
81,81,81,81,81,81,0,0,0,0,0,0,0,0,0,0,
81,81,81,81,81,81,0,0,0,0,0,0,0,0,0,0,
81,81,81,81,81,81,0,0,0,0,0,0,0,0,0,0,
81,81,81,81,81,81,0,0,0,0,0,0,0,0,0,0,
81,81,81,81,81,81,0,0,0,0,0,0,0,0,0,0,
81,81,81,81,81,81,0,0,0,0,0,0,0,0,0,0,
81,81,81,81,81,81,0,0,0,0,0,0,0,0,0,0,
81,81,81,81,81,81,81,81,81,81,81,81,81,81,81,81,
81,81,81,81,81,81,81,81,81,81,81,81,81,81,81,81,
81,81,81,81,81,81,81,81,81,81,81,81,81,81,81,81,
81,81,81,81,81,81,81,81,81,81,81,81,81,81,81,81,
81,81,81,81,81,81,81,81,81,81,81,81,81,81,81,81,
81,81,81,81,81,81,81,81,81,81,81,81,81,81,81,81,
81,81,81,81,81,81,81,81,81,81,81,81,81,81,81,81,
81,81,81,81,81,81,81,81,81,81,81,81,81,81,81,81
</chunk>
   <chunk x="80" y="112" width="16" height="16">
0,0,0,0,0,0,0,0,0,0,0,0,0,0,0,0,
0,0,0,0,0,0,0,0,0,0,0,0,0,0,0,0,
0,0,0,0,0,0,0,0,0,0,0,0,0,0,0,0,
0,0,0,0,0,0,0,0,0,0,0,0,0,0,0,0,
0,0,0,0,0,0,0,0,0,0,0,0,0,0,0,0,
0,0,0,0,0,0,0,0,0,0,0,0,0,0,0,0,
0,0,0,0,0,0,0,0,0,0,0,0,0,0,0,0,
0,0,0,0,0,0,0,0,0,0,0,0,0,0,0,0,
81,81,81,81,81,81,81,81,81,81,81,81,81,81,81,81,
81,81,81,81,81,81,81,81,81,81,81,81,81,81,81,81,
81,81,81,81,81,81,81,81,81,81,81,81,81,81,81,81,
81,81,81,81,81,81,81,81,81,81,81,81,81,81,81,81,
81,81,81,81,81,81,81,81,81,81,81,81,81,81,81,81,
81,81,81,81,81,81,81,81,81,81,81,81,81,81,81,81,
81,81,81,81,81,81,81,81,81,81,81,81,81,81,81,81,
81,81,81,81,81,81,81,81,81,81,81,81,81,81,81,81
</chunk>
   <chunk x="96" y="112" width="16" height="16">
0,0,0,0,0,0,0,0,0,0,0,0,0,0,0,0,
0,0,0,0,0,0,0,0,0,0,0,0,0,0,0,0,
0,0,0,0,0,0,0,0,0,0,0,0,0,0,0,0,
0,0,0,0,0,0,0,0,0,0,0,0,0,0,0,0,
0,0,0,0,0,0,0,0,0,0,0,0,0,0,0,0,
0,0,0,0,0,0,0,0,0,0,0,0,0,0,0,0,
0,0,0,0,0,0,0,0,0,0,0,0,0,0,0,0,
0,0,0,0,0,0,0,0,0,0,0,0,0,0,0,0,
81,81,81,81,81,81,81,81,81,81,81,81,81,81,81,81,
81,81,81,81,81,81,81,81,81,81,81,81,81,81,81,81,
81,81,81,81,81,81,81,81,81,81,81,81,81,81,81,81,
81,81,81,81,81,81,81,81,81,81,81,81,81,81,81,81,
81,81,81,81,81,81,81,81,81,81,81,81,81,81,81,81,
81,81,81,81,81,81,81,81,81,81,81,81,81,81,81,81,
81,81,81,81,81,81,81,81,81,81,81,81,81,81,81,81,
81,81,81,81,81,81,81,81,81,81,81,81,81,81,81,81
</chunk>
   <chunk x="112" y="112" width="16" height="16">
0,0,0,0,0,0,0,0,0,0,0,0,0,0,0,0,
0,0,0,0,0,0,0,0,0,0,0,0,0,0,0,0,
0,0,0,0,0,0,0,0,0,0,0,0,0,0,0,0,
0,0,0,0,0,0,0,0,0,0,0,0,0,0,0,0,
0,0,0,0,0,0,0,0,0,0,0,0,0,0,0,0,
0,0,0,0,0,0,0,0,0,0,0,0,0,0,0,0,
0,0,0,0,0,0,0,0,0,0,0,0,0,0,0,0,
0,0,0,0,0,0,0,0,0,0,0,0,0,0,0,0,
81,81,81,81,81,81,81,81,81,81,81,81,81,81,81,81,
81,81,81,81,81,81,81,81,81,81,81,81,81,81,81,81,
81,81,81,81,81,81,81,81,81,81,81,81,81,81,81,81,
81,81,81,81,81,81,81,81,81,81,81,81,81,81,81,81,
81,81,81,81,81,81,81,81,81,81,81,81,81,81,81,81,
81,81,81,81,81,81,81,81,81,81,81,81,81,81,81,81,
81,81,81,81,81,81,81,81,81,81,81,81,81,81,81,81,
81,81,81,81,81,81,81,81,81,81,81,81,81,81,81,81
</chunk>
   <chunk x="128" y="112" width="16" height="16">
0,0,0,0,0,0,0,0,0,0,0,0,0,0,0,0,
0,0,0,0,0,0,0,0,0,0,0,0,0,0,0,0,
0,0,0,0,0,0,0,0,0,0,0,0,0,0,0,0,
0,0,0,0,0,0,0,0,0,0,0,0,0,0,0,0,
0,0,0,0,0,0,0,0,0,0,0,0,0,0,0,0,
0,0,0,0,0,0,0,0,0,0,0,0,0,0,0,0,
0,0,0,0,0,0,0,0,0,0,0,0,0,0,0,0,
0,0,0,0,0,0,0,0,0,0,0,0,0,0,0,0,
81,81,81,81,81,81,81,81,81,81,81,81,81,81,81,81,
81,81,81,81,81,81,81,81,81,81,81,81,81,81,81,81,
81,81,81,81,81,81,81,81,81,81,81,81,81,81,81,81,
81,81,81,81,81,81,81,81,81,81,81,81,81,81,81,81,
81,81,81,81,81,81,81,81,81,81,81,81,81,81,81,81,
81,81,81,81,81,81,81,81,81,81,81,81,81,81,81,81,
81,81,81,81,81,81,81,81,81,81,81,81,81,81,81,81,
81,81,81,81,81,81,81,81,81,81,81,81,81,81,81,81
</chunk>
   <chunk x="144" y="112" width="16" height="16">
0,0,0,0,0,0,0,0,0,0,0,0,0,0,0,0,
0,0,0,0,0,0,0,0,0,0,0,0,0,0,0,0,
0,0,0,0,0,0,0,0,0,0,0,0,0,0,0,0,
0,0,0,0,0,0,0,0,0,0,0,0,0,0,0,0,
0,0,0,0,0,0,0,0,0,0,0,0,0,0,0,0,
0,0,0,0,0,0,0,0,0,0,0,0,0,0,0,0,
0,0,0,0,0,0,0,0,0,0,0,0,0,0,0,0,
0,0,0,0,0,0,0,0,0,0,0,0,0,0,0,0,
81,81,81,81,81,81,81,81,81,81,81,81,81,81,81,81,
81,81,81,81,81,81,81,81,81,81,81,81,81,81,81,81,
81,81,81,81,81,81,81,81,81,81,81,81,81,81,81,81,
81,81,81,81,81,81,81,81,81,81,81,81,81,81,81,81,
81,81,81,81,81,81,81,81,81,81,81,81,81,81,81,81,
81,81,81,81,81,81,81,81,81,81,81,81,81,81,81,81,
81,81,81,81,81,81,81,81,81,81,81,81,81,81,81,81,
81,81,81,81,81,81,81,81,81,81,81,81,81,81,81,81
</chunk>
   <chunk x="160" y="112" width="16" height="16">
81,81,81,81,81,81,81,81,81,81,81,81,81,81,81,81,
81,81,81,81,81,81,81,81,81,81,81,81,81,81,81,81,
81,81,81,81,81,81,81,81,81,81,81,81,81,81,81,81,
81,81,81,81,81,81,81,81,81,81,81,81,81,81,81,81,
81,81,81,81,81,81,81,81,81,81,81,81,81,81,81,81,
81,81,81,81,81,81,81,81,81,81,81,81,81,81,81,81,
81,81,81,81,81,81,81,81,81,81,81,81,81,81,81,81,
81,81,81,81,81,81,81,81,81,81,81,81,81,81,81,81,
81,81,81,81,81,81,81,81,81,81,81,81,81,81,81,81,
81,81,81,81,81,81,81,81,81,81,81,81,81,81,81,81,
81,81,81,81,81,81,81,81,81,81,81,81,81,81,81,81,
81,81,81,81,81,81,81,81,81,81,81,81,81,81,81,81,
81,81,81,81,81,81,81,81,81,81,81,81,81,81,81,81,
81,81,81,81,81,81,81,81,81,81,81,81,81,81,81,81,
81,81,81,81,81,81,81,81,81,81,81,81,81,81,81,81,
81,81,81,81,81,81,81,81,81,81,81,81,81,81,81,81
</chunk>
   <chunk x="176" y="112" width="16" height="16">
81,81,81,81,0,0,0,0,0,0,0,0,0,0,0,0,
81,81,81,81,0,0,0,0,0,0,0,0,0,0,0,0,
81,81,81,81,0,0,0,0,0,0,0,0,0,0,0,0,
81,81,81,81,0,0,0,0,0,0,0,0,0,0,0,0,
81,81,81,81,0,0,0,0,0,0,0,0,0,0,0,0,
81,81,81,81,0,0,0,0,0,0,0,0,0,0,0,0,
81,81,81,81,0,0,0,0,0,0,0,0,0,0,0,0,
81,81,81,81,0,0,0,0,0,0,0,0,0,0,0,0,
81,81,81,81,0,0,0,0,0,0,0,0,0,0,0,0,
81,81,81,81,0,0,0,0,0,0,0,0,0,0,0,0,
81,81,81,81,0,0,0,0,0,0,0,0,0,0,0,0,
81,81,81,81,0,0,0,0,0,0,0,0,0,0,0,0,
81,81,81,81,0,0,0,0,0,0,0,0,0,0,0,0,
81,81,81,81,0,0,0,0,0,0,0,0,0,0,0,0,
81,81,81,81,0,0,0,0,0,0,0,0,0,0,0,0,
81,81,81,81,0,0,0,0,0,0,0,0,0,0,0,0
</chunk>
   <chunk x="-48" y="128" width="16" height="16">
0,0,0,0,0,0,0,0,81,81,81,81,81,81,81,81,
0,0,0,0,0,0,0,0,81,81,81,81,81,81,81,81,
0,0,0,0,0,0,0,0,0,0,0,0,0,0,0,0,
0,0,0,0,0,0,0,0,0,0,0,0,0,0,0,0,
0,0,0,0,0,0,0,0,0,0,0,0,0,0,0,0,
0,0,0,0,0,0,0,0,0,0,0,0,0,0,0,0,
0,0,0,0,0,0,0,0,0,0,0,0,0,0,0,0,
0,0,0,0,0,0,0,0,0,0,0,0,0,0,0,0,
0,0,0,0,0,0,0,0,0,0,0,0,0,0,0,0,
0,0,0,0,0,0,0,0,0,0,0,0,0,0,0,0,
0,0,0,0,0,0,0,0,0,0,0,0,0,0,0,0,
0,0,0,0,0,0,0,0,0,0,0,0,0,0,0,0,
0,0,0,0,0,0,0,0,0,0,0,0,0,0,0,0,
0,0,0,0,0,0,0,0,0,0,0,0,0,0,0,0,
0,0,0,0,0,0,0,0,0,0,0,0,0,0,0,0,
0,0,0,0,0,0,0,0,0,0,0,0,0,0,0,0
</chunk>
   <chunk x="-32" y="128" width="16" height="16">
81,81,81,81,81,81,81,81,81,81,81,81,81,81,81,81,
81,81,81,81,81,81,81,81,81,81,81,81,81,81,81,81,
0,0,0,0,0,0,0,0,0,0,0,0,0,0,0,0,
0,0,0,0,0,0,0,0,0,0,0,0,0,0,0,0,
0,0,0,0,0,0,0,0,0,0,0,0,0,0,0,0,
0,0,0,0,0,0,0,0,0,0,0,0,0,0,0,0,
0,0,0,0,0,0,0,0,0,0,0,0,0,0,0,0,
0,0,0,0,0,0,0,0,0,0,0,0,0,0,0,0,
0,0,0,0,0,0,0,0,0,0,0,0,0,0,0,0,
0,0,0,0,0,0,0,0,0,0,0,0,0,0,0,0,
0,0,0,0,0,0,0,0,0,0,0,0,0,0,0,0,
0,0,0,0,0,0,0,0,0,0,0,0,0,0,0,0,
0,0,0,0,0,0,0,0,0,0,0,0,0,0,0,0,
0,0,0,0,0,0,0,0,0,0,0,0,0,0,0,0,
0,0,0,0,0,0,0,0,0,0,0,0,0,0,0,0,
0,0,0,0,0,0,0,0,0,0,0,0,0,0,0,0
</chunk>
   <chunk x="-16" y="128" width="16" height="16">
81,81,81,81,81,81,81,81,81,81,81,81,81,81,81,81,
81,81,81,81,81,81,81,81,81,81,81,81,81,81,81,81,
0,0,0,0,0,0,0,0,0,0,0,0,0,0,0,0,
0,0,0,0,0,0,0,0,0,0,0,0,0,0,0,0,
0,0,0,0,0,0,0,0,0,0,0,0,0,0,0,0,
0,0,0,0,0,0,0,0,0,0,0,0,0,0,0,0,
0,0,0,0,0,0,0,0,0,0,0,0,0,0,0,0,
0,0,0,0,0,0,0,0,0,0,0,0,0,0,0,0,
0,0,0,0,0,0,0,0,0,0,0,0,0,0,0,0,
0,0,0,0,0,0,0,0,0,0,0,0,0,0,0,0,
0,0,0,0,0,0,0,0,0,0,0,0,0,0,0,0,
0,0,0,0,0,0,0,0,0,0,0,0,0,0,0,0,
0,0,0,0,0,0,0,0,0,0,0,0,0,0,0,0,
0,0,0,0,0,0,0,0,0,0,0,0,0,0,0,0,
0,0,0,0,0,0,0,0,0,0,0,0,0,0,0,0,
0,0,0,0,0,0,0,0,0,0,0,0,0,0,0,0
</chunk>
   <chunk x="0" y="128" width="16" height="16">
81,81,81,81,81,81,81,81,81,81,81,81,81,81,81,81,
81,81,81,81,81,81,81,81,81,81,81,81,81,81,81,81,
0,0,0,0,0,0,0,0,0,0,0,0,0,0,0,0,
0,0,0,0,0,0,0,0,0,0,0,0,0,0,0,0,
0,0,0,0,0,0,0,0,0,0,0,0,0,0,0,0,
0,0,0,0,0,0,0,0,0,0,0,0,0,0,0,0,
0,0,0,0,0,0,0,0,0,0,0,0,0,0,0,0,
0,0,0,0,0,0,0,0,0,0,0,0,0,0,0,0,
0,0,0,0,0,0,0,0,0,0,0,0,0,0,0,0,
0,0,0,0,0,0,0,0,0,0,0,0,0,0,0,0,
0,0,0,0,0,0,0,0,0,0,0,0,0,0,0,0,
0,0,0,0,0,0,0,0,0,0,0,0,0,0,0,0,
0,0,0,0,0,0,0,0,0,0,0,0,0,0,0,0,
0,0,0,0,0,0,0,0,0,0,0,0,0,0,0,0,
0,0,0,0,0,0,0,0,0,0,0,0,0,0,0,0,
0,0,0,0,0,0,0,0,0,0,0,0,0,0,0,0
</chunk>
   <chunk x="16" y="128" width="16" height="16">
81,81,81,81,81,81,81,81,81,81,81,81,81,81,81,81,
81,81,81,81,81,81,81,81,81,81,81,81,81,81,81,81,
0,0,0,0,0,0,0,0,0,0,0,0,0,0,81,81,
0,0,0,0,0,0,0,0,0,0,0,0,0,0,81,81,
0,0,0,0,0,0,0,0,0,0,0,0,0,0,81,81,
0,0,0,0,0,0,0,0,0,0,0,0,0,0,81,81,
0,0,0,0,0,0,0,0,0,0,0,0,0,0,81,81,
0,0,0,0,0,0,0,0,0,0,0,0,0,0,81,81,
0,0,0,0,0,0,0,0,0,0,0,0,0,0,81,81,
0,0,0,0,0,0,0,0,0,0,0,0,0,0,81,81,
0,0,0,0,0,0,0,0,0,0,0,0,0,0,81,81,
0,0,0,0,0,0,0,0,0,0,0,0,0,0,81,81,
0,0,0,0,0,0,0,0,0,0,0,0,0,0,0,0,
0,0,0,0,0,0,0,0,0,0,0,0,0,0,0,0,
0,0,0,0,0,0,0,0,0,0,0,0,0,0,0,0,
0,0,0,0,0,0,0,0,0,0,0,0,0,0,0,0
</chunk>
   <chunk x="32" y="128" width="16" height="16">
81,81,81,81,81,81,81,81,81,81,81,81,81,81,81,81,
81,81,81,81,81,81,81,81,81,81,81,81,81,81,81,81,
81,81,81,81,81,81,81,81,81,81,81,81,81,81,81,81,
81,81,81,81,81,81,81,81,81,81,81,81,81,81,81,81,
81,81,81,81,81,81,81,81,81,81,81,81,81,81,81,81,
81,81,81,81,81,81,81,81,81,81,81,81,81,81,81,81,
81,81,81,81,81,81,81,81,81,81,81,81,81,81,81,81,
81,81,81,81,81,81,81,81,81,81,81,81,81,81,81,81,
81,81,81,81,81,81,81,81,81,81,81,81,81,81,81,81,
81,81,81,81,81,81,81,81,81,81,81,81,81,81,81,81,
81,81,81,81,81,81,81,81,81,81,81,81,81,81,81,81,
81,81,81,81,81,81,81,81,81,81,81,81,81,81,81,81,
0,0,0,0,0,0,0,0,0,0,0,0,0,0,0,0,
0,0,0,0,0,0,0,0,0,0,0,0,0,0,0,0,
0,0,0,0,0,0,0,0,0,0,0,0,0,0,0,0,
0,0,0,0,0,0,0,0,0,0,0,0,0,0,0,0
</chunk>
   <chunk x="48" y="128" width="16" height="16">
81,81,81,81,81,81,81,81,81,81,81,81,81,81,81,81,
81,81,81,81,81,81,81,81,81,81,81,81,81,81,81,81,
81,81,81,81,81,81,81,81,81,81,81,81,81,81,81,81,
81,81,81,81,81,81,81,81,81,81,81,81,81,81,81,81,
81,81,81,81,81,81,81,81,81,81,81,81,81,81,81,81,
81,81,81,81,81,81,81,81,81,81,81,81,81,81,81,81,
81,81,81,81,81,81,81,81,81,81,81,81,81,81,81,81,
81,81,81,81,81,81,81,81,81,81,81,81,81,81,81,81,
81,81,81,81,81,81,81,81,81,81,81,81,81,81,81,81,
81,81,81,81,81,81,81,81,81,81,81,81,81,81,81,81,
81,81,81,81,81,81,81,81,81,81,81,81,81,81,81,81,
81,81,81,81,81,81,81,81,81,81,81,81,81,81,81,81,
0,0,0,0,0,0,0,0,0,0,0,0,0,0,0,0,
0,0,0,0,0,0,0,0,0,0,0,0,0,0,0,0,
0,0,0,0,0,0,0,0,0,0,0,0,0,0,0,0,
0,0,0,0,0,0,0,0,0,0,0,0,0,0,0,0
</chunk>
   <chunk x="64" y="128" width="16" height="16">
81,81,81,81,81,81,81,81,81,81,81,81,81,81,81,81,
81,81,81,81,81,81,81,81,81,81,81,81,81,81,81,81,
81,81,81,81,81,81,0,0,0,0,0,0,0,0,0,0,
81,81,81,81,81,81,0,0,0,0,0,0,0,0,0,0,
81,81,81,81,81,81,0,0,0,0,0,0,0,0,0,0,
81,81,81,81,81,81,0,0,0,0,0,0,0,0,0,0,
81,81,81,81,81,81,0,0,0,0,0,0,0,0,0,0,
81,81,81,81,81,81,0,0,0,0,0,0,0,0,0,0,
81,81,81,81,81,81,0,0,0,0,0,0,0,0,0,0,
81,81,81,81,81,81,0,0,0,0,0,0,0,0,0,0,
81,81,81,81,81,81,0,0,0,0,0,0,0,0,0,0,
81,81,81,81,81,81,0,0,0,0,0,0,0,0,0,0,
0,0,0,0,0,0,0,0,0,0,0,0,0,0,0,0,
0,0,0,0,0,0,0,0,0,0,0,0,0,0,0,0,
0,0,0,0,0,0,0,0,0,0,0,0,0,0,0,0,
0,0,0,0,0,0,0,0,0,0,0,0,0,0,0,0
</chunk>
   <chunk x="80" y="128" width="16" height="16">
81,81,81,81,81,81,81,81,81,81,81,81,81,81,81,81,
81,81,81,81,81,81,81,81,81,81,81,81,81,81,81,81,
0,0,0,0,0,0,0,0,0,0,0,0,0,0,0,0,
0,0,0,0,0,0,0,0,0,0,0,0,0,0,0,0,
0,0,0,0,0,0,0,0,0,0,0,0,0,0,0,0,
0,0,0,0,0,0,0,0,0,0,0,0,0,0,0,0,
0,0,0,0,0,0,0,0,0,0,0,0,0,0,0,0,
0,0,0,0,0,0,0,0,0,0,0,0,0,0,0,0,
0,0,0,0,0,0,0,0,0,0,0,0,0,0,0,0,
0,0,0,0,0,0,0,0,0,0,0,0,0,0,0,0,
0,0,0,0,0,0,0,0,0,0,0,0,0,0,0,0,
0,0,0,0,0,0,0,0,0,0,0,0,0,0,0,0,
0,0,0,0,0,0,0,0,0,0,0,0,0,0,0,0,
0,0,0,0,0,0,0,0,0,0,0,0,0,0,0,0,
0,0,0,0,0,0,0,0,0,0,0,0,0,0,0,0,
0,0,0,0,0,0,0,0,0,0,0,0,0,0,0,0
</chunk>
   <chunk x="96" y="128" width="16" height="16">
81,81,81,81,81,81,81,81,81,81,81,81,81,81,81,81,
81,81,81,81,81,81,81,81,81,81,81,81,81,81,81,81,
0,0,0,0,81,81,81,81,81,81,81,81,81,81,81,81,
0,0,0,0,81,81,81,81,81,81,81,81,81,81,81,81,
0,0,0,0,81,81,81,81,81,81,81,81,81,81,81,81,
0,0,0,0,81,81,81,81,81,81,81,81,81,81,81,81,
0,0,0,0,81,81,81,81,81,81,81,81,81,81,81,81,
0,0,0,0,81,81,81,81,81,81,81,81,81,81,81,81,
0,0,0,0,81,81,81,81,81,81,81,81,81,81,81,81,
0,0,0,0,81,81,81,81,81,81,81,81,81,81,81,81,
0,0,0,0,81,81,81,81,81,81,81,81,81,81,81,81,
0,0,0,0,81,81,81,81,81,81,81,81,81,81,81,81,
0,0,0,0,81,81,81,81,81,81,81,81,81,81,81,81,
0,0,0,0,81,81,81,81,81,81,81,81,81,81,81,81,
0,0,0,0,81,81,81,81,81,81,81,81,81,81,81,81,
0,0,0,0,81,81,81,81,81,81,81,81,81,81,81,81
</chunk>
   <chunk x="112" y="128" width="16" height="16">
81,81,81,81,81,81,81,81,81,81,81,81,81,81,81,81,
81,81,81,81,81,81,81,81,81,81,81,81,81,81,81,81,
81,81,81,81,81,81,81,81,81,81,81,81,81,81,81,81,
81,81,81,81,81,81,81,81,81,81,81,81,81,81,81,81,
81,81,81,81,81,81,81,81,81,81,81,81,81,81,81,81,
81,81,81,81,81,81,81,81,81,81,81,81,81,81,81,81,
81,81,81,81,81,81,81,81,81,81,81,81,81,81,81,81,
81,81,81,81,81,81,81,81,81,81,81,81,81,81,81,81,
81,81,81,81,81,81,81,81,81,81,81,81,81,81,81,81,
81,81,81,81,81,81,81,81,81,81,81,81,81,81,81,81,
81,81,81,81,81,81,81,81,81,81,81,81,81,81,81,81,
81,81,81,81,81,81,81,81,81,81,81,81,81,81,81,81,
81,81,81,81,81,81,81,81,81,81,81,81,81,81,81,81,
81,81,81,81,81,81,81,81,81,81,81,81,81,81,81,81,
81,81,81,81,81,81,81,81,81,81,81,81,81,81,81,81,
81,81,81,81,81,81,81,81,81,81,81,81,81,81,81,81
</chunk>
   <chunk x="128" y="128" width="16" height="16">
81,81,81,81,81,81,81,81,81,81,81,81,81,81,81,81,
81,81,81,81,81,81,81,81,81,81,81,81,81,81,81,81,
81,81,81,81,81,81,81,81,81,81,81,81,0,0,0,0,
81,81,81,81,81,81,81,81,81,81,81,81,0,0,0,0,
81,81,81,81,81,81,81,81,81,81,81,81,0,0,0,0,
81,81,81,81,81,81,81,81,81,81,81,81,0,0,0,0,
81,81,81,81,81,81,81,81,81,81,81,81,0,0,0,0,
81,81,81,81,81,81,81,81,81,81,81,81,0,0,0,0,
81,81,81,81,81,81,81,81,81,81,81,81,0,0,0,0,
81,81,81,81,81,81,81,81,81,81,81,81,0,0,0,0,
81,81,81,81,81,81,81,81,81,81,81,81,0,0,0,0,
81,81,81,81,81,81,81,81,81,81,81,81,0,0,0,0,
81,81,81,81,81,81,81,81,81,81,81,81,0,0,0,0,
81,81,81,81,81,81,81,81,81,81,81,81,0,0,0,0,
81,81,81,81,81,81,81,81,81,81,81,81,0,0,0,0,
81,81,81,81,81,81,81,81,81,81,81,81,0,0,0,0
</chunk>
   <chunk x="144" y="128" width="16" height="16">
81,81,81,81,81,81,81,81,81,81,81,81,81,81,81,81,
81,81,81,81,81,81,81,81,81,81,81,81,81,81,81,81,
0,0,0,0,0,0,0,0,0,0,0,0,0,0,0,0,
0,0,0,0,0,0,0,0,0,0,0,0,0,0,0,0,
0,0,0,0,0,0,0,0,0,0,0,0,0,0,0,0,
0,0,0,0,0,0,0,0,0,0,0,0,0,0,0,0,
0,0,0,0,0,0,0,0,0,0,0,0,0,0,0,0,
0,0,0,0,0,0,0,0,0,0,0,0,0,0,0,0,
0,0,0,0,0,0,0,0,0,0,0,0,0,0,0,0,
0,0,0,0,0,0,0,0,0,0,0,0,0,0,0,0,
0,0,0,0,0,0,0,0,0,0,0,0,0,0,0,0,
0,0,0,0,0,0,0,0,0,0,0,0,0,0,0,0,
0,0,0,0,0,0,0,0,0,0,0,0,0,0,0,0,
0,0,0,0,0,0,0,0,0,0,0,0,0,0,0,0,
0,0,0,0,0,0,0,0,0,0,0,0,0,0,0,0,
0,0,0,0,0,0,0,0,0,0,0,0,0,0,0,0
</chunk>
   <chunk x="160" y="128" width="16" height="16">
81,81,81,81,81,81,81,81,81,81,81,81,81,81,81,81,
81,81,81,81,81,81,81,81,81,81,81,81,81,81,81,81,
0,0,0,0,0,0,0,0,0,0,0,0,0,0,0,0,
0,0,0,0,0,0,0,0,0,0,0,0,0,0,0,0,
0,0,0,0,0,0,0,0,0,0,0,0,0,0,0,0,
0,0,0,0,0,0,0,0,0,0,0,0,0,0,0,0,
0,0,0,0,0,0,0,0,0,0,0,0,0,0,0,0,
0,0,0,0,0,0,0,0,0,0,0,0,0,0,0,0,
0,0,0,0,0,0,0,0,0,0,0,0,0,0,0,0,
0,0,0,0,0,0,0,0,0,0,0,0,0,0,0,0,
0,0,0,0,0,0,0,0,0,0,0,0,0,0,0,0,
0,0,0,0,0,0,0,0,0,0,0,0,0,0,0,0,
0,0,0,0,0,0,0,0,0,0,0,0,0,0,0,0,
0,0,0,0,0,0,0,0,0,0,0,0,0,0,0,0,
0,0,0,0,0,0,0,0,0,0,0,0,0,0,0,0,
0,0,0,0,0,0,0,0,0,0,0,0,0,0,0,0
</chunk>
   <chunk x="176" y="128" width="16" height="16">
81,81,81,81,0,0,0,0,0,0,0,0,0,0,0,0,
81,81,81,81,0,0,0,0,0,0,0,0,0,0,0,0,
0,0,0,0,0,0,0,0,0,0,0,0,0,0,0,0,
0,0,0,0,0,0,0,0,0,0,0,0,0,0,0,0,
0,0,0,0,0,0,0,0,0,0,0,0,0,0,0,0,
0,0,0,0,0,0,0,0,0,0,0,0,0,0,0,0,
0,0,0,0,0,0,0,0,0,0,0,0,0,0,0,0,
0,0,0,0,0,0,0,0,0,0,0,0,0,0,0,0,
0,0,0,0,0,0,0,0,0,0,0,0,0,0,0,0,
0,0,0,0,0,0,0,0,0,0,0,0,0,0,0,0,
0,0,0,0,0,0,0,0,0,0,0,0,0,0,0,0,
0,0,0,0,0,0,0,0,0,0,0,0,0,0,0,0,
0,0,0,0,0,0,0,0,0,0,0,0,0,0,0,0,
0,0,0,0,0,0,0,0,0,0,0,0,0,0,0,0,
0,0,0,0,0,0,0,0,0,0,0,0,0,0,0,0,
0,0,0,0,0,0,0,0,0,0,0,0,0,0,0,0
</chunk>
   <chunk x="96" y="144" width="16" height="16">
0,0,0,0,81,81,81,81,81,81,81,81,81,81,81,81,
0,0,0,0,81,81,81,81,81,81,81,81,81,81,81,81,
0,0,0,0,81,81,81,81,81,81,81,81,81,81,81,81,
0,0,0,0,81,81,81,81,81,81,81,81,81,81,81,81,
0,0,0,0,81,81,81,81,81,81,81,81,81,81,81,81,
0,0,0,0,81,81,81,81,81,81,81,81,81,81,81,81,
0,0,0,0,81,81,81,81,81,81,81,81,81,81,81,81,
0,0,0,0,81,81,81,81,81,81,81,81,81,81,81,81,
0,0,0,0,81,81,81,81,81,81,81,81,81,81,81,81,
0,0,0,0,81,81,81,81,81,81,81,81,81,81,81,81,
0,0,0,0,81,81,81,81,81,81,81,81,81,81,81,81,
0,0,0,0,81,81,81,81,81,81,81,81,81,81,81,81,
0,0,0,0,81,81,81,81,81,81,81,81,81,81,81,81,
0,0,0,0,81,81,81,81,81,81,81,81,81,81,81,81,
0,0,0,0,81,81,81,81,81,81,81,81,81,81,81,81,
0,0,0,0,81,81,81,81,81,81,81,81,81,81,81,81
</chunk>
   <chunk x="112" y="144" width="16" height="16">
81,81,81,81,81,81,81,81,81,81,81,81,81,81,81,81,
81,81,81,81,81,81,81,81,81,81,81,81,81,81,81,81,
81,81,81,81,81,81,81,81,81,81,81,81,81,81,81,81,
81,81,81,81,81,81,81,81,81,81,81,81,81,81,81,81,
81,81,81,81,81,81,81,81,81,81,81,81,81,81,81,81,
81,81,81,81,81,81,81,81,81,81,81,81,81,81,81,81,
81,81,81,81,81,81,81,81,81,81,81,81,81,81,81,81,
81,81,81,81,81,81,81,81,81,81,81,81,81,81,81,81,
81,81,81,81,81,81,81,81,81,81,81,81,81,81,81,81,
81,81,81,81,81,81,81,81,81,81,81,81,81,81,81,81,
81,81,81,81,81,81,81,81,81,81,81,81,81,81,81,81,
81,81,81,81,81,81,81,81,81,81,81,81,81,81,81,81,
81,81,81,81,81,81,81,81,81,81,81,81,81,81,81,81,
81,81,81,81,81,81,81,81,81,81,81,81,81,81,81,81,
81,81,81,81,81,81,81,81,81,81,81,81,81,81,81,81,
81,81,81,81,81,81,81,81,81,81,81,81,81,81,81,81
</chunk>
   <chunk x="128" y="144" width="16" height="16">
81,81,81,81,81,81,81,81,81,81,81,81,0,0,0,0,
81,81,81,81,81,81,81,81,81,81,81,81,0,0,0,0,
81,81,81,81,81,81,81,81,81,81,81,81,0,0,0,0,
81,81,81,81,81,81,81,81,81,81,81,81,0,0,0,0,
81,81,81,81,81,81,81,81,81,81,81,81,0,0,0,0,
81,81,81,81,81,81,81,81,81,81,81,81,0,0,0,0,
81,81,81,81,81,81,81,81,81,81,81,81,0,0,0,0,
81,81,81,81,81,81,81,81,81,81,81,81,0,0,0,0,
81,81,81,81,81,81,81,81,81,81,81,81,0,0,0,0,
81,81,81,81,81,81,81,81,81,81,81,81,0,0,0,0,
81,81,81,81,81,81,81,81,81,81,81,81,0,0,0,0,
81,81,81,81,81,81,81,81,81,81,81,81,0,0,0,0,
81,81,81,81,81,81,81,81,81,81,81,81,0,0,0,0,
81,81,81,81,81,81,81,81,81,81,81,81,0,0,0,0,
81,81,81,81,81,81,81,81,81,81,81,81,0,0,0,0,
81,81,81,81,81,81,81,81,81,81,81,81,0,0,0,0
</chunk>
   <chunk x="96" y="160" width="16" height="16">
0,0,0,0,81,81,81,81,81,81,81,81,81,81,81,81,
0,0,0,0,81,81,81,81,81,81,81,81,81,81,81,81,
0,0,0,0,81,81,81,81,81,81,81,81,81,81,81,81,
0,0,0,0,81,81,81,81,81,81,81,81,81,81,81,81,
0,0,0,0,81,81,81,81,81,81,81,81,81,81,81,81,
0,0,0,0,81,81,81,81,81,81,81,81,81,81,81,81,
0,0,0,0,81,81,81,81,81,81,81,81,81,81,81,81,
0,0,0,0,81,81,81,81,81,81,81,81,81,81,81,81,
0,0,0,0,81,81,81,81,81,81,81,81,81,81,81,81,
0,0,0,0,81,81,81,81,81,81,81,81,81,81,81,81,
0,0,0,0,0,0,0,0,0,0,0,0,0,0,0,0,
0,0,0,0,0,0,0,0,0,0,0,0,0,0,0,0,
0,0,0,0,0,0,0,0,0,0,0,0,0,0,0,0,
0,0,0,0,0,0,0,0,0,0,0,0,0,0,0,0,
0,0,0,0,0,0,0,0,0,0,0,0,0,0,0,0,
0,0,0,0,0,0,0,0,0,0,0,0,0,0,0,0
</chunk>
   <chunk x="112" y="160" width="16" height="16">
81,81,81,81,81,81,81,81,81,81,81,81,81,81,81,81,
81,81,81,81,81,81,81,81,81,81,81,81,81,81,81,81,
81,81,81,81,81,81,81,81,81,81,81,81,81,81,81,81,
81,81,81,81,81,81,81,81,81,81,81,81,81,81,81,81,
81,81,81,81,81,81,81,81,81,81,81,81,81,81,81,81,
81,81,81,81,81,81,81,81,81,81,81,81,81,81,81,81,
81,81,81,81,81,81,81,81,81,81,81,81,81,81,81,81,
81,81,81,81,81,81,81,81,81,81,81,81,81,81,81,81,
81,81,81,81,81,81,81,81,81,81,81,81,81,81,81,81,
81,81,81,81,81,81,81,81,81,81,81,81,81,81,81,81,
0,0,0,0,0,0,0,0,0,0,0,0,0,0,0,0,
0,0,0,0,0,0,0,0,0,0,0,0,0,0,0,0,
0,0,0,0,0,0,0,0,0,0,0,0,0,0,0,0,
0,0,0,0,0,0,0,0,0,0,0,0,0,0,0,0,
0,0,0,0,0,0,0,0,0,0,0,0,0,0,0,0,
0,0,0,0,0,0,0,0,0,0,0,0,0,0,0,0
</chunk>
   <chunk x="128" y="160" width="16" height="16">
81,81,81,81,81,81,81,81,81,81,81,81,0,0,0,0,
81,81,81,81,81,81,81,81,81,81,81,81,0,0,0,0,
81,81,81,81,81,81,81,81,81,81,81,81,0,0,0,0,
81,81,81,81,81,81,81,81,81,81,81,81,0,0,0,0,
81,81,81,81,81,81,81,81,81,81,81,81,0,0,0,0,
81,81,81,81,81,81,81,81,81,81,81,81,0,0,0,0,
81,81,81,81,81,81,81,81,81,81,81,81,0,0,0,0,
81,81,81,81,81,81,81,81,81,81,81,81,0,0,0,0,
81,81,81,81,81,81,81,81,81,81,81,81,0,0,0,0,
81,81,81,81,81,81,81,81,81,81,81,81,0,0,0,0,
0,0,0,0,0,0,0,0,0,0,0,0,0,0,0,0,
0,0,0,0,0,0,0,0,0,0,0,0,0,0,0,0,
0,0,0,0,0,0,0,0,0,0,0,0,0,0,0,0,
0,0,0,0,0,0,0,0,0,0,0,0,0,0,0,0,
0,0,0,0,0,0,0,0,0,0,0,0,0,0,0,0,
0,0,0,0,0,0,0,0,0,0,0,0,0,0,0,0
</chunk>
  </data>
 </layer>
 <layer id="8" name="scrap_top" width="40" height="60" visible="0">
  <data encoding="csv">
   <chunk x="-112" y="-144" width="16" height="16">
0,0,0,0,0,0,0,0,0,0,0,0,0,0,0,0,
0,0,0,0,0,0,0,0,0,0,0,0,0,0,0,0,
0,0,0,0,0,0,0,0,0,0,0,0,0,0,0,0,
0,0,0,0,0,0,0,0,0,0,0,0,0,0,0,0,
0,0,0,0,0,0,0,0,0,0,0,0,0,0,0,0,
0,0,0,0,0,0,0,0,0,0,0,0,0,0,0,0,
0,0,0,0,0,0,0,0,0,0,0,0,0,0,0,0,
0,0,0,0,0,0,0,0,0,0,0,0,0,0,0,0,
0,0,0,0,0,0,0,0,0,0,0,0,0,0,0,0,
0,0,0,0,0,0,0,0,0,0,0,0,0,0,0,0,
0,0,0,0,0,0,0,0,0,0,0,0,0,0,0,0,
0,0,0,0,0,0,0,0,0,0,0,0,0,0,0,0,
0,0,0,0,0,0,0,0,0,0,0,0,0,0,0,0,
0,0,0,0,0,0,0,0,0,0,0,0,0,0,0,0,
0,0,0,0,0,0,0,0,0,0,0,0,1,2,1,2,
0,0,0,0,0,0,0,0,0,0,0,0,13,14,13,14
</chunk>
   <chunk x="-96" y="-144" width="16" height="16">
0,0,0,0,0,0,0,0,0,0,0,0,0,0,0,0,
0,0,0,0,0,0,0,0,0,0,0,0,0,0,0,0,
0,0,0,0,0,0,0,0,0,0,0,0,0,0,0,0,
0,0,0,0,0,0,0,0,0,0,0,0,0,0,0,0,
0,0,0,0,0,0,0,0,0,0,0,0,0,0,0,0,
0,0,0,0,0,0,0,0,0,0,0,0,0,0,0,0,
0,0,0,0,0,0,0,0,0,0,0,0,0,0,0,0,
0,0,0,0,0,0,0,0,0,0,0,0,0,0,0,0,
0,0,0,0,0,0,0,0,0,0,0,0,0,0,0,0,
0,0,0,0,0,0,0,0,0,0,0,0,0,0,0,0,
0,0,0,0,0,0,0,0,0,0,0,0,0,0,0,0,
0,0,0,0,0,0,0,0,0,0,0,0,0,0,0,0,
0,0,0,0,0,0,0,0,0,0,0,0,0,0,0,0,
0,0,0,0,0,0,0,0,0,0,0,0,0,0,0,0,
1,2,1,2,1,2,1,2,1,2,1,2,1,2,1,2,
13,14,13,14,13,14,13,14,13,14,13,14,13,14,13,14
</chunk>
   <chunk x="-80" y="-144" width="16" height="16">
0,0,0,0,0,0,0,0,0,0,0,0,0,0,0,0,
0,0,0,0,0,0,0,0,0,0,0,0,0,0,0,0,
0,0,0,0,0,0,0,0,0,0,0,0,0,0,0,0,
0,0,0,0,0,0,0,0,0,0,0,0,0,0,0,0,
0,0,0,0,0,0,0,0,0,0,0,0,0,0,0,0,
0,0,0,0,0,0,0,0,0,0,0,0,0,0,0,0,
0,0,0,0,0,0,0,0,0,0,0,0,0,0,0,0,
0,0,0,0,0,0,0,0,0,0,0,0,0,0,0,0,
0,0,0,0,0,0,0,0,0,0,0,0,0,0,0,0,
0,0,0,0,0,0,0,0,0,0,0,0,0,0,0,0,
0,0,0,0,0,0,0,0,0,0,0,0,0,0,0,0,
0,0,0,0,0,0,0,0,0,0,0,0,0,0,0,0,
0,0,0,0,0,0,0,0,0,0,0,0,0,0,0,0,
0,0,0,0,0,0,0,0,0,0,0,0,0,0,0,0,
1,2,1,2,1,2,1,2,1,2,1,2,1,2,1,2,
13,14,13,14,13,14,13,14,13,14,13,14,13,14,13,14
</chunk>
   <chunk x="-64" y="-144" width="16" height="16">
0,0,0,0,0,0,0,0,0,0,0,0,0,0,0,0,
0,0,0,0,0,0,0,0,0,0,0,0,0,0,0,0,
0,0,0,0,0,0,0,0,0,0,0,0,0,0,0,0,
0,0,0,0,0,0,0,0,0,0,0,0,0,0,0,0,
0,0,0,0,0,0,0,0,0,0,0,0,0,0,0,0,
0,0,0,0,0,0,0,0,0,0,0,0,0,0,0,0,
0,0,0,0,0,0,0,0,0,0,0,0,0,0,0,0,
0,0,0,0,0,0,0,0,0,0,0,0,0,0,0,0,
0,0,0,0,0,0,0,0,0,0,0,0,0,0,0,0,
0,0,0,0,0,0,0,0,0,0,0,0,0,0,0,0,
0,0,0,0,0,0,0,0,0,0,0,0,0,0,0,0,
0,0,0,0,0,0,0,0,0,0,0,0,0,0,0,0,
0,0,0,0,0,0,0,0,0,0,0,0,0,0,0,0,
0,0,0,0,0,0,0,0,0,0,0,0,0,0,0,0,
1,2,1,2,1,2,1,2,1,2,1,2,1,2,1,2,
13,14,13,14,13,14,13,14,13,14,13,14,13,14,13,14
</chunk>
   <chunk x="-48" y="-144" width="16" height="16">
0,0,0,0,0,0,0,0,0,0,0,0,0,0,0,0,
0,0,0,0,0,0,0,0,0,0,0,0,0,0,0,0,
0,0,0,0,0,0,0,0,0,0,0,0,0,0,0,0,
0,0,0,0,0,0,0,0,0,0,0,0,0,0,0,0,
0,0,0,0,0,0,0,0,1,2,1,2,1,2,1,2,
0,0,0,0,0,0,0,0,13,14,13,14,13,14,13,14,
0,0,0,0,0,0,0,0,1,2,0,0,0,0,0,0,
0,0,0,0,0,0,0,0,13,14,0,0,0,0,0,0,
0,0,0,0,0,0,0,0,1,2,0,0,32,34,35,0,
0,0,0,0,0,0,0,0,13,14,0,0,7,8,9,0,
0,0,0,0,0,0,0,0,1,2,0,0,57,58,59,0,
0,0,0,0,0,0,0,0,13,14,0,0,0,0,0,0,
0,0,0,0,0,0,0,0,1,2,0,0,0,0,0,0,
0,0,0,0,0,0,0,0,13,14,0,0,0,0,0,0,
1,2,1,2,1,2,1,2,1,2,0,0,0,0,0,0,
13,14,13,14,13,14,13,14,13,14,0,0,0,0,0,0
</chunk>
   <chunk x="-32" y="-144" width="16" height="16">
0,0,0,0,0,0,0,0,0,0,0,0,0,0,0,0,
0,0,0,0,0,0,0,0,0,0,0,0,0,0,0,0,
0,0,0,0,0,0,0,0,0,0,0,0,0,0,0,0,
0,0,0,0,0,0,0,0,0,0,0,0,0,0,0,0,
1,2,1,2,1,2,1,2,1,2,1,2,1,2,1,2,
13,14,13,14,13,14,13,14,13,14,13,14,13,14,13,14,
0,0,0,0,0,0,0,0,0,0,0,0,0,0,0,0,
0,0,0,0,0,0,0,0,0,0,0,0,0,0,0,0,
0,0,32,34,35,0,0,0,0,0,0,0,0,0,0,0,
0,0,19,21,23,0,0,0,0,0,0,0,0,0,0,0,
0,0,57,58,59,0,0,0,0,0,0,0,0,0,0,0,
0,0,0,0,0,0,0,0,0,0,0,0,28,29,31,0,
0,0,0,0,0,0,0,0,0,0,0,0,41,42,43,0,
0,0,0,0,0,0,0,0,0,0,0,0,53,54,56,0,
0,0,28,29,31,0,0,0,0,0,0,0,0,0,0,0,
0,0,41,42,43,0,0,0,0,0,0,0,0,0,0,0
</chunk>
   <chunk x="-16" y="-144" width="16" height="16">
0,0,0,0,0,0,0,0,0,0,0,0,0,0,0,0,
0,0,0,0,0,0,0,0,0,0,0,0,0,0,0,0,
0,0,0,0,0,0,0,0,0,0,0,0,0,0,0,0,
0,0,0,0,0,0,0,0,0,0,0,0,0,0,0,0,
1,2,1,2,1,2,0,0,0,0,0,0,0,0,0,0,
13,14,13,14,13,14,0,0,0,0,0,0,0,0,0,0,
0,0,0,0,1,2,0,0,0,0,0,0,0,0,0,0,
0,0,0,0,13,14,0,0,0,0,0,0,0,0,0,0,
0,0,0,0,1,2,0,0,0,0,0,0,0,0,0,0,
0,0,0,0,13,14,0,0,0,0,0,0,0,0,0,0,
0,0,0,0,1,2,0,0,0,0,0,0,0,0,0,0,
0,0,0,0,13,14,0,0,0,0,0,0,0,0,0,0,
0,0,0,0,1,2,0,0,0,0,0,0,0,0,0,0,
0,0,0,0,13,14,0,0,0,0,0,0,0,0,0,0,
0,0,0,0,1,2,0,0,0,0,0,0,0,0,0,0,
0,0,0,0,13,14,0,0,0,0,0,0,0,0,0,0
</chunk>
   <chunk x="-112" y="-128" width="16" height="16">
0,0,0,0,0,0,0,0,0,0,0,0,1,2,0,0,
0,0,0,0,0,0,0,0,0,0,0,0,13,14,0,0,
0,0,0,0,0,0,0,0,0,0,0,0,1,2,0,0,
0,0,0,0,0,0,0,0,0,0,0,0,13,14,0,0,
0,0,0,0,0,0,0,0,0,0,0,0,1,2,0,0,
0,0,0,0,0,0,0,0,0,0,0,0,13,14,0,0,
0,0,0,0,0,0,0,0,0,0,0,0,1,2,0,0,
0,0,0,0,0,0,0,0,0,0,0,0,13,14,0,0,
0,0,0,0,0,0,0,0,0,0,0,0,1,2,0,0,
0,0,0,0,0,0,0,0,0,0,0,0,13,14,0,0,
0,0,0,0,0,0,0,0,0,0,0,0,1,2,0,0,
0,0,0,0,0,0,0,0,0,0,0,0,13,14,0,0,
0,0,0,0,0,0,0,0,0,0,0,0,1,2,0,0,
0,0,0,0,0,0,0,0,0,0,0,0,13,14,0,0,
0,0,0,0,0,0,0,0,0,0,0,0,1,2,0,0,
0,0,0,0,0,0,0,0,0,0,0,0,13,14,0,0
</chunk>
   <chunk x="-96" y="-128" width="16" height="16">
0,0,0,0,0,0,0,0,0,0,0,0,0,0,0,0,
0,0,0,0,0,0,0,0,0,0,0,0,0,0,0,0,
0,0,0,0,0,0,0,0,0,0,0,0,0,0,0,0,
0,0,0,0,0,0,0,0,0,0,0,0,0,0,0,0,
0,0,0,0,0,0,0,0,0,0,0,0,0,0,0,0,
0,0,0,0,0,0,0,0,0,0,0,0,0,0,0,0,
0,0,0,0,1,2,1,2,1,2,1,2,1,2,1,2,
0,0,0,0,13,14,13,14,13,14,13,14,13,14,13,14,
0,0,0,0,1,2,0,0,0,0,0,0,0,0,0,0,
0,0,0,0,13,14,0,0,0,0,0,0,0,0,0,0,
0,0,0,0,1,2,0,0,0,0,0,0,0,0,0,0,
0,0,0,0,13,14,0,0,0,0,0,0,0,0,0,0,
0,0,0,0,1,2,0,0,0,0,0,0,0,0,0,0,
0,0,0,0,13,14,0,0,0,0,0,0,0,0,0,0,
0,0,0,0,1,2,0,0,0,0,0,0,0,0,0,0,
0,0,0,0,13,14,0,0,0,0,0,0,0,0,0,0
</chunk>
   <chunk x="-80" y="-128" width="16" height="16">
0,0,0,0,0,0,0,0,0,0,0,0,0,0,0,0,
0,0,0,0,0,0,0,0,0,0,0,0,0,0,0,0,
0,0,0,0,0,0,0,0,0,0,0,0,0,0,0,0,
0,0,0,0,0,0,0,0,0,0,0,0,0,0,0,0,
0,0,0,0,0,0,0,0,0,0,0,0,0,0,0,0,
0,0,0,0,0,0,0,0,0,0,0,0,0,0,0,0,
1,2,1,2,1,2,1,2,1,2,1,2,1,2,1,2,
13,14,13,14,13,14,13,14,13,14,13,14,13,14,13,14,
0,0,0,0,0,0,0,0,0,0,0,0,0,0,0,0,
0,0,0,0,0,0,0,0,0,0,0,0,0,0,0,0,
0,0,0,0,0,0,0,0,0,0,0,0,0,0,0,0,
0,0,0,0,0,0,0,0,0,0,0,0,0,0,0,0,
0,0,0,0,0,0,0,0,0,0,0,0,0,0,0,0,
0,0,0,0,0,0,0,0,0,0,0,0,0,0,0,0,
0,0,0,0,0,0,0,0,0,0,0,0,0,0,0,0,
0,0,0,0,0,0,0,0,0,0,0,0,0,0,0,0
</chunk>
   <chunk x="-64" y="-128" width="16" height="16">
0,0,0,0,0,0,0,0,0,0,0,0,0,0,0,0,
0,0,0,0,0,0,0,0,0,0,0,0,0,0,0,0,
0,0,0,0,0,0,0,0,0,0,0,0,0,0,0,0,
0,0,0,0,0,0,0,0,0,0,0,0,0,0,0,0,
0,0,0,0,0,0,0,0,0,0,0,0,0,0,0,0,
0,0,0,0,0,0,0,0,0,0,0,0,0,0,0,0,
1,2,1,2,1,2,1,2,1,2,1,2,1,2,1,2,
13,14,13,14,13,14,13,14,13,14,13,14,13,14,13,14,
0,0,0,0,0,0,0,0,0,0,0,0,0,0,0,0,
0,0,0,0,0,0,0,0,0,0,0,0,0,0,0,0,
0,0,0,0,0,0,0,0,0,0,0,0,0,0,0,0,
0,0,0,0,0,0,0,0,0,0,0,0,0,0,0,0,
0,0,0,0,0,0,0,0,0,0,0,0,0,0,0,0,
0,0,0,0,0,0,0,0,0,0,0,0,0,0,0,0,
0,0,0,0,0,0,0,0,0,0,0,0,0,0,0,0,
0,0,0,0,0,0,0,0,0,0,0,0,0,0,0,0
</chunk>
   <chunk x="-48" y="-128" width="16" height="16">
0,0,0,0,0,0,0,0,0,0,0,0,0,0,0,0,
0,0,0,0,0,0,0,0,0,0,0,0,0,0,0,0,
0,0,0,0,0,0,0,0,0,0,0,0,0,0,0,0,
0,0,0,0,0,0,0,0,0,0,0,0,0,0,0,0,
0,0,0,0,0,0,0,0,0,0,0,0,0,0,0,0,
0,0,0,0,0,0,0,0,0,0,0,0,0,0,0,0,
1,2,1,2,1,2,1,2,1,2,0,0,0,0,0,0,
13,14,13,14,13,14,13,14,13,14,0,0,0,0,0,0,
0,0,0,0,0,0,0,0,1,2,0,0,0,0,0,28,
0,0,0,0,0,0,0,0,13,14,0,0,0,0,0,41,
0,0,0,0,0,0,0,0,1,2,0,0,0,0,0,53,
0,0,0,0,0,0,0,0,13,14,0,0,0,0,0,0,
0,0,0,0,0,0,0,0,1,2,0,0,0,0,0,0,
0,0,0,0,0,0,0,0,13,14,0,0,0,0,0,0,
0,0,0,0,0,0,0,0,1,2,0,0,0,0,0,0,
0,0,0,0,0,0,0,0,13,14,0,0,0,0,0,0
</chunk>
   <chunk x="-32" y="-128" width="16" height="16">
0,0,53,54,56,0,0,0,0,0,0,0,0,0,0,0,
0,0,0,0,0,0,0,0,0,0,0,0,0,0,0,0,
0,0,0,0,0,0,0,0,0,0,0,0,0,0,0,0,
0,0,0,0,0,0,0,0,0,0,0,0,0,0,0,0,
0,0,0,0,0,0,0,0,0,0,0,0,0,0,0,0,
0,0,0,0,0,0,0,0,0,28,29,31,0,0,0,0,
0,0,0,0,0,0,0,0,0,41,42,43,0,0,0,0,
0,0,0,0,0,0,0,0,0,53,54,56,0,0,0,0,
29,31,0,0,0,0,0,0,0,0,0,0,0,0,0,0,
42,43,0,0,0,0,0,0,0,0,0,0,0,0,0,0,
54,56,0,0,0,0,0,0,0,0,0,0,0,0,0,0,
0,0,0,0,0,0,0,0,0,0,0,0,0,0,0,0,
0,0,0,0,0,0,0,0,0,0,0,0,0,0,0,0,
0,0,0,0,0,0,0,0,0,0,0,0,0,0,0,0,
0,0,0,0,0,0,0,0,0,0,0,0,0,0,0,0,
0,0,0,0,0,0,0,0,0,0,0,0,0,0,0,0
</chunk>
   <chunk x="-16" y="-128" width="16" height="16">
0,0,0,0,1,2,0,0,0,0,0,0,0,0,0,0,
0,0,0,0,13,14,0,0,0,0,0,0,0,0,0,0,
0,0,0,0,1,2,0,0,0,0,0,0,0,0,0,0,
0,0,0,0,13,14,0,0,0,0,0,0,0,0,0,0,
0,0,0,0,1,2,0,0,0,0,0,0,0,0,0,0,
0,0,0,0,13,14,0,0,0,0,0,0,0,0,0,0,
0,0,0,0,1,2,0,0,0,0,0,0,0,0,0,0,
0,0,0,0,13,14,0,0,0,0,0,0,0,0,0,0,
0,0,0,0,1,2,0,0,0,0,0,0,0,0,0,0,
0,0,0,0,13,14,0,0,0,0,0,0,0,0,0,0,
0,0,0,0,1,2,0,0,0,0,0,0,0,0,0,0,
0,0,0,0,13,14,0,0,0,0,0,0,0,0,0,0,
0,0,0,0,1,2,0,0,0,0,0,0,0,0,0,0,
0,0,0,0,13,14,0,0,0,0,0,0,0,0,0,0,
0,0,0,0,1,2,0,0,0,0,0,0,0,0,0,0,
0,0,0,0,13,14,0,0,0,0,0,0,0,0,0,0
</chunk>
   <chunk x="-112" y="-112" width="16" height="16">
0,0,0,0,0,0,0,0,0,0,0,0,1,2,0,0,
0,0,0,0,0,0,0,0,0,0,0,0,13,14,0,0,
0,0,0,0,0,0,0,0,0,0,0,0,1,2,0,0,
0,0,0,0,0,0,0,0,0,0,0,0,13,14,0,0,
0,0,0,0,0,0,0,0,0,0,0,0,1,2,0,0,
0,0,0,0,0,0,0,0,0,0,0,0,13,14,0,0,
0,0,0,0,0,0,0,0,0,0,0,0,1,2,0,0,
0,0,0,0,0,0,0,0,0,0,0,0,13,14,0,0,
0,0,0,0,0,0,0,0,0,0,0,0,1,2,0,0,
0,0,0,0,0,0,0,0,0,0,0,0,13,14,0,0,
0,0,0,0,0,0,0,0,0,0,0,0,1,2,0,0,
0,0,0,0,0,0,0,0,0,0,0,0,13,14,0,0,
0,0,0,0,0,0,0,0,0,0,0,0,1,2,0,0,
0,0,0,0,0,0,0,0,0,0,0,0,13,14,0,0,
0,0,0,0,0,0,0,0,0,0,0,0,1,2,0,0,
0,0,0,0,0,0,0,0,0,0,0,0,13,14,0,0
</chunk>
   <chunk x="-96" y="-112" width="16" height="16">
0,0,0,0,1,2,0,0,0,0,0,0,0,0,0,0,
0,0,0,0,13,14,0,0,0,0,0,0,0,0,0,0,
0,0,0,0,1,2,0,0,0,0,0,0,0,0,0,0,
0,0,0,0,13,14,0,0,0,0,0,0,0,0,0,0,
0,0,0,0,1,2,0,0,0,0,0,0,0,0,0,0,
0,0,0,0,13,14,0,0,0,0,0,0,0,0,0,0,
0,0,0,0,1,2,0,0,0,0,0,0,0,0,0,0,
0,0,0,0,13,14,0,0,0,0,0,0,0,0,0,0,
0,0,0,0,1,2,0,0,0,0,0,0,0,0,0,0,
0,0,0,0,13,14,0,0,0,0,0,0,0,0,0,0,
0,0,0,0,1,2,0,0,0,0,0,0,0,0,0,0,
0,0,0,0,13,14,0,0,0,0,0,0,0,0,0,0,
0,0,0,0,1,2,0,0,0,0,0,0,0,0,0,0,
0,0,0,0,13,14,0,0,0,0,0,0,0,0,0,0,
0,0,0,0,1,2,0,0,0,0,0,0,0,0,0,0,
0,0,0,0,13,14,0,0,0,0,0,0,0,0,0,0
</chunk>
   <chunk x="-48" y="-112" width="16" height="16">
0,0,0,0,0,0,0,0,1,2,1,2,1,2,1,2,
0,0,0,0,0,0,0,0,13,14,13,14,13,14,13,14,
0,0,0,0,0,0,0,0,0,0,0,0,0,0,0,0,
0,0,0,0,0,0,0,0,0,0,0,0,0,0,0,0,
0,0,0,0,0,0,0,0,0,0,0,0,0,0,0,0,
0,0,0,0,0,0,0,0,0,0,0,0,0,0,0,0,
0,0,0,0,0,0,0,0,0,0,0,0,0,0,0,0,
0,0,0,0,0,0,0,0,0,0,0,0,0,0,0,0,
0,0,0,0,0,0,0,0,0,0,0,0,0,0,0,0,
0,0,0,0,0,0,0,0,0,0,0,0,0,0,0,0,
0,0,0,0,0,0,0,0,0,0,0,0,0,0,0,0,
0,0,0,0,0,0,0,0,0,0,0,0,0,0,0,0,
0,0,0,0,0,0,0,0,0,0,0,0,0,0,0,0,
0,0,0,0,0,0,0,0,0,0,0,0,0,0,0,0,
0,0,0,0,0,0,0,0,0,0,0,0,0,0,0,0,
0,0,0,0,0,0,0,0,0,0,0,0,0,0,0,0
</chunk>
   <chunk x="-32" y="-112" width="16" height="16">
1,2,1,2,1,2,1,2,1,2,1,2,1,2,1,2,
13,14,13,14,13,14,13,14,13,14,13,14,13,14,13,14,
0,0,0,0,0,0,0,0,0,0,0,0,0,0,0,0,
0,0,0,0,0,0,0,0,0,0,0,0,0,0,0,0,
0,0,0,0,0,0,0,0,0,0,0,0,0,0,0,0,
0,0,0,0,0,0,0,0,0,0,0,0,0,0,0,0,
0,0,0,0,0,0,0,0,0,0,0,0,0,0,0,0,
0,0,0,0,0,0,0,0,0,0,0,0,0,0,0,0,
0,0,0,0,0,0,0,0,0,0,0,0,0,0,0,0,
0,0,0,0,0,0,0,0,0,0,0,0,0,0,0,0,
0,0,0,0,0,0,0,0,0,0,0,0,0,0,0,0,
0,0,0,0,0,0,0,0,0,0,0,0,0,0,0,0,
0,0,0,0,0,0,0,0,0,0,0,0,0,0,0,0,
0,0,0,0,0,0,0,0,0,0,0,0,0,0,0,0,
0,0,0,0,0,0,0,0,0,0,0,0,0,0,0,0,
0,0,0,0,0,0,0,0,0,0,0,0,0,0,0,0
</chunk>
   <chunk x="-16" y="-112" width="16" height="16">
1,2,1,2,1,2,0,0,0,0,0,0,0,0,0,0,
13,14,13,14,13,14,0,0,0,0,0,0,0,0,0,0,
0,0,0,0,0,0,0,0,0,0,0,0,0,0,0,0,
0,0,0,0,0,0,0,0,0,0,0,0,0,0,0,0,
0,0,0,0,0,0,0,0,0,0,0,0,0,0,0,0,
0,0,0,0,0,0,0,0,0,0,0,0,0,0,0,0,
0,0,0,0,0,0,0,0,0,0,0,0,0,0,0,0,
0,0,0,0,0,0,0,0,0,0,0,0,0,0,0,0,
0,0,0,0,0,0,0,0,0,0,0,0,0,0,0,0,
0,0,0,0,0,0,0,0,0,0,0,0,0,0,0,0,
0,0,0,0,0,0,0,0,0,0,0,0,0,0,0,0,
0,0,0,0,0,0,0,0,0,0,0,0,0,0,0,0,
0,0,0,0,0,0,0,0,0,0,0,0,0,0,0,0,
0,0,0,0,0,0,0,0,0,0,0,0,0,0,0,0,
0,0,0,0,0,0,0,0,0,0,0,0,0,0,0,0,
0,0,0,0,0,0,0,0,0,0,0,0,0,0,0,0
</chunk>
   <chunk x="-112" y="-96" width="16" height="16">
0,0,0,0,0,0,0,0,0,0,0,0,1,2,0,0,
0,0,0,0,0,0,0,0,0,0,0,0,13,14,0,0,
0,0,0,0,0,0,0,0,0,0,0,0,1,2,0,0,
0,0,0,0,0,0,0,0,0,0,0,0,13,14,0,0,
0,0,0,0,0,0,0,0,0,0,0,0,1,2,0,0,
0,0,0,0,0,0,0,0,0,0,0,0,13,14,0,0,
0,0,0,0,0,0,0,0,0,0,0,0,1,2,0,0,
0,0,0,0,0,0,0,0,0,0,0,0,13,14,0,0,
0,0,0,0,0,0,0,0,0,0,0,0,1,2,0,0,
0,0,0,0,0,0,0,0,0,0,0,0,13,14,0,0,
0,0,0,0,0,0,0,0,0,0,0,0,1,2,0,0,
0,0,0,0,0,0,0,0,0,0,0,0,13,14,0,0,
0,0,0,0,0,0,0,0,0,0,0,0,1,2,0,0,
0,0,0,0,0,0,0,0,0,0,0,0,13,14,0,0,
0,0,0,0,0,0,0,0,0,0,0,0,1,2,1,2,
0,0,0,0,0,0,0,0,0,0,0,0,13,14,13,14
</chunk>
   <chunk x="-96" y="-96" width="16" height="16">
0,0,0,0,1,2,0,0,0,0,0,0,0,0,0,0,
0,0,0,0,13,14,0,0,0,0,0,0,0,0,0,0,
0,0,0,0,1,2,0,0,0,0,0,0,0,0,0,0,
0,0,0,0,13,14,0,0,0,0,0,0,0,0,0,0,
0,0,0,0,1,2,0,0,0,0,0,0,0,0,0,0,
0,0,0,0,13,14,0,0,0,0,0,0,0,0,0,0,
0,0,0,0,1,2,1,2,1,2,1,2,1,2,1,2,
0,0,0,0,13,14,13,14,13,14,13,14,13,14,13,14,
0,0,0,0,0,0,0,0,0,0,0,0,0,0,0,0,
0,0,0,0,0,0,0,0,0,0,0,0,0,0,0,0,
0,0,0,0,0,0,0,0,0,0,0,0,0,0,0,0,
0,0,0,0,0,0,0,0,0,0,0,0,0,0,0,0,
0,0,0,0,0,0,0,0,0,0,0,0,0,0,0,0,
0,0,0,0,0,0,0,0,0,0,0,0,0,0,0,0,
1,2,1,2,1,2,1,2,1,2,1,2,1,2,1,2,
13,14,13,14,13,14,13,14,13,14,13,14,13,14,13,14
</chunk>
   <chunk x="-80" y="-96" width="16" height="16">
0,0,0,0,0,0,0,0,0,0,0,0,0,0,0,0,
0,0,0,0,0,0,0,0,0,0,0,0,0,0,0,0,
0,0,0,0,0,0,0,0,0,0,0,0,0,0,0,0,
0,0,0,0,0,0,0,0,0,0,0,0,0,0,0,0,
0,0,0,0,0,0,0,0,0,0,0,0,0,0,0,0,
0,0,0,0,0,0,0,0,0,0,0,0,0,0,0,0,
1,2,1,2,1,2,1,2,1,2,1,2,1,2,1,2,
13,14,13,14,13,14,13,14,13,14,13,14,13,14,13,14,
0,0,0,0,0,0,0,0,0,0,0,0,0,0,0,0,
0,0,0,0,0,0,0,0,0,0,0,0,0,0,0,0,
0,0,0,0,0,0,0,0,0,0,0,0,0,0,0,0,
0,0,0,0,0,0,0,0,0,0,0,0,0,0,0,0,
0,0,0,0,0,0,0,0,0,0,0,0,0,0,0,0,
0,0,0,0,0,0,0,0,0,0,0,0,0,0,0,0,
1,2,1,2,1,2,1,2,1,2,1,2,1,2,1,2,
13,14,13,14,13,14,13,14,13,14,13,14,13,14,13,14
</chunk>
   <chunk x="-64" y="-96" width="16" height="16">
0,0,0,0,0,0,0,0,0,0,0,0,0,0,0,0,
0,0,0,0,0,0,0,0,0,0,0,0,0,0,0,0,
0,0,0,0,0,0,0,0,0,0,0,0,0,0,0,0,
0,0,0,0,0,0,0,0,0,0,0,0,0,0,0,0,
0,0,0,0,0,0,0,0,0,0,0,0,0,0,0,0,
0,0,0,0,0,0,0,0,0,0,0,0,0,0,0,0,
1,2,1,2,1,2,1,2,1,2,1,2,1,2,0,0,
13,14,13,14,13,14,13,14,13,14,13,14,13,14,0,0,
0,0,0,0,0,0,0,0,0,0,0,0,1,2,0,0,
0,0,0,0,0,0,0,0,0,0,0,0,13,14,0,0,
0,0,0,0,0,0,0,0,0,0,0,0,1,2,0,0,
0,0,0,0,0,0,0,0,0,0,0,0,13,14,0,0,
0,0,0,0,0,0,0,0,0,0,0,0,1,2,0,0,
0,0,0,0,0,0,0,0,0,0,0,0,13,14,0,0,
1,2,1,2,1,2,0,0,0,0,0,0,1,2,0,0,
13,14,13,14,13,14,0,0,0,0,0,0,13,14,0,0
</chunk>
   <chunk x="-64" y="-80" width="16" height="16">
0,0,0,0,1,2,0,0,0,0,0,0,1,2,0,0,
0,0,0,0,13,14,0,0,0,0,0,0,13,14,0,0,
0,0,0,0,1,2,0,0,0,0,0,0,1,2,0,0,
0,0,0,0,13,14,0,0,0,0,0,0,13,14,0,0,
0,0,0,0,1,2,0,0,0,0,0,0,1,2,0,0,
0,0,0,0,13,14,0,0,0,0,0,0,13,14,0,0,
0,0,0,0,1,2,0,0,0,0,0,0,1,2,0,0,
0,0,0,0,13,14,0,0,0,0,0,0,13,14,0,0,
0,0,0,0,1,2,0,0,0,0,0,0,1,2,0,0,
0,0,0,0,13,14,0,0,0,0,0,0,13,14,0,0,
0,0,0,0,1,2,0,0,0,0,0,0,1,2,0,0,
0,0,0,0,13,14,0,0,0,0,0,0,13,14,0,0,
0,0,0,0,1,2,0,0,0,0,0,0,1,2,0,0,
0,0,0,0,13,14,0,0,0,0,0,0,13,14,0,0,
0,0,0,0,1,2,0,0,0,0,0,0,1,2,0,0,
0,0,0,0,13,14,0,0,0,0,0,0,13,14,0,0
</chunk>
   <chunk x="-64" y="-64" width="16" height="16">
0,0,0,0,1,2,0,0,0,0,0,0,1,2,0,0,
0,0,0,0,13,14,0,0,0,0,0,0,13,14,0,0,
0,0,0,0,1,2,0,0,0,0,0,0,1,2,0,0,
0,0,0,0,13,14,0,0,0,0,0,0,13,14,0,0,
0,0,0,0,0,0,0,0,0,0,0,0,0,0,0,0,
0,0,0,0,0,0,0,0,0,0,0,0,0,0,0,0,
0,0,0,0,0,0,0,0,0,0,0,0,28,29,31,0,
0,0,0,0,0,0,0,0,0,0,0,0,41,42,43,0,
0,0,0,0,0,0,0,0,0,0,0,0,53,54,56,0,
0,0,0,0,0,0,0,0,0,0,0,0,0,0,0,0,
0,0,0,0,0,0,0,0,0,0,0,0,0,0,0,0,
0,0,0,0,0,0,0,0,0,0,0,0,0,0,0,0,
0,0,0,0,0,0,0,0,0,0,0,0,0,0,0,0,
0,0,0,0,0,0,0,0,0,0,0,0,0,0,0,0,
0,0,0,0,0,0,0,0,0,0,0,0,0,0,0,0,
0,0,0,0,0,0,0,0,0,0,0,0,0,0,0,0
</chunk>
   <chunk x="-48" y="-64" width="16" height="16">
0,0,0,0,0,0,0,0,0,0,0,0,0,0,0,0,
0,0,0,0,0,0,0,0,0,0,0,0,0,0,0,0,
0,0,0,0,0,0,0,0,0,0,0,0,0,0,0,0,
0,0,0,0,0,0,0,0,0,0,0,0,0,0,0,0,
0,0,0,0,0,0,0,0,0,0,0,0,0,0,0,0,
0,0,0,0,0,0,0,0,0,0,0,0,0,0,0,0,
0,28,29,31,0,0,0,0,0,0,0,0,0,0,0,0,
0,41,42,43,0,0,0,0,0,0,0,0,0,0,0,0,
0,53,54,56,0,0,0,0,0,0,0,0,0,0,0,0,
0,0,0,0,0,0,0,0,0,0,0,0,0,0,0,0,
0,0,0,0,0,0,0,0,0,0,0,0,0,0,0,0,
0,0,0,0,0,0,0,0,0,0,0,0,0,0,0,0,
0,0,0,0,0,0,0,0,0,0,0,0,0,0,0,0,
0,0,0,0,0,0,0,0,0,0,0,0,0,0,0,0,
0,0,0,0,0,0,0,0,0,0,0,0,0,0,0,0,
0,0,0,0,0,0,0,0,0,0,0,0,0,0,0,0
</chunk>
   <chunk x="-64" y="-48" width="16" height="16">
0,0,0,0,0,0,0,0,0,0,0,0,0,0,0,0,
0,0,0,0,0,0,0,0,0,0,0,0,0,28,29,31,
0,0,0,0,0,0,0,0,0,0,0,0,0,41,42,43,
0,0,0,0,0,0,0,0,0,0,0,0,0,53,54,56,
0,0,0,0,0,0,0,0,0,0,0,0,0,0,0,0,
0,0,0,0,0,0,0,0,0,0,0,0,0,0,0,0,
0,0,0,0,0,0,0,0,0,0,0,0,0,0,0,0,
0,0,0,0,0,0,0,0,0,0,0,0,0,0,0,0,
0,0,0,0,0,0,0,0,0,0,0,0,0,0,1,2,
0,0,0,0,0,0,0,0,0,0,0,0,0,0,13,14,
0,0,0,0,0,0,0,0,0,0,0,0,0,0,1,2,
0,0,0,0,0,0,0,0,0,0,0,0,0,0,13,14,
0,0,0,0,0,0,0,0,0,0,0,0,0,0,1,2,
0,0,0,0,0,0,0,0,0,0,0,0,0,0,13,14,
0,0,0,0,0,0,0,0,0,0,0,0,0,0,1,2,
0,0,0,0,0,0,0,0,0,0,0,0,0,0,13,14
</chunk>
   <chunk x="-48" y="-48" width="16" height="16">
0,0,0,0,0,0,0,0,0,0,0,0,0,0,0,0,
0,0,0,0,0,0,0,0,0,0,0,0,0,0,0,0,
0,0,0,0,0,0,0,0,0,0,0,0,0,0,0,0,
0,0,0,0,0,0,0,0,0,0,0,0,0,0,0,0,
0,0,0,0,0,0,0,0,0,0,0,0,0,0,0,0,
0,0,0,0,0,0,0,0,0,0,0,0,0,0,0,0,
0,0,0,0,0,0,0,0,0,0,0,0,0,0,0,0,
0,0,0,0,0,0,0,0,0,0,0,0,0,0,0,0,
0,0,0,0,0,0,1,2,0,0,0,0,0,0,0,0,
0,0,0,0,0,0,13,14,0,0,0,0,0,0,0,0,
0,0,0,0,0,0,1,2,0,0,0,0,0,0,0,0,
0,0,0,0,0,0,13,14,0,0,0,0,0,0,0,0,
0,0,0,0,0,0,1,2,0,0,0,0,0,0,0,0,
0,0,0,0,0,0,13,14,0,0,0,0,0,0,0,0,
0,0,0,0,0,0,1,2,0,0,0,0,0,0,0,0,
0,0,0,0,0,0,13,14,0,0,0,0,0,0,0,0
</chunk>
   <chunk x="-64" y="-32" width="16" height="16">
0,0,0,0,0,0,0,0,0,0,0,0,0,0,1,2,
0,0,0,0,0,0,0,0,0,0,0,0,0,0,13,14,
0,0,0,0,0,0,0,0,0,0,0,0,0,0,1,2,
0,0,0,0,0,0,0,0,0,0,0,0,0,0,13,14,
0,0,0,0,0,0,0,0,0,0,0,0,0,0,1,2,
0,0,0,0,0,0,0,0,0,0,0,0,0,0,13,14,
0,0,0,0,0,0,0,0,0,0,0,0,0,0,1,2,
0,0,0,0,0,0,0,0,0,0,0,0,0,0,13,14,
0,0,0,0,0,0,0,0,0,0,0,0,0,0,1,2,
0,0,0,0,0,0,0,0,0,0,0,0,0,0,13,14,
0,0,0,0,0,0,0,0,0,0,0,0,0,0,1,2,
0,0,0,0,0,0,0,0,0,0,0,0,0,0,13,14,
0,0,0,0,0,0,0,0,0,0,0,0,0,0,1,2,
0,0,0,0,0,0,0,0,0,0,0,0,0,0,13,14,
0,0,0,0,0,0,0,0,0,0,0,0,0,0,1,2,
0,0,0,0,0,0,0,0,0,0,0,0,0,0,13,14
</chunk>
   <chunk x="-48" y="-32" width="16" height="16">
0,0,0,0,0,0,1,2,0,0,0,0,0,0,0,0,
0,0,0,0,0,0,13,14,0,0,0,0,0,0,0,0,
0,0,0,0,0,0,1,2,0,0,0,0,0,0,0,0,
0,0,0,0,0,0,13,14,0,0,0,0,0,0,0,0,
0,0,0,0,0,0,1,2,0,0,0,0,0,0,0,0,
0,0,0,0,0,0,13,14,0,0,0,0,0,0,0,0,
0,0,0,0,0,0,1,2,0,0,0,0,0,0,0,0,
0,0,0,0,0,0,13,14,0,0,0,0,0,0,0,0,
0,0,0,0,0,0,1,2,0,0,0,0,0,0,0,0,
0,0,0,0,0,0,13,14,0,0,0,0,0,0,0,0,
0,0,0,0,0,0,1,2,0,0,0,0,0,0,0,0,
0,0,0,0,0,0,13,14,0,0,0,0,0,0,0,0,
0,0,0,0,0,0,1,2,1,2,1,2,1,2,1,2,
0,0,0,0,0,0,13,14,13,14,13,14,13,14,13,14,
0,0,0,0,0,0,0,0,0,0,0,0,0,0,0,0,
0,0,0,0,0,0,0,0,0,0,0,0,0,0,0,0
</chunk>
   <chunk x="-32" y="-32" width="16" height="16">
0,0,0,0,0,0,0,0,0,0,0,0,0,0,0,0,
0,0,0,0,0,0,0,0,0,0,0,0,0,0,0,0,
0,0,0,0,0,0,0,0,0,0,0,0,0,0,0,0,
0,0,0,0,0,0,0,0,0,0,0,0,0,0,0,0,
0,0,0,0,0,0,0,0,0,0,0,0,0,0,0,0,
0,0,0,0,0,0,0,0,0,0,0,0,0,0,0,0,
0,0,0,0,0,0,0,0,0,0,0,0,0,0,0,0,
0,0,0,0,0,0,0,0,0,0,0,0,0,0,0,0,
0,0,0,0,0,0,0,0,0,0,0,0,0,0,0,0,
0,0,0,0,0,0,0,0,0,0,0,0,0,0,0,0,
0,0,0,0,0,0,0,0,0,0,0,0,0,0,0,0,
0,0,0,0,0,0,0,0,0,0,0,0,0,0,0,0,
1,2,1,2,1,2,1,2,1,2,1,2,1,2,1,2,
13,14,13,14,13,14,13,14,13,14,13,14,13,14,13,14,
0,0,0,0,0,0,0,0,0,0,0,0,0,0,0,0,
0,0,0,0,0,0,0,0,0,0,0,0,0,0,0,0
</chunk>
   <chunk x="-16" y="-32" width="16" height="16">
0,0,0,0,0,0,0,0,0,0,0,0,0,0,0,0,
0,0,0,0,0,0,0,0,0,0,0,0,0,0,0,0,
0,0,0,0,0,0,0,0,0,0,0,0,0,0,0,0,
0,0,0,0,0,0,0,0,0,0,0,0,0,0,0,0,
0,0,0,0,0,0,0,0,0,0,0,0,0,0,0,0,
0,0,0,0,0,0,0,0,0,0,0,0,0,0,0,0,
0,0,0,0,0,0,0,0,0,0,0,0,0,0,0,0,
0,0,0,0,0,0,0,0,0,0,0,0,0,0,0,0,
0,0,0,0,0,0,0,0,0,0,0,0,0,0,0,0,
0,0,0,0,0,0,0,0,0,0,0,0,0,0,0,0,
0,0,0,0,0,0,0,0,0,0,0,0,0,0,0,0,
0,0,0,0,0,0,0,0,0,0,0,0,0,0,0,0,
1,2,1,2,1,2,1,2,1,2,1,2,1,2,1,2,
13,14,13,14,13,14,13,14,13,14,13,14,13,14,13,14,
0,0,0,0,0,0,0,0,0,0,0,0,0,0,1,2,
0,0,0,0,0,0,0,0,0,0,0,0,0,0,13,14
</chunk>
   <chunk x="-64" y="-16" width="16" height="16">
0,0,0,0,0,0,0,0,0,0,0,0,0,0,1,2,
0,0,0,0,0,0,0,0,0,0,0,0,0,0,13,14,
0,0,0,0,0,0,0,0,0,0,0,0,0,0,1,2,
0,0,0,0,0,0,0,0,0,0,0,0,0,0,13,14,
0,0,0,0,0,0,0,0,0,0,0,0,0,0,1,2,
0,0,0,0,0,0,0,0,0,0,0,0,0,0,13,14,
0,0,0,0,0,0,0,0,0,0,0,0,0,0,1,2,
0,0,0,0,0,0,0,0,0,0,0,0,0,0,13,14,
0,0,0,0,0,0,0,0,0,0,0,0,0,0,1,2,
0,0,0,0,0,0,0,0,0,0,0,0,0,0,13,14,
0,0,0,0,0,0,0,0,0,0,0,0,0,0,1,2,
0,0,0,0,0,0,0,0,0,0,0,0,0,0,13,14,
0,0,0,0,0,0,0,0,0,0,0,0,0,0,1,2,
0,0,0,0,0,0,0,0,0,0,0,0,0,0,13,14,
0,0,0,0,0,0,0,0,0,0,0,0,0,0,1,2,
0,0,0,0,0,0,0,0,0,0,0,0,0,0,13,14
</chunk>
   <chunk x="-48" y="-16" width="16" height="16">
0,0,0,0,0,0,0,0,0,0,0,0,0,0,0,0,
0,0,0,0,0,0,0,0,0,0,0,0,0,0,0,0,
0,0,0,0,0,0,0,0,0,0,0,0,0,0,0,0,
0,0,0,0,0,0,0,0,0,0,0,0,0,0,0,0,
0,0,0,0,0,0,0,0,0,0,0,0,0,0,0,0,
0,0,0,0,0,0,0,0,0,0,0,0,0,0,0,0,
0,0,0,0,0,0,0,0,0,0,0,0,0,0,0,0,
0,0,0,0,0,0,0,0,0,0,0,0,0,0,0,0,
0,0,0,0,0,0,0,0,0,0,0,0,0,0,0,0,
0,0,0,0,0,0,0,0,0,0,0,0,0,0,0,0,
0,0,0,0,0,0,0,0,0,0,0,0,0,0,0,0,
0,0,0,0,0,0,0,0,0,0,0,0,0,0,0,0,
0,0,0,0,0,0,0,0,0,0,0,0,0,0,0,0,
0,0,0,0,0,0,0,0,0,0,0,0,0,0,0,0,
1,2,1,2,1,2,1,2,1,2,1,2,1,2,1,2,
13,14,13,14,13,14,13,14,13,14,13,14,13,14,13,14
</chunk>
   <chunk x="-32" y="-16" width="16" height="16">
0,0,0,0,0,0,0,0,0,0,0,0,0,0,0,0,
0,0,0,0,0,0,0,0,0,0,0,0,0,0,0,0,
0,0,0,0,0,0,0,0,0,0,0,0,0,0,0,0,
0,0,0,0,0,0,0,0,0,0,0,0,0,0,0,0,
0,0,0,0,0,0,0,0,0,0,1,2,1,2,1,2,
0,0,0,0,0,0,0,0,0,0,13,14,13,14,13,14,
0,0,0,0,0,0,28,29,31,0,1,2,0,0,0,0,
0,0,0,0,0,0,41,42,43,0,13,14,0,0,0,0,
0,0,0,0,0,0,53,54,56,0,1,2,0,0,0,0,
0,0,0,0,0,0,0,0,0,0,13,14,0,0,0,0,
0,0,0,0,0,0,0,0,0,0,1,2,0,0,0,0,
0,0,0,0,0,0,0,0,0,0,13,14,0,0,0,0,
0,0,0,0,0,0,0,0,0,0,1,2,0,0,0,0,
0,0,0,0,0,0,0,0,0,0,13,14,0,0,0,0,
1,2,1,2,1,2,1,2,1,2,1,2,0,0,0,0,
13,14,13,14,13,14,13,14,13,14,13,14,0,0,0,0
</chunk>
   <chunk x="-16" y="-16" width="16" height="16">
0,0,0,0,0,0,0,0,0,0,0,0,0,0,1,2,
0,0,0,0,0,0,0,0,0,0,0,0,0,0,13,14,
0,0,0,0,0,0,0,0,0,0,0,0,0,0,1,2,
0,0,0,0,0,0,0,0,0,0,0,0,0,0,13,14,
1,2,1,2,1,2,1,2,0,0,0,0,0,0,1,2,
13,14,13,14,13,14,13,14,0,0,0,0,0,0,13,14,
0,0,0,0,0,0,1,2,0,0,0,0,0,0,1,2,
0,0,0,0,0,0,13,14,0,0,0,0,0,0,13,14,
0,0,0,0,0,0,1,2,0,0,0,0,0,0,1,2,
0,0,0,0,0,0,13,14,0,0,0,0,0,0,13,14,
0,0,0,0,0,0,1,2,0,0,0,0,0,0,1,2,
0,0,0,0,0,0,13,14,0,0,0,0,0,0,13,14,
0,0,0,0,0,0,1,2,0,0,0,0,0,0,1,2,
0,0,0,0,0,0,13,14,0,0,0,0,0,0,13,14,
0,0,0,0,0,0,1,2,0,0,0,0,0,0,1,2,
0,0,0,0,0,0,13,14,0,0,0,0,0,0,13,14
</chunk>
   <chunk x="48" y="-16" width="16" height="16">
0,0,0,0,0,0,0,0,0,0,0,0,0,0,0,0,
0,0,0,0,0,0,0,0,0,0,0,0,0,0,0,0,
0,0,0,0,0,0,0,0,0,0,0,0,0,0,0,0,
0,0,0,0,0,0,0,0,0,0,0,0,0,0,0,0,
0,0,0,0,0,0,0,0,0,0,0,0,0,0,0,0,
0,0,0,0,0,0,0,0,0,0,0,0,0,0,0,0,
0,0,1,2,0,0,0,0,0,0,0,0,0,0,0,0,
0,0,13,14,0,0,0,0,0,0,0,0,0,0,0,0,
0,0,1,2,0,0,0,0,0,0,0,0,0,0,0,0,
0,0,13,14,0,0,0,0,0,0,0,0,0,0,0,0,
0,0,1,2,0,0,0,0,0,0,0,0,0,0,0,0,
0,0,13,14,0,0,0,0,0,0,0,0,0,0,0,0,
0,0,1,2,0,0,0,0,0,0,0,0,0,0,0,0,
0,0,13,14,0,0,0,0,0,0,0,0,0,0,0,0,
0,0,1,2,0,0,0,0,0,0,0,0,0,0,0,0,
0,0,13,14,0,0,0,0,0,0,0,0,0,0,0,0
</chunk>
   <chunk x="-16" y="0" width="16" height="16">
0,0,0,0,0,0,1,2,0,0,0,0,0,0,1,2,
0,0,0,0,0,0,13,14,0,0,0,0,0,0,13,14,
0,0,0,0,0,0,1,2,0,0,0,0,0,0,1,2,
0,0,0,0,0,0,13,14,0,0,0,0,0,0,13,14,
0,0,0,0,0,0,1,2,0,0,0,0,0,0,1,2,
0,0,0,0,0,0,13,14,0,0,0,0,0,0,13,14,
0,0,0,0,0,0,1,2,0,0,0,0,0,0,1,2,
0,0,0,0,0,0,13,14,0,0,0,0,0,0,13,14,
0,0,0,0,0,0,1,2,0,0,0,0,0,0,1,2,
0,0,0,0,0,0,13,14,0,0,0,0,0,0,13,14,
0,0,0,0,0,0,1,2,0,0,0,0,0,0,1,2,
0,0,0,0,0,0,13,14,0,0,0,0,0,0,13,14,
0,0,0,0,0,0,1,2,0,0,0,0,0,0,1,2,
0,0,0,0,0,0,13,14,0,0,0,0,0,0,13,14,
0,0,0,0,0,0,1,2,0,0,0,0,0,0,1,2,
0,0,0,0,0,0,13,14,0,0,0,0,0,0,13,14
</chunk>
   <chunk x="48" y="0" width="16" height="16">
0,0,1,2,0,0,0,0,0,0,0,0,0,0,0,0,
0,0,13,14,0,0,0,0,0,0,0,0,0,0,0,0,
0,0,1,2,0,0,0,0,0,0,0,0,0,0,0,0,
0,0,13,14,0,0,0,0,0,0,0,0,0,0,0,0,
0,0,1,2,0,0,0,0,0,0,0,0,0,0,0,0,
0,0,13,14,0,0,0,0,0,0,0,0,0,0,0,0,
0,0,1,2,0,0,0,0,0,0,0,0,0,0,0,0,
0,0,13,14,0,0,0,0,0,0,0,0,0,0,0,0,
0,0,1,2,0,0,0,0,0,0,0,0,0,0,0,0,
0,0,13,14,0,0,0,0,0,0,0,0,0,0,0,0,
0,0,1,2,0,0,0,0,0,0,0,0,0,0,0,0,
0,0,13,14,0,0,0,0,0,0,0,0,0,0,0,0,
0,0,1,2,0,0,0,0,0,0,0,0,0,0,0,0,
0,0,13,14,0,0,0,0,0,0,0,0,0,0,0,0,
0,0,1,2,0,0,0,0,0,0,0,0,0,0,0,0,
0,0,13,14,0,0,0,0,0,0,0,0,0,0,0,0
</chunk>
   <chunk x="-32" y="16" width="16" height="16">
0,0,0,0,0,0,0,0,0,0,0,0,0,0,0,0,
0,0,0,0,0,0,0,0,0,0,0,0,0,0,0,0,
0,0,0,0,0,0,0,0,0,0,0,0,0,0,0,0,
0,0,0,0,0,0,0,0,0,0,0,0,0,0,0,0,
0,0,0,0,0,0,0,0,0,0,0,0,1,2,1,2,
0,0,0,0,0,0,0,0,0,0,0,0,13,14,13,14,
0,0,0,0,0,0,0,0,0,0,0,0,1,2,0,0,
0,0,0,0,0,0,0,0,0,0,0,0,13,14,0,0,
0,0,0,0,0,0,0,0,0,0,0,0,1,2,0,0,
0,0,0,0,0,0,0,0,0,0,0,0,13,14,0,0,
0,0,0,0,0,0,0,0,0,0,0,0,1,2,0,0,
0,0,0,0,0,0,0,0,0,0,0,0,13,14,0,0,
0,0,0,0,0,0,0,0,0,0,0,0,1,2,0,0,
0,0,0,0,0,0,0,0,0,0,0,0,13,14,0,0,
0,0,0,0,0,0,0,0,0,0,0,0,1,2,0,0,
0,0,0,0,0,0,0,0,0,0,0,0,13,14,0,0
</chunk>
   <chunk x="-16" y="16" width="16" height="16">
0,0,0,0,0,0,1,2,0,0,0,0,0,0,1,2,
0,0,0,0,0,0,13,14,0,0,0,0,0,0,13,14,
0,0,0,0,0,0,1,2,0,0,0,0,0,0,1,2,
0,0,0,0,0,0,13,14,0,0,0,0,0,0,13,14,
1,2,1,2,1,2,1,2,0,0,0,0,0,0,1,2,
13,14,13,14,13,14,13,14,0,0,0,0,0,0,13,14,
0,0,0,0,0,0,0,0,0,0,0,0,0,0,0,0,
0,0,0,0,0,0,0,0,0,0,0,0,0,0,0,0,
0,0,0,28,29,31,0,0,0,0,0,0,0,0,0,0,
0,0,0,41,42,43,0,0,0,0,0,0,0,0,0,0,
0,0,0,53,54,56,0,0,0,0,0,0,0,0,0,0,
0,0,0,0,0,0,0,0,0,0,0,0,0,0,0,0,
0,0,0,0,0,0,0,0,0,0,0,0,0,0,0,0,
0,0,0,0,0,0,0,0,0,0,0,0,0,0,0,0,
0,0,0,32,34,35,0,0,0,0,0,0,0,0,0,0,
0,0,0,45,46,47,0,0,0,0,0,0,0,0,0,0
</chunk>
   <chunk x="0" y="16" width="16" height="16">
0,0,0,0,0,0,0,0,0,0,0,0,0,0,0,0,
0,0,0,0,0,0,0,0,0,0,0,0,0,0,0,0,
0,0,0,0,0,0,0,0,0,0,0,0,0,0,0,0,
0,0,0,0,0,0,0,0,0,0,0,0,0,0,0,0,
1,2,1,2,1,2,1,2,1,2,1,2,1,2,1,2,
13,14,13,14,13,14,13,14,13,14,13,14,13,14,13,14,
0,0,0,0,0,0,0,0,0,0,0,0,0,0,0,0,
0,0,0,0,0,0,0,0,0,0,0,0,0,0,0,0,
28,29,31,0,0,0,0,0,0,0,0,0,0,0,0,0,
41,42,43,0,0,0,0,0,0,0,0,0,0,0,0,0,
53,54,56,0,0,0,0,0,0,0,0,0,0,0,0,0,
0,0,0,0,0,0,0,0,0,0,0,0,0,0,0,0,
0,0,0,0,0,0,0,0,0,0,0,0,0,0,0,0,
0,0,0,0,0,0,0,0,0,0,0,0,0,0,0,0,
32,34,35,0,0,0,0,0,0,0,0,0,0,0,0,0,
45,46,47,3,0,0,0,0,0,0,0,0,0,0,0,0
</chunk>
   <chunk x="16" y="16" width="16" height="16">
0,0,0,0,0,0,0,0,0,0,0,0,0,0,0,0,
0,0,0,0,0,0,0,0,0,0,0,0,0,0,0,0,
0,0,0,0,0,0,0,0,0,0,0,0,0,0,0,0,
0,0,0,0,0,0,0,0,0,0,0,0,0,0,0,0,
1,2,1,2,0,0,0,0,0,0,0,0,0,0,0,0,
13,14,13,14,0,0,0,0,0,0,0,0,0,0,0,0,
0,0,1,2,0,0,0,0,0,0,0,0,0,0,0,0,
0,0,13,14,0,0,0,0,0,0,0,0,0,0,0,0,
0,0,1,2,0,0,0,0,0,0,0,0,0,0,0,0,
0,0,13,14,0,0,0,0,0,0,0,0,0,0,0,0,
0,0,1,2,0,0,0,0,0,0,0,0,0,0,0,0,
0,0,13,14,0,0,0,0,0,0,0,0,0,0,0,0,
0,0,1,2,0,0,0,0,0,0,0,0,0,0,0,0,
0,0,13,14,0,0,0,0,0,0,0,0,0,0,0,0,
0,0,1,2,1,2,1,2,1,2,1,2,1,2,1,2,
0,0,13,14,13,14,13,14,13,14,13,14,13,14,13,14
</chunk>
   <chunk x="32" y="16" width="16" height="16">
0,0,0,0,0,0,0,0,0,0,0,0,0,0,0,0,
0,0,0,0,0,0,0,0,0,0,0,0,0,0,0,0,
0,0,0,0,0,0,0,0,0,0,0,0,0,0,0,0,
0,0,0,0,0,0,0,0,0,0,0,0,0,0,0,0,
0,0,0,0,0,0,0,0,0,0,0,0,0,0,0,0,
0,0,0,0,0,0,0,0,0,0,0,0,0,0,0,0,
0,0,0,0,0,0,0,0,0,0,0,0,0,0,0,0,
0,0,0,0,0,0,0,0,0,0,0,0,0,0,0,0,
0,0,0,0,0,0,0,0,0,0,0,0,0,0,0,0,
0,0,0,0,0,0,0,0,0,0,0,0,0,0,0,0,
0,0,0,0,0,0,0,0,0,0,0,0,0,0,0,0,
0,0,0,0,0,0,0,0,0,0,0,0,0,0,0,0,
0,0,0,0,0,0,0,0,0,0,0,0,0,0,0,0,
0,0,0,0,0,0,0,0,0,0,0,0,0,0,0,0,
1,2,1,2,1,2,1,2,1,2,1,2,1,2,1,2,
13,14,13,14,13,14,13,14,13,14,13,14,13,14,13,14
</chunk>
   <chunk x="48" y="16" width="16" height="16">
0,0,1,2,0,0,0,0,0,0,0,0,0,0,0,0,
0,0,13,14,0,0,0,0,0,0,0,0,0,0,0,0,
0,0,1,2,0,0,0,0,0,0,0,0,0,0,0,0,
0,0,13,14,0,0,0,0,0,0,0,0,0,0,0,0,
0,0,1,2,0,0,0,0,0,0,0,0,0,0,0,0,
0,0,13,14,0,0,0,0,0,0,0,0,0,0,0,0,
0,0,1,2,0,0,0,0,0,0,0,0,0,0,0,0,
0,0,13,14,0,0,0,0,0,0,0,0,0,0,0,0,
0,0,1,2,0,0,0,0,0,0,0,0,0,0,0,0,
0,0,13,14,0,0,0,0,0,0,0,0,0,0,0,0,
0,0,1,2,0,0,0,0,0,0,0,0,0,0,0,0,
0,0,13,14,0,0,0,0,0,0,0,0,0,0,0,0,
0,0,1,2,0,0,0,0,0,0,0,0,0,0,0,0,
0,0,13,14,0,0,0,0,0,0,0,0,0,0,0,0,
1,2,1,2,0,0,0,0,0,0,0,0,0,0,0,0,
13,14,13,14,0,0,0,0,0,0,0,0,0,0,0,0
</chunk>
   <chunk x="-32" y="32" width="16" height="16">
0,0,0,0,0,0,0,0,0,0,0,0,1,2,0,0,
0,0,0,0,0,0,0,0,0,0,0,0,13,14,0,0,
0,0,0,0,0,0,0,0,0,0,0,0,1,2,0,0,
0,0,0,0,0,0,0,0,0,0,0,0,13,14,0,0,
0,0,0,0,0,0,0,0,0,0,0,0,1,2,0,0,
0,0,0,0,0,0,0,0,0,0,0,0,13,14,0,0,
0,0,0,0,0,0,0,0,0,0,0,0,1,2,0,0,
0,0,0,0,0,0,0,0,0,0,0,0,13,14,0,0,
0,0,0,0,0,0,0,0,0,0,0,0,1,2,0,0,
0,0,0,0,0,0,0,0,0,0,0,0,13,14,0,0,
0,0,0,0,0,0,0,0,0,0,0,0,1,2,0,0,
0,0,0,0,0,0,0,0,0,0,0,0,13,14,0,0,
0,0,0,0,0,0,0,0,0,0,0,0,1,2,0,0,
0,0,0,0,0,0,0,0,0,0,0,0,13,14,0,0,
0,0,0,0,0,0,0,0,0,0,0,0,1,2,0,0,
0,0,0,0,0,0,0,0,0,0,0,0,13,14,0,0
</chunk>
   <chunk x="-16" y="32" width="16" height="16">
0,0,0,57,58,59,0,0,0,0,0,0,0,0,0,0,
0,0,0,0,0,0,0,0,0,0,0,0,0,0,0,0,
0,0,0,0,0,0,0,0,0,0,0,0,0,0,0,0,
0,0,0,0,0,0,0,0,0,0,0,0,0,0,0,0,
0,0,0,0,0,0,0,0,0,0,0,0,0,0,0,0,
0,0,0,0,0,0,0,0,0,0,0,0,0,0,0,0,
0,0,0,0,0,0,0,0,0,0,0,0,0,0,0,0,
0,0,0,0,0,0,0,0,0,0,0,0,0,0,0,0,
0,0,0,28,29,31,0,0,0,0,0,0,0,0,0,0,
0,0,0,41,42,43,0,0,0,0,0,0,0,0,0,0,
0,0,0,53,54,56,0,0,0,0,0,0,0,0,0,0,
0,0,0,0,0,0,0,0,0,0,0,0,0,0,0,0,
0,0,0,0,0,0,0,0,0,0,0,0,0,0,0,0,
0,0,0,0,0,0,0,0,0,0,0,0,0,0,0,0,
0,0,0,0,0,0,0,0,0,0,0,0,0,0,0,0,
0,0,0,0,0,0,0,0,0,0,0,0,0,0,0,0
</chunk>
   <chunk x="0" y="32" width="16" height="16">
57,58,59,15,0,0,0,0,0,0,0,0,0,0,0,0,
0,0,0,0,0,0,0,0,0,0,0,0,0,0,0,0,
0,0,0,0,0,0,0,0,0,0,0,0,0,0,0,0,
0,0,0,0,0,0,0,0,0,0,0,0,0,0,0,0,
0,0,0,0,0,0,0,0,0,0,0,0,0,0,0,0,
0,0,0,0,0,0,0,0,0,0,0,0,0,0,0,0,
0,0,0,0,0,0,0,0,0,0,0,0,0,0,0,0,
0,0,0,0,0,0,0,0,0,0,0,0,0,0,0,0,
28,29,31,0,0,0,0,0,32,34,35,0,32,34,35,0,
41,42,43,3,0,0,0,0,7,8,9,3,19,21,23,0,
53,54,56,15,0,0,0,0,57,58,59,15,57,58,59,0,
0,0,0,0,0,0,0,0,0,0,0,0,0,0,0,0,
0,0,0,0,0,0,0,0,0,0,0,0,0,0,0,0,
0,0,0,0,0,0,0,0,0,0,0,0,0,0,0,0,
0,0,0,0,0,0,0,0,0,0,0,0,0,0,0,0,
0,0,0,0,0,0,0,0,0,0,0,0,0,0,0,0
</chunk>
   <chunk x="16" y="32" width="16" height="16">
0,0,0,0,0,0,0,0,0,0,0,0,0,0,0,0,
0,0,0,0,0,0,0,0,0,0,0,0,0,0,0,0,
0,0,0,0,0,0,0,0,0,0,0,0,0,0,0,0,
0,0,0,0,0,0,0,0,0,0,0,0,0,0,0,0,
0,0,0,0,0,0,0,0,0,0,0,0,0,0,0,0,
0,0,0,0,0,0,0,0,0,0,0,0,0,0,0,0,
0,0,1,2,1,2,1,2,1,2,1,2,1,2,1,2,
0,0,13,14,13,14,13,14,13,14,13,14,13,14,13,14,
0,0,1,2,0,0,0,0,0,0,0,0,0,0,0,0,
0,0,13,14,0,0,0,0,0,0,0,0,0,0,0,0,
0,0,1,2,0,0,0,0,0,0,0,0,0,0,0,0,
0,0,13,14,0,0,0,0,0,0,0,0,0,0,0,0,
0,0,1,2,0,0,0,0,0,0,0,0,0,0,0,0,
0,0,13,14,0,0,0,0,0,0,0,0,0,0,0,0,
0,0,1,2,0,0,0,0,0,0,0,0,0,0,0,0,
0,0,13,14,0,0,0,0,0,0,0,0,0,0,0,0
</chunk>
   <chunk x="32" y="32" width="16" height="16">
0,0,0,0,0,0,0,0,0,0,0,0,0,0,0,0,
0,0,0,0,0,0,0,0,0,0,0,0,0,0,0,0,
0,0,0,0,0,0,0,0,0,0,0,0,0,0,0,0,
0,0,0,0,0,0,0,0,0,0,0,0,0,0,0,0,
0,0,0,0,0,0,0,0,0,0,0,0,0,0,0,0,
0,0,0,0,0,0,0,0,0,0,0,0,0,0,0,0,
1,2,1,2,1,2,1,2,1,2,1,2,1,2,1,2,
13,14,13,14,13,14,13,14,13,14,13,14,13,14,13,14,
0,0,0,0,0,0,0,0,0,0,0,0,0,0,0,0,
0,0,0,0,0,0,0,0,0,0,0,0,0,0,0,0,
0,0,0,0,0,0,0,0,0,0,0,0,0,0,0,0,
0,0,0,0,0,0,0,0,0,0,0,0,0,0,0,0,
0,0,0,0,0,0,0,0,0,0,0,0,0,0,0,0,
0,0,0,0,0,0,0,0,0,0,0,0,0,0,0,0,
0,0,0,0,0,0,0,0,0,0,0,0,0,0,0,0,
0,0,0,0,0,0,0,0,0,0,0,0,0,0,0,0
</chunk>
   <chunk x="48" y="32" width="16" height="16">
0,0,0,0,0,0,0,0,0,0,0,0,0,0,0,0,
0,0,0,0,0,0,0,0,0,0,0,0,0,0,0,0,
0,0,0,0,0,0,0,0,0,0,0,0,0,0,0,0,
0,0,0,0,0,0,0,0,0,0,0,0,0,0,0,0,
0,0,0,0,0,0,0,0,0,0,0,0,0,0,0,0,
0,0,0,0,0,0,0,0,0,0,0,0,0,0,0,0,
1,2,1,2,0,0,0,0,0,0,0,0,0,0,0,0,
13,14,13,14,0,0,0,0,0,0,0,0,0,0,0,0,
0,0,1,2,0,0,0,0,0,0,0,0,0,0,0,0,
0,0,13,14,0,0,0,0,0,0,0,0,0,0,0,0,
0,0,1,2,0,0,0,0,0,0,0,0,0,0,0,0,
0,0,13,14,0,0,0,0,0,0,0,0,0,0,0,0,
0,0,1,2,0,0,0,0,0,0,0,0,0,0,0,0,
0,0,13,14,0,0,0,0,0,0,0,0,0,0,0,0,
0,0,1,2,0,0,0,0,0,0,0,0,0,0,0,0,
0,0,13,14,0,0,0,0,0,0,0,0,0,0,0,0
</chunk>
   <chunk x="128" y="32" width="16" height="16">
0,0,0,0,0,0,0,0,0,0,0,0,0,0,0,0,
0,0,0,0,0,0,0,0,0,0,0,0,0,0,0,0,
0,0,0,0,0,0,0,0,0,0,0,0,0,0,0,0,
0,0,0,0,0,0,0,0,0,0,0,0,0,0,0,0,
0,0,0,0,0,0,0,0,0,0,0,0,0,0,0,0,
0,0,0,0,0,0,0,0,0,0,0,0,0,0,0,0,
0,0,0,0,0,0,0,0,0,0,0,0,0,0,0,0,
0,0,0,0,0,0,0,0,0,0,0,0,0,0,0,0,
0,0,0,0,0,0,0,0,0,0,0,0,1,2,1,2,
0,0,0,0,0,0,0,0,0,0,0,0,13,14,13,14,
0,0,0,0,0,0,0,0,0,0,0,0,0,0,0,0,
0,0,0,0,0,0,0,0,0,0,0,0,0,0,0,0,
0,0,0,0,0,0,0,0,0,0,0,0,0,0,0,0,
0,0,0,0,0,0,0,0,0,0,0,0,0,0,0,0,
0,0,0,0,0,0,0,0,0,0,0,0,0,0,0,0,
0,0,0,0,0,0,0,0,0,0,0,0,0,0,0,0
</chunk>
   <chunk x="144" y="32" width="16" height="16">
0,0,0,0,0,0,0,0,0,0,0,0,0,0,0,0,
0,0,0,0,0,0,0,0,0,0,0,0,0,0,0,0,
0,0,0,0,0,0,0,0,0,0,0,0,0,0,0,0,
0,0,0,0,0,0,0,0,0,0,0,0,0,0,0,0,
0,0,0,0,0,0,0,0,0,0,0,0,0,0,0,0,
0,0,0,0,0,0,0,0,0,0,0,0,0,0,0,0,
0,0,0,0,0,0,0,0,0,0,0,0,0,0,0,0,
0,0,0,0,0,0,0,0,0,0,0,0,0,0,0,0,
1,2,1,2,1,2,1,2,1,2,1,2,1,2,1,2,
13,14,13,14,13,14,13,14,13,14,13,14,13,14,13,14,
0,0,0,0,0,0,0,0,0,0,0,0,0,0,0,0,
0,0,0,0,0,0,0,0,0,0,0,0,0,0,0,0,
0,0,0,0,0,0,0,0,0,0,0,0,0,0,0,0,
0,0,0,0,0,0,0,0,0,0,0,0,0,0,0,0,
0,0,0,0,0,0,0,0,0,0,0,0,0,0,0,0,
0,0,0,0,0,0,0,0,0,0,0,0,0,0,0,0
</chunk>
   <chunk x="160" y="32" width="16" height="16">
0,0,0,0,0,0,0,0,0,0,0,0,0,0,0,0,
0,0,0,0,0,0,0,0,0,0,0,0,0,0,0,0,
0,0,0,0,0,0,0,0,0,0,0,0,0,0,0,0,
0,0,0,0,0,0,0,0,0,0,0,0,0,0,0,0,
0,0,0,0,0,0,0,0,0,0,0,0,0,0,0,0,
0,0,0,0,0,0,0,0,0,0,0,0,0,0,0,0,
0,0,0,0,0,0,0,0,0,0,0,0,0,0,0,0,
0,0,0,0,0,0,0,0,0,0,0,0,0,0,0,0,
1,2,1,2,1,2,1,2,1,2,1,2,1,2,1,2,
13,14,13,14,13,14,13,14,13,14,13,14,13,14,13,14,
0,0,0,0,0,0,0,0,0,0,0,0,0,0,0,0,
0,0,0,0,0,0,0,0,0,0,0,0,0,0,0,0,
0,0,0,0,0,0,0,0,0,0,0,0,0,0,0,0,
0,0,0,0,0,0,0,0,0,0,0,0,0,0,0,0,
0,0,0,0,0,0,0,0,0,0,0,0,0,0,0,0,
0,0,0,0,0,0,0,0,0,0,0,0,0,0,0,0
</chunk>
   <chunk x="176" y="32" width="16" height="16">
0,0,0,0,0,0,0,0,0,0,0,0,0,0,0,0,
0,0,0,0,0,0,0,0,0,0,0,0,0,0,0,0,
0,0,0,0,0,0,0,0,0,0,0,0,0,0,0,0,
0,0,0,0,0,0,0,0,0,0,0,0,0,0,0,0,
0,0,0,0,0,0,0,0,0,0,0,0,0,0,0,0,
0,0,0,0,0,0,0,0,0,0,0,0,0,0,0,0,
0,0,0,0,0,0,0,0,0,0,0,0,0,0,0,0,
0,0,0,0,0,0,0,0,0,0,0,0,0,0,0,0,
1,2,1,2,1,2,1,2,1,2,1,2,1,2,1,2,
13,14,13,14,13,14,13,14,13,14,13,14,13,14,13,14,
0,0,0,0,0,0,0,0,0,0,0,0,0,0,0,0,
0,0,0,0,0,0,0,0,0,0,0,0,0,0,0,0,
0,0,0,0,0,0,0,0,0,0,0,0,0,0,0,0,
0,0,0,0,0,0,0,0,0,0,0,0,0,0,0,0,
0,0,0,0,0,0,0,0,0,0,0,0,0,0,0,0,
0,0,0,0,0,0,0,0,0,0,0,0,0,0,0,0
</chunk>
   <chunk x="192" y="32" width="16" height="16">
0,0,0,0,0,0,0,0,0,0,0,0,0,0,0,0,
0,0,0,0,0,0,0,0,0,0,0,0,0,0,0,0,
0,0,0,0,0,0,0,0,0,0,0,0,0,0,0,0,
0,0,0,0,0,0,0,0,0,0,0,0,0,0,0,0,
0,0,0,0,0,0,0,0,0,0,0,0,0,0,0,0,
0,0,0,0,0,0,0,0,0,0,0,0,0,0,0,0,
0,0,0,0,0,0,0,0,0,0,0,0,0,0,0,0,
0,0,0,0,0,0,0,0,0,0,0,0,0,0,0,0,
1,2,1,2,1,2,1,2,0,0,0,0,0,0,0,0,
13,14,13,14,13,14,13,14,0,0,0,0,0,0,0,0,
0,0,0,0,0,0,1,2,0,0,0,0,0,0,0,0,
0,0,0,0,0,0,13,14,0,0,0,0,0,0,0,0,
0,0,0,0,0,0,1,2,0,0,0,0,0,0,0,0,
0,0,0,0,0,0,13,14,0,0,0,0,0,0,0,0,
0,0,0,0,0,0,1,2,0,0,0,0,0,0,0,0,
0,0,0,0,0,0,13,14,0,0,0,0,0,0,0,0
</chunk>
   <chunk x="-32" y="48" width="16" height="16">
0,0,0,0,0,0,0,0,0,0,0,0,1,2,1,2,
0,0,0,0,0,0,0,0,0,0,0,0,13,14,13,14,
0,0,0,0,0,0,0,0,0,0,0,0,0,0,0,0,
0,0,0,0,0,0,0,0,0,0,0,0,0,0,0,0,
0,0,0,0,0,0,0,0,0,0,0,0,0,0,0,0,
0,0,0,0,0,0,0,0,0,0,0,0,0,0,0,0,
0,0,0,0,0,0,0,0,0,0,0,0,0,0,0,0,
0,0,0,0,0,0,0,0,0,0,0,0,0,0,0,0,
0,0,0,0,0,0,0,0,0,0,0,0,0,0,0,0,
0,0,0,0,0,0,0,0,0,0,0,0,0,0,0,0,
0,0,0,0,0,0,0,0,0,0,0,0,0,0,0,0,
0,0,0,0,0,0,0,0,0,0,0,0,0,0,0,0,
0,0,0,0,0,0,0,0,0,0,0,0,0,0,0,0,
0,0,0,0,0,0,0,0,0,0,0,0,0,0,0,0,
0,0,0,0,0,0,0,0,0,0,0,0,0,0,0,0,
0,0,0,0,0,0,0,0,0,0,0,0,0,0,0,0
</chunk>
   <chunk x="-16" y="48" width="16" height="16">
1,2,1,2,1,2,1,2,0,0,1,2,1,2,1,2,
13,14,13,14,13,14,13,14,0,0,13,14,13,14,13,14,
0,0,0,0,0,0,1,2,0,0,0,0,0,0,1,2,
0,0,0,0,0,0,13,14,0,0,0,0,0,0,13,14,
0,0,0,0,0,0,1,2,0,0,0,0,0,0,1,2,
0,0,0,0,0,0,13,14,0,0,0,0,0,0,13,14,
0,0,0,0,0,0,1,2,0,0,0,0,0,0,1,2,
0,0,0,0,0,0,13,14,0,0,0,0,0,0,13,14,
0,0,0,0,0,0,1,2,0,0,0,0,0,0,1,2,
0,0,0,0,0,0,13,14,0,0,0,0,0,0,13,14,
0,0,0,0,0,0,1,2,0,0,0,0,0,0,1,2,
0,0,0,0,0,0,13,14,0,0,0,0,0,0,13,14,
0,0,0,0,0,0,1,2,0,0,0,0,0,0,1,2,
0,0,0,0,0,0,13,14,0,0,0,0,0,0,13,14,
0,0,0,0,0,0,1,2,0,0,0,0,0,0,1,2,
0,0,0,0,0,0,13,14,0,0,0,0,0,0,13,14
</chunk>
   <chunk x="0" y="48" width="16" height="16">
1,2,1,2,1,2,1,2,1,2,1,2,1,2,1,2,
13,14,13,14,13,14,13,14,13,14,13,14,13,14,13,14,
0,0,0,0,0,0,0,0,0,0,0,0,0,0,0,0,
0,0,0,0,0,0,0,0,0,0,0,0,0,0,0,0,
0,0,0,0,0,0,0,0,0,0,0,0,0,0,0,0,
0,0,0,0,0,0,0,0,0,0,0,0,0,0,0,0,
0,0,0,0,0,0,0,0,0,0,0,0,0,0,0,0,
0,0,0,0,0,0,0,0,0,0,0,0,0,0,0,0,
0,0,0,0,0,0,0,0,0,0,0,0,0,0,0,0,
0,0,0,0,0,0,0,0,0,0,0,0,0,0,0,0,
0,0,0,0,0,0,0,0,0,0,0,0,0,0,0,0,
0,0,0,0,0,0,0,0,0,0,0,0,0,0,0,0,
0,0,0,0,0,0,0,0,0,0,0,0,0,0,0,0,
0,0,0,0,0,0,0,0,0,0,0,0,0,0,0,0,
0,0,0,0,0,0,0,0,0,0,0,0,0,0,0,0,
0,0,0,0,0,0,0,0,0,0,0,0,0,0,0,0
</chunk>
   <chunk x="16" y="48" width="16" height="16">
1,2,1,2,0,0,0,0,0,0,0,0,0,0,0,0,
13,14,13,14,0,0,0,0,0,0,0,0,0,0,0,0,
0,0,0,0,0,0,0,0,0,0,0,0,0,0,0,0,
0,0,0,0,0,0,0,0,0,0,0,0,0,0,0,0,
0,0,0,0,0,0,0,0,0,0,0,0,0,0,0,0,
0,0,0,0,0,0,0,0,0,0,0,0,0,0,0,0,
0,0,0,0,0,0,0,0,0,0,0,0,0,0,0,0,
0,0,0,0,0,0,0,0,0,0,0,0,0,0,0,0,
0,0,0,0,0,0,0,0,0,0,0,0,0,0,0,0,
0,0,0,0,0,0,0,0,0,0,0,0,0,0,0,0,
0,0,0,0,0,0,0,0,0,0,0,0,0,0,0,0,
0,0,0,0,0,0,0,0,0,0,0,0,0,0,0,0,
0,0,0,0,0,0,0,0,0,0,0,0,0,0,0,0,
0,0,0,0,0,0,0,0,0,0,0,0,0,0,0,0,
0,0,0,0,0,0,0,0,0,0,0,0,0,0,0,0,
0,0,0,0,0,0,0,0,0,0,0,0,0,0,0,0
</chunk>
   <chunk x="48" y="48" width="16" height="16">
0,0,1,2,0,0,0,0,0,0,0,0,0,0,0,0,
0,0,13,14,0,0,0,0,0,0,0,0,0,0,0,0,
0,0,1,2,0,0,0,0,0,0,0,0,0,0,0,0,
0,0,13,14,0,0,0,0,0,0,0,0,0,0,0,0,
0,0,1,2,0,0,0,0,0,0,0,0,0,0,0,0,
0,0,13,14,0,0,0,0,0,0,0,0,0,0,0,0,
0,0,1,2,0,0,0,0,0,0,0,0,0,0,0,0,
0,0,13,14,0,0,0,0,0,0,0,0,0,0,0,0,
0,0,1,2,0,0,0,0,0,0,0,0,0,0,0,0,
0,0,13,14,0,0,0,0,0,0,0,0,0,0,0,0,
0,0,1,2,1,2,1,2,1,2,1,2,1,2,1,2,
0,0,13,14,13,14,13,14,13,14,13,14,13,14,13,14,
0,0,0,0,0,0,0,0,0,0,0,0,0,0,0,0,
0,0,0,0,0,0,0,0,0,0,0,0,0,0,0,0,
0,0,0,0,0,0,0,0,0,0,0,0,0,0,0,0,
0,0,0,0,0,0,0,0,0,0,0,0,0,0,0,0
</chunk>
   <chunk x="64" y="48" width="16" height="16">
0,0,0,0,0,0,0,0,0,0,0,0,0,0,0,0,
0,0,0,0,0,0,0,0,0,0,0,0,0,0,0,0,
0,0,0,0,0,0,0,0,0,0,0,0,0,0,0,0,
0,0,0,0,0,0,0,0,0,0,0,0,0,0,0,0,
0,0,0,0,0,0,0,0,0,0,0,0,0,0,0,0,
0,0,0,0,0,0,0,0,0,0,0,0,0,0,0,0,
0,0,0,0,0,0,0,0,0,0,0,0,0,0,0,0,
0,0,0,0,0,0,0,0,0,0,0,0,0,0,0,0,
0,0,0,0,0,0,0,0,0,0,0,0,0,0,0,0,
0,0,0,0,0,0,0,0,0,0,0,0,0,0,0,0,
1,2,1,2,1,2,1,2,1,2,1,2,1,2,1,2,
13,14,13,14,13,14,13,14,13,14,13,14,13,14,13,14,
0,0,0,0,0,0,0,0,0,0,0,0,0,0,0,0,
0,0,0,0,0,0,0,0,0,0,0,0,0,0,0,0,
0,0,0,0,0,0,0,0,0,0,0,0,0,0,0,0,
0,0,0,0,0,0,0,0,0,0,0,0,0,0,0,0
</chunk>
   <chunk x="80" y="48" width="16" height="16">
0,0,0,0,0,0,0,0,0,0,0,0,0,0,0,0,
0,0,0,0,0,0,0,0,0,0,0,0,0,0,0,0,
0,0,0,0,0,0,0,0,0,0,0,0,0,0,0,0,
0,0,0,0,0,0,0,0,0,0,0,0,0,0,0,0,
0,0,0,0,0,0,0,0,0,0,0,0,0,0,0,0,
0,0,0,0,0,0,0,0,0,0,0,0,0,0,0,0,
0,0,0,0,0,0,0,0,0,0,0,0,0,0,0,0,
0,0,0,0,0,0,0,0,0,0,0,0,0,0,0,0,
0,0,0,0,0,0,0,0,0,0,0,0,0,0,0,0,
0,0,0,0,0,0,0,0,0,0,0,0,0,0,0,0,
1,2,1,2,1,2,1,1,2,1,2,1,2,1,2,1,
13,14,13,14,13,14,13,13,14,13,14,13,14,13,14,13,
0,0,0,0,0,0,0,0,0,0,0,0,0,0,0,0,
0,0,0,0,0,0,0,0,0,0,0,0,0,0,0,0,
0,0,0,0,0,0,0,0,0,0,0,0,0,0,0,0,
0,0,0,0,0,0,0,0,0,0,0,0,0,0,0,0
</chunk>
   <chunk x="96" y="48" width="16" height="16">
0,0,0,0,0,0,0,0,0,0,0,0,0,0,0,0,
0,0,0,0,0,0,0,0,0,0,0,0,0,0,0,0,
0,0,0,0,0,0,0,0,0,0,0,0,0,0,0,0,
0,0,0,0,0,0,0,0,0,0,0,0,0,0,0,0,
0,0,0,0,0,0,0,0,0,0,0,0,0,0,0,0,
0,0,0,0,0,0,0,0,0,0,0,0,0,0,0,0,
0,0,0,0,0,0,0,0,0,0,0,0,0,0,0,0,
0,0,0,0,0,0,0,0,0,0,0,0,0,0,0,0,
0,0,0,0,0,0,0,0,0,0,0,0,0,0,0,0,
0,0,0,0,0,0,0,0,0,0,0,0,0,0,0,0,
2,1,2,1,2,1,2,1,2,1,2,1,2,1,2,1,
14,13,14,13,14,13,14,13,14,13,14,13,14,13,14,13,
0,0,0,0,0,0,0,0,0,0,0,0,0,0,0,0,
0,0,0,0,0,0,0,0,0,0,0,0,0,0,0,0,
0,0,0,0,0,0,0,0,0,0,0,0,0,0,0,0,
0,0,0,0,0,0,0,0,0,0,0,0,0,0,0,0
</chunk>
   <chunk x="112" y="48" width="16" height="16">
0,0,0,0,0,0,0,0,0,0,0,0,0,0,0,0,
0,0,0,0,0,0,0,0,0,0,0,0,0,0,0,0,
0,0,0,0,0,0,0,0,0,0,0,0,0,0,0,0,
0,0,0,0,0,0,0,0,0,0,0,0,0,0,0,0,
0,0,0,0,0,0,0,0,0,0,0,0,0,0,0,0,
0,0,0,0,0,0,0,0,0,0,0,0,0,0,0,0,
0,0,0,0,0,0,0,0,0,0,0,0,0,0,0,0,
0,0,0,0,0,0,0,0,0,0,0,0,0,0,0,0,
0,0,0,0,0,0,0,0,0,0,0,0,0,0,0,0,
0,0,0,0,0,0,0,0,0,0,0,0,0,0,0,0,
2,1,2,1,2,1,2,1,2,1,2,1,2,1,2,1,
14,13,14,13,14,13,14,13,14,13,14,13,14,13,14,13,
0,0,0,0,0,0,0,0,0,0,0,0,0,0,0,0,
0,0,0,0,0,0,0,0,0,0,0,0,0,0,0,0,
0,0,0,0,0,0,0,0,0,0,0,0,0,0,0,0,
0,0,0,0,0,0,0,0,0,0,0,0,0,0,0,0
</chunk>
   <chunk x="128" y="48" width="16" height="16">
0,0,0,0,0,0,0,0,0,0,1,2,1,2,1,2,
0,0,0,0,0,0,0,0,0,0,13,14,13,14,13,14,
0,0,0,0,0,0,0,0,0,0,1,2,0,0,0,0,
0,0,0,0,0,0,0,0,0,0,13,14,0,0,0,0,
0,0,0,0,0,0,0,0,0,0,1,2,0,0,0,0,
0,0,0,0,0,0,0,0,0,0,13,14,0,0,0,0,
0,0,0,0,0,0,0,0,0,0,1,2,0,0,0,0,
0,0,0,0,0,0,0,0,0,0,13,14,0,0,0,0,
0,0,0,0,0,0,0,0,0,0,1,2,0,0,0,0,
0,0,0,0,0,0,0,0,0,0,13,14,0,0,0,0,
2,1,2,1,2,1,2,1,2,1,1,2,0,0,0,0,
14,13,14,13,14,13,14,13,14,13,13,14,0,0,0,0,
0,0,0,0,0,0,0,0,0,0,0,0,0,0,0,0,
0,0,0,0,0,0,0,0,0,0,0,0,0,0,0,0,
0,0,0,0,0,0,0,0,0,0,0,0,0,0,0,0,
0,0,0,0,0,0,0,0,0,0,0,0,0,0,0,0
</chunk>
   <chunk x="144" y="48" width="16" height="16">
1,2,1,2,1,2,1,2,1,2,1,2,1,2,1,2,
13,14,13,14,13,14,13,14,13,14,13,14,13,14,13,14,
0,0,0,0,0,0,0,0,0,0,0,0,0,0,0,0,
0,0,0,0,0,0,0,0,0,0,0,0,0,0,0,0,
0,0,0,0,0,0,0,0,0,0,0,0,0,0,0,0,
0,0,0,0,0,0,0,0,0,0,0,0,0,0,0,0,
0,0,0,0,0,0,0,0,0,0,0,0,0,0,0,0,
0,0,0,0,0,0,0,0,0,0,0,0,0,0,0,0,
0,0,0,0,0,0,0,0,0,0,0,0,0,0,0,0,
0,0,0,0,0,0,0,0,0,0,0,0,0,0,0,0,
0,0,0,0,0,0,0,0,0,0,0,0,0,0,0,0,
0,0,0,0,0,0,0,0,0,0,0,0,0,0,0,0,
0,0,0,0,0,0,0,0,0,0,0,0,0,0,0,0,
0,0,0,0,0,0,0,0,0,0,0,0,0,0,0,0,
0,0,0,0,0,0,0,0,0,0,0,0,0,0,0,0,
0,0,0,0,0,0,0,0,0,0,0,0,0,0,0,0
</chunk>
   <chunk x="160" y="48" width="16" height="16">
1,2,1,2,1,2,1,2,1,2,1,2,0,0,0,0,
13,14,13,14,13,14,13,14,13,14,13,14,0,0,0,0,
0,0,0,0,0,0,0,0,0,0,1,2,0,0,32,34,
0,0,0,0,0,0,0,0,0,0,13,14,0,0,7,8,
0,0,0,0,0,0,0,0,0,0,1,2,0,0,57,58,
0,0,0,0,0,0,0,0,0,0,13,14,0,0,0,0,
0,0,0,0,0,0,0,0,0,0,1,2,0,0,0,0,
0,0,0,0,0,0,0,0,0,0,13,14,0,0,0,0,
0,0,0,0,0,0,0,0,0,0,1,2,0,0,0,0,
0,0,0,0,0,0,0,0,0,0,13,14,0,0,0,0,
0,0,0,0,0,0,0,0,0,0,1,2,0,0,0,0,
0,0,0,0,0,0,0,0,0,0,13,14,0,0,0,0,
0,0,0,0,0,0,0,0,0,0,1,2,0,0,0,0,
0,0,0,0,0,0,0,0,0,0,13,14,0,0,0,0,
0,0,0,0,0,0,0,0,0,0,1,2,0,0,0,0,
0,0,0,0,0,0,0,0,0,0,13,14,0,0,0,0
</chunk>
   <chunk x="176" y="48" width="16" height="16">
0,0,0,0,0,0,0,0,0,0,0,0,0,0,0,0,
0,0,0,0,0,0,0,0,0,0,0,0,0,0,0,0,
35,32,34,35,0,0,0,0,0,0,0,28,29,31,0,0,
9,19,21,23,0,0,0,0,0,0,0,41,42,43,0,0,
59,57,58,59,0,0,0,0,0,0,0,53,54,56,0,0,
0,0,0,0,0,0,0,0,0,0,0,0,0,0,0,0,
0,0,0,0,0,0,0,0,0,0,0,0,0,0,0,0,
0,0,0,0,0,0,0,0,0,0,0,0,0,0,0,0,
0,0,0,0,0,0,0,0,0,0,0,0,0,0,0,0,
0,28,29,31,0,0,0,0,0,0,0,0,0,0,0,0,
0,41,42,43,0,0,0,0,0,0,0,0,0,0,0,0,
0,53,54,56,0,0,0,0,0,0,0,0,0,0,0,0,
0,0,0,0,0,0,0,0,0,0,0,0,0,0,28,29,
0,0,0,0,0,0,0,0,0,0,0,0,0,0,41,42,
0,0,0,0,0,0,0,0,0,0,0,0,0,0,53,54,
0,0,0,0,0,0,0,0,0,0,0,0,0,0,0,0
</chunk>
   <chunk x="192" y="48" width="16" height="16">
0,0,0,0,0,0,1,2,0,0,0,0,0,0,0,0,
0,0,0,0,0,0,13,14,0,0,0,0,0,0,0,0,
0,0,0,0,0,0,1,2,0,0,0,0,0,0,0,0,
0,0,0,0,0,0,13,14,0,0,0,0,0,0,0,0,
0,0,0,0,0,0,1,2,0,0,0,0,0,0,0,0,
0,0,0,0,0,0,13,14,0,0,0,0,0,0,0,0,
0,0,0,0,0,0,1,2,0,0,0,0,0,0,0,0,
0,0,0,0,0,0,13,14,0,0,0,0,0,0,0,0,
0,0,0,0,0,0,1,2,0,0,0,0,0,0,0,0,
0,0,0,0,0,0,13,14,0,0,0,0,0,0,0,0,
0,0,0,0,0,0,1,2,0,0,0,0,0,0,0,0,
0,0,0,0,0,0,13,14,0,0,0,0,0,0,0,0,
31,0,0,0,0,0,1,2,0,0,0,0,0,0,0,0,
43,0,0,0,0,0,13,14,0,0,0,0,0,0,0,0,
56,0,0,0,0,0,1,2,0,0,0,0,0,0,0,0,
0,0,0,0,0,0,13,14,0,0,0,0,0,0,0,0
</chunk>
   <chunk x="-16" y="64" width="16" height="16">
0,0,0,0,0,0,1,2,0,0,0,0,0,0,1,2,
0,0,0,0,0,0,13,14,0,0,0,0,0,0,13,14,
0,0,0,0,0,0,1,2,0,0,0,0,0,0,1,2,
0,0,0,0,0,0,13,14,0,0,0,0,0,0,13,14,
0,0,0,0,0,0,1,2,0,0,0,0,0,0,1,2,
0,0,0,0,0,0,13,14,0,0,0,0,0,0,13,14,
0,0,0,0,0,0,1,2,0,0,0,0,0,0,1,2,
0,0,0,0,0,0,13,14,0,0,0,0,0,0,13,14,
0,0,0,0,0,0,1,2,0,0,0,0,0,0,1,2,
0,0,0,0,0,0,13,14,0,0,0,0,0,0,13,14,
0,0,0,0,0,0,1,2,0,0,0,0,0,0,1,2,
0,0,0,0,0,0,13,14,0,0,0,0,0,0,13,14,
0,0,0,0,0,0,1,2,0,0,0,0,0,0,1,2,
0,0,0,0,0,0,13,14,0,0,0,0,0,0,13,14,
0,0,0,0,0,0,1,2,0,0,0,0,0,0,1,2,
0,0,0,0,0,0,13,14,0,0,0,0,0,0,13,14
</chunk>
   <chunk x="160" y="64" width="16" height="16">
0,0,0,0,0,0,0,0,0,0,1,2,0,0,0,0,
0,0,0,0,0,0,0,0,0,0,13,14,0,0,0,0,
0,0,0,0,0,0,0,0,0,0,1,2,0,0,0,0,
0,0,0,0,0,0,0,0,0,0,13,14,0,0,0,0,
0,0,0,0,0,0,0,0,0,0,1,2,0,0,0,0,
0,0,0,0,0,0,0,0,0,0,13,14,0,0,0,0,
0,0,0,0,0,0,0,0,0,0,1,2,0,0,0,0,
0,0,0,0,0,0,0,0,0,0,13,14,0,0,0,0,
0,0,0,0,0,0,0,0,0,0,1,2,0,0,0,0,
0,0,0,0,0,0,0,0,0,0,13,14,0,0,0,0,
0,0,0,0,0,0,0,0,0,0,1,2,0,0,0,0,
0,0,0,0,0,0,0,0,0,0,13,14,0,0,0,0,
0,0,0,0,0,0,0,0,0,0,1,2,0,0,0,0,
0,0,0,0,0,0,0,0,0,0,13,14,0,0,0,0,
0,0,0,0,0,0,0,0,0,0,1,2,0,0,0,0,
0,0,0,0,0,0,0,0,0,0,13,14,0,0,0,0
</chunk>
   <chunk x="176" y="64" width="16" height="16">
0,0,0,0,0,0,0,0,0,0,0,0,0,0,0,0,
0,0,0,0,0,0,0,0,0,0,0,0,0,0,0,0,
0,0,0,0,0,0,0,0,0,0,0,0,0,0,0,0,
0,0,0,0,0,0,0,0,0,0,0,0,0,0,0,0,
0,0,1,2,1,2,1,2,1,2,1,2,1,2,1,2,
0,0,13,14,13,14,13,14,13,14,13,14,13,14,13,14,
0,0,1,2,0,0,0,0,0,0,0,0,0,0,0,0,
0,0,13,14,0,0,0,0,0,0,0,0,0,0,0,0,
0,0,1,2,0,0,0,0,0,0,0,0,0,0,0,0,
0,0,13,14,0,0,0,0,0,0,0,0,0,0,0,0,
0,0,1,2,0,0,0,0,0,0,0,0,0,0,0,0,
0,0,13,14,0,0,0,0,0,0,0,0,0,0,0,0,
0,0,1,2,0,0,0,0,0,0,0,0,0,0,0,0,
0,0,13,14,0,0,0,0,0,0,0,0,0,0,0,0,
0,0,1,2,0,0,0,0,0,0,0,0,0,0,0,0,
0,0,13,14,0,0,0,0,0,0,0,0,0,0,0,0
</chunk>
   <chunk x="192" y="64" width="16" height="16">
0,0,0,0,0,0,1,2,0,0,0,0,0,0,0,0,
0,0,0,0,0,0,13,14,0,0,0,0,0,0,0,0,
0,0,0,0,0,0,1,2,0,0,0,0,0,0,0,0,
0,0,0,0,0,0,13,14,0,0,0,0,0,0,0,0,
1,2,1,2,1,2,1,2,0,0,0,0,0,0,0,0,
13,14,13,14,13,14,13,14,0,0,0,0,0,0,0,0,
0,0,0,0,0,0,0,0,0,0,0,0,0,0,0,0,
0,0,0,0,0,0,0,0,0,0,0,0,0,0,0,0,
0,0,0,0,0,0,0,0,0,0,0,0,0,0,0,0,
0,0,0,0,0,0,0,0,0,0,0,0,0,0,0,0,
0,0,0,0,0,0,0,0,0,0,0,0,0,0,0,0,
0,0,0,0,0,0,0,0,0,0,0,0,0,0,0,0,
0,0,0,0,0,0,0,0,0,0,0,0,0,0,0,0,
0,0,0,0,0,0,0,0,0,0,0,0,0,0,0,0,
0,0,0,0,0,0,0,0,0,0,0,0,0,0,0,0,
0,0,0,0,0,0,0,0,0,0,0,0,0,0,0,0
</chunk>
   <chunk x="-64" y="80" width="16" height="16">
0,0,0,0,1,2,1,2,1,2,1,2,1,2,1,2,
0,0,0,0,13,14,13,14,13,14,13,14,13,14,13,14,
0,0,0,0,1,2,0,0,0,0,0,0,0,0,0,0,
0,0,0,0,13,14,0,0,0,0,0,0,0,0,0,0,
0,0,0,0,1,2,0,0,0,0,0,0,0,0,0,0,
0,0,0,0,13,14,0,0,0,0,0,0,0,0,0,0,
0,0,0,0,1,2,0,0,0,0,0,0,0,0,0,0,
0,0,0,0,13,14,0,0,0,0,0,0,0,0,0,0,
0,0,0,0,1,2,0,0,0,0,0,0,0,0,0,0,
0,0,0,0,13,14,0,0,0,0,0,0,0,0,0,0,
0,0,0,0,1,2,0,0,0,0,0,0,0,0,0,0,
0,0,0,0,13,14,0,0,0,0,0,0,0,0,0,0,
0,0,0,0,1,2,0,0,0,0,0,0,0,0,0,0,
0,0,0,0,13,14,0,0,0,0,0,0,0,0,0,0,
0,0,0,0,1,2,0,0,0,0,0,0,0,0,0,0,
0,0,0,0,13,14,0,0,0,0,0,0,0,0,0,0
</chunk>
   <chunk x="-48" y="80" width="16" height="16">
1,2,1,2,1,2,1,2,1,2,1,2,1,2,1,2,
13,14,13,14,13,14,13,14,13,14,13,14,13,14,13,14,
0,0,0,0,0,0,0,0,0,0,0,0,0,0,0,0,
0,0,0,0,0,0,0,0,0,0,0,0,0,0,0,0,
0,0,0,0,0,0,0,0,0,0,0,0,0,0,0,0,
0,0,0,0,0,0,0,0,0,0,0,0,0,0,0,0,
0,0,0,0,0,0,0,0,0,0,0,0,0,0,0,0,
0,0,0,0,0,0,0,0,0,0,0,0,0,0,0,0,
0,0,0,0,0,0,0,0,0,0,0,0,0,0,0,0,
0,0,0,0,0,0,0,0,0,0,0,0,0,0,0,0,
0,0,32,34,35,28,29,31,32,34,35,32,34,35,32,34,
0,0,45,46,47,41,42,43,19,21,23,45,46,47,45,46,
0,0,57,58,59,53,54,56,57,58,59,57,58,59,57,58,
0,0,0,0,0,0,0,0,0,0,0,0,0,0,0,0,
0,0,0,0,0,0,0,0,0,0,0,0,0,0,0,0,
0,0,0,0,0,0,0,0,0,0,0,0,0,0,0,0
</chunk>
   <chunk x="-32" y="80" width="16" height="16">
1,2,1,2,1,2,1,2,1,2,1,2,0,0,0,0,
13,14,13,14,13,14,13,14,13,14,13,14,0,0,0,0,
0,0,0,0,0,0,0,0,0,0,1,2,0,0,0,0,
0,0,0,0,0,0,0,0,0,0,13,14,0,0,0,0,
0,0,0,0,0,0,0,0,0,0,1,2,0,0,0,0,
0,0,0,0,0,0,0,0,0,0,13,14,0,0,0,0,
0,0,0,0,0,0,0,0,0,0,1,2,0,0,0,0,
0,0,0,0,0,0,0,0,0,0,13,14,0,0,0,0,
0,0,0,0,0,0,0,0,0,0,1,2,0,0,0,0,
0,0,0,0,0,0,0,0,0,0,13,14,0,0,0,0,
35,28,29,31,0,0,0,0,0,0,1,2,1,2,1,2,
47,41,42,43,0,0,0,0,0,0,13,14,13,14,13,14,
59,53,54,56,0,0,0,0,0,0,1,2,0,0,0,0,
0,0,0,0,0,0,0,0,0,0,13,14,0,0,0,0,
0,0,0,0,0,0,0,0,0,0,0,0,0,0,0,0,
0,0,0,0,0,0,0,0,0,0,0,0,0,0,0,0
</chunk>
   <chunk x="-16" y="80" width="16" height="16">
0,0,0,0,0,0,1,2,0,0,0,0,0,0,1,2,
0,0,0,0,0,0,13,14,0,0,0,0,0,0,13,14,
0,0,0,0,0,0,1,2,0,0,0,0,0,0,1,2,
0,0,0,0,0,0,13,14,0,0,0,0,0,0,13,14,
0,0,0,0,0,0,1,2,0,0,0,0,0,0,1,2,
0,0,0,0,0,0,13,14,0,0,0,0,0,0,13,14,
0,0,0,0,0,0,1,2,0,0,0,0,0,0,1,2,
0,0,0,0,0,0,13,14,0,0,0,0,0,0,13,14,
0,0,0,0,0,0,1,2,0,0,0,0,0,0,1,2,
0,0,0,0,0,0,13,14,0,0,0,0,0,0,13,14,
1,2,1,2,1,2,1,2,0,0,0,0,0,0,1,2,
13,14,13,14,13,14,13,14,0,0,0,0,0,0,13,14,
0,0,0,0,0,0,0,0,0,0,0,0,0,0,1,2,
0,0,0,0,0,0,0,0,0,0,0,0,0,0,13,14,
0,0,0,0,0,0,0,0,0,0,0,0,0,0,1,2,
0,0,0,0,0,0,0,0,0,0,0,0,0,0,13,14
</chunk>
   <chunk x="160" y="80" width="16" height="16">
0,0,0,0,0,0,0,0,0,0,1,2,0,0,0,0,
0,0,0,0,0,0,0,0,0,0,13,14,0,0,0,0,
0,0,0,0,0,0,0,0,0,0,1,2,0,0,0,0,
0,0,0,0,0,0,0,0,0,0,13,14,0,0,0,0,
0,0,0,0,0,0,0,0,0,0,1,2,0,0,0,0,
0,0,0,0,0,0,0,0,0,0,13,14,0,0,0,0,
0,0,0,0,0,0,0,0,0,0,1,2,0,0,0,0,
0,0,0,0,0,0,0,0,0,0,13,14,0,0,0,0,
0,0,0,0,0,0,0,0,0,0,1,2,0,0,0,0,
0,0,0,0,0,0,0,0,0,0,13,14,0,0,0,0,
0,0,0,0,0,0,0,0,0,0,1,2,0,0,0,0,
0,0,0,0,0,0,0,0,0,0,13,14,0,0,0,0,
0,0,0,0,0,0,0,0,0,0,1,2,0,0,0,0,
0,0,0,0,0,0,0,0,0,0,13,14,0,0,0,0,
0,0,0,0,0,0,0,0,0,0,1,2,0,0,0,0,
0,0,0,0,0,0,0,0,0,0,13,14,0,0,0,0
</chunk>
   <chunk x="176" y="80" width="16" height="16">
0,0,1,2,0,0,0,0,0,0,0,0,0,0,0,0,
0,0,13,14,0,0,0,0,0,0,0,0,0,0,0,0,
0,0,1,2,0,0,0,0,0,0,0,0,0,0,0,0,
0,0,13,14,0,0,0,0,0,0,0,0,0,0,0,0,
0,0,1,2,0,0,0,0,0,0,0,0,0,0,0,0,
0,0,13,14,0,0,0,0,0,0,0,0,0,0,0,0,
0,0,1,2,0,0,0,0,0,0,0,0,0,0,0,0,
0,0,13,14,0,0,0,0,0,0,0,0,0,0,0,0,
0,0,1,2,0,0,0,0,0,0,0,0,0,0,0,0,
0,0,13,14,0,0,0,0,0,0,0,0,0,0,0,0,
0,0,1,2,0,0,0,0,0,0,0,0,0,0,0,0,
0,0,13,14,0,0,0,0,0,0,0,0,0,0,0,0,
0,0,1,2,0,0,0,0,0,0,0,0,0,0,0,0,
0,0,13,14,0,0,0,0,0,0,0,0,0,0,0,0,
0,0,1,2,0,0,0,0,0,0,0,0,0,0,0,0,
0,0,13,14,0,0,0,0,0,0,0,0,0,0,0,0
</chunk>
   <chunk x="-64" y="96" width="16" height="16">
0,0,0,0,1,2,0,0,0,0,0,0,0,0,0,0,
0,0,0,0,13,14,0,0,0,0,0,0,0,0,0,0,
0,0,0,0,1,2,0,0,0,0,0,0,0,0,0,0,
0,0,0,0,13,14,0,0,0,0,0,0,0,0,0,0,
0,0,0,0,1,2,0,0,0,0,0,0,0,0,0,0,
0,0,0,0,13,14,0,0,0,0,0,0,0,0,0,0,
0,0,0,0,1,2,0,0,0,0,0,0,0,0,0,0,
0,0,0,0,13,14,0,0,0,0,0,0,0,0,0,0,
0,0,0,0,1,2,0,0,0,0,0,0,0,0,0,0,
0,0,0,0,13,14,0,0,0,0,0,0,0,0,0,0,
0,0,0,0,1,2,0,0,0,0,0,0,0,0,0,0,
0,0,0,0,13,14,0,0,0,0,0,0,0,0,0,0,
0,0,0,0,1,2,0,0,0,0,0,0,0,0,0,0,
0,0,0,0,13,14,0,0,0,0,0,0,0,0,0,0,
0,0,0,0,1,2,0,0,0,0,0,0,0,0,0,0,
0,0,0,0,13,14,0,0,0,0,0,0,0,0,0,0
</chunk>
   <chunk x="-48" y="96" width="16" height="16">
0,0,0,0,0,0,0,0,0,0,0,0,0,0,0,0,
0,0,32,34,35,32,34,35,32,34,35,28,29,31,32,34,
0,0,45,46,47,45,46,47,45,46,47,41,42,43,45,46,
0,0,57,58,59,57,58,59,57,58,59,53,54,56,57,58,
0,0,0,0,0,0,0,0,0,0,0,0,0,0,0,0,
0,0,0,0,0,0,0,0,0,0,0,0,0,0,0,0,
0,0,0,0,0,0,0,0,0,0,0,0,0,0,0,0,
0,0,0,0,0,0,0,0,0,0,0,0,0,0,0,0,
0,0,32,34,35,32,34,35,0,0,0,0,0,0,28,29,
0,0,45,46,47,45,46,47,0,0,0,0,0,0,41,42,
0,0,57,58,59,57,58,59,0,0,0,0,0,0,53,54,
0,0,0,0,0,0,0,0,0,0,0,0,0,0,0,0,
0,0,0,0,0,0,0,0,0,0,0,0,0,0,0,0,
0,0,0,0,0,0,0,0,0,0,0,0,0,0,0,0,
0,0,32,34,35,32,34,35,0,0,0,0,0,0,28,29,
0,0,45,46,47,7,8,9,0,0,0,0,0,0,41,42
</chunk>
   <chunk x="-32" y="96" width="16" height="16">
0,0,0,0,0,0,0,0,0,0,1,2,0,0,0,0,
35,0,0,0,32,34,35,0,0,0,13,14,0,0,0,0,
47,0,0,0,45,46,47,0,0,0,1,2,1,2,1,2,
59,0,0,0,57,58,59,0,0,0,13,14,13,14,13,14,
0,0,0,0,0,0,0,0,0,0,1,2,0,0,0,0,
0,0,0,0,0,0,0,0,0,0,13,14,0,0,0,0,
0,0,0,0,0,0,0,0,0,0,1,2,0,0,0,0,
0,0,0,0,0,0,0,0,0,0,13,14,0,0,0,0,
31,32,34,35,32,34,35,0,0,0,1,2,0,0,0,0,
43,45,46,47,45,46,47,0,0,0,13,14,0,0,0,0,
56,57,58,59,57,58,59,0,0,0,1,2,0,0,0,0,
0,0,0,0,0,0,0,0,0,0,13,14,0,0,0,0,
0,0,0,0,0,0,0,0,0,0,1,2,0,0,0,0,
0,0,0,0,0,0,0,0,0,0,13,14,0,0,0,0,
31,32,34,35,32,34,35,0,0,0,1,2,0,0,0,0,
43,45,46,47,45,46,47,0,0,0,13,14,0,0,0,0
</chunk>
   <chunk x="-16" y="96" width="16" height="16">
0,0,0,0,0,0,0,0,0,0,0,0,0,0,1,2,
0,0,0,0,0,0,0,0,0,0,0,0,0,0,13,14,
1,2,1,2,1,2,1,2,1,2,1,2,1,2,1,2,
13,14,13,14,13,14,13,14,13,14,13,14,13,14,13,14,
0,0,0,0,0,0,0,0,0,0,0,0,0,0,0,0,
0,0,0,0,0,0,0,0,0,0,0,0,0,0,0,0,
0,0,0,0,0,0,0,0,0,0,0,0,0,0,0,0,
0,0,0,0,0,0,0,0,0,0,0,0,0,0,0,0,
0,0,0,0,0,0,0,0,0,0,0,0,0,0,0,0,
0,0,0,0,0,0,0,0,0,0,0,0,0,0,0,0,
0,0,0,0,0,0,0,0,0,0,0,0,0,0,0,0,
0,0,0,0,0,0,0,0,0,0,0,0,0,0,0,0,
0,0,0,0,0,0,0,0,0,0,0,0,0,0,0,0,
0,0,0,0,0,0,0,0,0,0,0,0,0,0,0,0,
0,0,0,0,0,0,0,0,0,0,0,0,0,0,0,0,
0,0,0,0,0,0,0,0,0,0,0,0,0,0,0,0
</chunk>
   <chunk x="16" y="96" width="16" height="16">
0,0,0,0,0,0,0,0,0,0,0,0,0,0,0,0,
0,0,0,0,0,0,0,0,0,0,0,0,0,0,0,0,
0,0,0,0,0,0,0,0,0,0,0,0,0,0,0,0,
0,0,0,0,0,0,0,0,0,0,0,0,0,0,0,0,
0,0,0,0,0,0,0,0,0,0,0,0,0,0,0,0,
0,0,0,0,0,0,0,0,0,0,0,0,0,0,0,0,
0,0,0,0,0,0,0,0,0,0,0,0,0,0,0,0,
0,0,0,0,0,0,0,0,0,0,0,0,0,0,0,0,
0,0,0,0,0,0,0,0,0,0,0,0,0,0,0,0,
0,0,0,0,0,0,0,0,0,0,0,0,0,0,0,0,
0,0,0,0,0,0,0,0,0,0,0,0,0,0,0,0,
0,0,0,0,0,0,0,0,0,0,0,0,0,0,0,0,
0,0,0,0,0,0,0,0,0,0,0,0,0,0,0,0,
0,0,0,0,0,0,0,0,0,0,0,0,0,0,0,0,
0,0,0,0,0,0,0,0,0,0,0,0,0,0,1,2,
0,0,0,0,0,0,0,0,0,0,0,0,0,0,13,14
</chunk>
   <chunk x="32" y="96" width="16" height="16">
0,0,0,0,0,0,0,0,0,0,0,0,0,0,0,0,
0,0,0,0,0,0,0,0,0,0,0,0,0,0,0,0,
0,0,0,0,0,0,0,0,0,0,0,0,0,0,0,0,
0,0,0,0,0,0,0,0,0,0,0,0,0,0,0,0,
0,0,0,0,0,0,0,0,0,0,0,0,0,0,0,0,
0,0,0,0,0,0,0,0,0,0,0,0,0,0,0,0,
0,0,0,0,0,0,0,0,0,0,0,0,0,0,0,0,
0,0,0,0,0,0,0,0,0,0,0,0,0,0,0,0,
0,0,0,0,0,0,0,0,0,0,0,0,0,0,0,0,
0,0,0,0,0,0,0,0,0,0,0,0,0,0,0,0,
0,0,0,0,0,0,0,0,0,0,0,0,0,0,0,0,
0,0,0,0,0,0,0,0,0,0,0,0,0,0,0,0,
0,0,0,0,0,0,0,0,0,0,0,0,0,0,0,0,
0,0,0,0,0,0,0,0,0,0,0,0,0,0,0,0,
1,2,1,2,1,2,1,2,1,2,1,2,1,2,1,2,
13,14,13,14,13,14,13,14,13,14,13,14,13,14,13,14
</chunk>
   <chunk x="48" y="96" width="16" height="16">
0,0,0,0,0,0,0,0,0,0,0,0,0,0,0,0,
0,0,0,0,0,0,0,0,0,0,0,0,0,0,0,0,
0,0,0,0,0,0,0,0,0,0,0,0,0,0,0,0,
0,0,0,0,0,0,0,0,0,0,0,0,0,0,0,0,
0,0,0,0,0,0,0,0,0,0,0,0,0,0,0,0,
0,0,0,0,0,0,0,0,0,0,0,0,0,0,0,0,
0,0,0,0,0,0,0,0,0,0,0,0,0,0,0,0,
0,0,0,0,0,0,0,0,0,0,0,0,0,0,0,0,
0,0,0,0,0,0,0,0,0,0,0,0,0,0,0,0,
0,0,0,0,0,0,0,0,0,0,0,0,0,0,0,0,
0,0,0,0,0,0,0,0,0,0,0,0,0,0,0,0,
0,0,0,0,0,0,0,0,0,0,0,0,0,0,0,0,
0,0,0,0,0,0,0,0,0,0,0,0,0,0,0,0,
0,0,0,0,0,0,0,0,0,0,0,0,0,0,0,0,
1,2,1,2,1,2,1,2,1,2,1,2,1,2,1,2,
13,14,13,14,13,14,13,14,13,14,13,14,13,14,13,14
</chunk>
   <chunk x="64" y="96" width="16" height="16">
0,0,0,0,0,0,0,0,0,0,0,0,0,0,0,0,
0,0,0,0,0,0,0,0,0,0,0,0,0,0,0,0,
0,0,0,0,0,0,0,0,0,0,0,0,0,0,0,0,
0,0,0,0,0,0,0,0,0,0,0,0,0,0,0,0,
0,0,0,0,0,0,0,0,0,0,0,0,0,0,0,0,
0,0,0,0,0,0,0,0,0,0,0,0,0,0,0,0,
0,0,0,0,0,0,0,0,0,0,0,0,0,0,0,0,
0,0,0,0,0,0,0,0,0,0,0,0,0,0,0,0,
0,0,0,0,0,0,0,0,0,0,0,0,0,0,0,0,
0,0,0,0,0,0,0,0,0,0,0,0,0,0,0,0,
0,0,0,0,0,0,0,0,0,0,0,0,0,0,0,0,
0,0,0,0,0,0,0,0,0,0,0,0,0,0,0,0,
0,0,0,0,0,0,0,0,0,0,0,0,0,0,0,0,
0,0,0,0,0,0,0,0,0,0,0,0,0,0,0,0,
1,2,1,2,1,2,0,0,0,0,0,0,0,0,0,0,
13,14,13,14,13,14,0,0,0,0,0,0,0,0,0,0
</chunk>
   <chunk x="160" y="96" width="16" height="16">
0,0,0,0,0,0,0,0,0,0,1,2,0,0,0,0,
0,0,0,0,0,0,0,0,0,0,13,14,0,0,0,0,
0,0,0,0,0,0,0,0,0,0,1,2,0,0,0,0,
0,0,0,0,0,0,0,0,0,0,13,14,0,0,0,0,
0,0,0,0,0,0,0,0,0,0,1,2,0,0,0,0,
0,0,0,0,0,0,0,0,0,0,13,14,0,0,0,0,
0,0,0,0,0,0,0,0,0,0,1,2,0,0,0,0,
0,0,0,0,0,0,0,0,0,0,13,14,0,0,0,0,
0,0,0,0,0,0,0,0,0,0,1,2,0,0,0,0,
0,0,0,0,0,0,0,0,0,0,13,14,0,0,0,0,
0,0,0,0,0,0,0,0,0,0,1,2,0,0,0,0,
0,0,0,0,0,0,0,0,0,0,13,14,0,0,0,0,
0,0,0,0,0,0,0,0,0,0,1,2,0,0,0,0,
0,0,0,0,0,0,0,0,0,0,13,14,0,0,0,0,
1,2,1,2,1,2,1,2,1,2,1,2,0,0,0,0,
13,14,13,14,13,14,13,14,13,14,13,14,0,0,0,0
</chunk>
   <chunk x="176" y="96" width="16" height="16">
0,0,1,2,0,0,0,0,0,0,0,0,0,0,0,0,
0,0,13,14,0,0,0,0,0,0,0,0,0,0,0,0,
0,0,1,2,0,0,0,0,0,0,0,0,0,0,0,0,
0,0,13,14,0,0,0,0,0,0,0,0,0,0,0,0,
0,0,1,2,0,0,0,0,0,0,0,0,0,0,0,0,
0,0,13,14,0,0,0,0,0,0,0,0,0,0,0,0,
0,0,1,2,0,0,0,0,0,0,0,0,0,0,0,0,
0,0,13,14,0,0,0,0,0,0,0,0,0,0,0,0,
0,0,1,2,0,0,0,0,0,0,0,0,0,0,0,0,
0,0,13,14,0,0,0,0,0,0,0,0,0,0,0,0,
0,0,1,2,0,0,0,0,0,0,0,0,0,0,0,0,
0,0,13,14,0,0,0,0,0,0,0,0,0,0,0,0,
0,0,1,2,0,0,0,0,0,0,0,0,0,0,0,0,
0,0,13,14,0,0,0,0,0,0,0,0,0,0,0,0,
1,2,1,2,0,0,0,0,0,0,0,0,0,0,0,0,
13,14,13,14,0,0,0,0,0,0,0,0,0,0,0,0
</chunk>
   <chunk x="-64" y="112" width="16" height="16">
0,0,0,0,1,2,0,0,0,0,0,0,0,0,0,0,
0,0,0,0,13,14,0,0,0,0,0,0,0,0,0,0,
0,0,0,0,1,2,0,0,0,0,0,0,0,0,0,0,
0,0,0,0,13,14,0,0,0,0,0,0,0,0,0,0,
0,0,0,0,1,2,0,0,0,0,0,0,0,0,0,0,
0,0,0,0,13,14,0,0,0,0,0,0,0,0,0,0,
0,0,0,0,1,2,1,2,1,2,1,2,1,2,1,2,
0,0,0,0,13,14,13,14,13,14,13,14,13,14,13,14,
0,0,0,0,0,0,0,0,0,0,0,0,0,0,0,0,
0,0,0,0,0,0,0,0,0,0,0,0,0,0,0,0,
0,0,0,0,0,0,0,0,0,0,0,0,0,0,0,0,
0,0,0,0,0,0,0,0,0,0,0,0,0,0,0,0,
0,0,0,0,0,0,0,0,0,0,0,0,0,0,0,0,
0,0,0,0,0,0,0,0,0,0,0,0,0,0,0,0,
0,0,0,0,0,0,0,0,0,0,0,0,0,0,0,0,
0,0,0,0,0,0,0,0,0,0,0,0,0,0,0,0
</chunk>
   <chunk x="-48" y="112" width="16" height="16">
0,0,57,58,59,57,58,59,0,0,0,0,0,0,53,54,
0,0,0,0,0,0,0,0,0,0,0,0,0,0,0,0,
0,0,0,0,0,0,0,0,0,0,0,0,0,0,0,0,
0,0,0,0,0,0,0,0,0,0,0,0,0,0,0,0,
0,0,0,0,0,0,0,0,0,0,0,0,0,0,0,0,
0,0,0,0,0,0,0,0,0,0,0,0,0,0,0,0,
1,2,1,2,1,2,1,2,1,2,0,0,1,2,1,2,
13,14,13,14,13,14,13,14,13,14,0,0,13,14,13,14,
0,0,0,0,0,0,0,0,1,2,0,0,1,2,1,2,
0,0,0,0,0,0,0,0,13,14,0,0,13,14,13,14,
0,0,0,0,0,0,0,0,1,2,0,0,0,0,0,0,
0,0,0,0,0,0,0,0,13,14,0,0,0,0,0,0,
0,0,0,0,0,0,0,0,1,2,0,0,0,0,0,0,
0,0,0,0,0,0,0,0,13,14,0,0,0,0,0,0,
0,0,0,0,0,0,0,0,1,2,0,0,0,0,0,0,
0,0,0,0,0,0,0,0,13,14,0,0,0,0,0,0
</chunk>
   <chunk x="-32" y="112" width="16" height="16">
56,57,58,59,57,58,59,0,0,0,1,2,0,0,0,0,
0,0,0,0,0,0,0,0,0,0,13,14,0,0,0,0,
0,0,0,0,0,0,0,0,0,0,1,2,0,0,0,0,
0,0,0,0,0,0,0,0,0,0,13,14,0,0,0,0,
0,0,0,0,0,0,0,0,0,0,1,2,0,0,0,0,
0,0,0,0,0,0,0,0,0,0,13,14,0,0,0,0,
1,2,1,2,1,2,1,2,1,2,1,2,0,0,0,0,
13,14,13,14,13,14,13,14,13,14,13,14,0,0,0,0,
1,2,1,2,1,2,1,2,1,2,1,2,1,2,1,2,
13,14,13,14,13,14,13,14,13,14,13,14,13,14,13,14,
0,0,0,0,0,0,0,0,0,0,0,0,0,0,0,0,
0,0,0,0,0,0,0,0,0,0,0,0,0,0,0,0,
0,0,0,0,0,0,0,0,0,0,0,0,0,0,0,0,
0,0,0,0,0,0,0,0,0,0,0,0,0,0,0,0,
0,0,0,0,0,0,0,0,0,0,0,0,0,0,0,0,
0,0,0,0,0,0,0,0,0,0,0,0,0,0,0,0
</chunk>
   <chunk x="-16" y="112" width="16" height="16">
0,0,0,0,0,0,0,0,0,0,0,0,0,0,0,0,
0,0,0,0,0,0,0,0,0,0,0,0,0,0,0,0,
0,0,0,0,0,0,0,0,0,0,0,0,0,0,0,0,
0,0,0,0,0,0,0,0,0,0,0,0,0,0,0,0,
0,0,0,0,0,0,0,0,0,0,0,0,0,0,0,0,
0,0,0,0,0,0,0,0,0,0,0,0,0,0,0,0,
0,0,0,0,0,0,0,0,0,0,0,0,0,0,0,0,
0,0,0,0,0,0,0,0,0,0,0,0,0,0,0,0,
1,2,1,2,1,2,1,2,1,2,1,2,1,2,1,2,
13,14,13,14,13,14,13,14,13,14,13,14,13,14,13,14,
0,0,0,0,0,0,0,0,0,0,0,0,0,0,0,0,
0,0,0,0,0,0,0,0,0,0,0,0,0,0,0,0,
0,0,0,0,0,0,0,0,0,0,0,0,0,0,0,0,
0,0,0,0,0,0,0,0,0,0,0,0,0,0,0,0,
0,0,0,0,0,0,0,0,0,0,0,0,0,0,0,0,
0,0,0,0,0,0,0,0,0,0,0,0,0,0,0,0
</chunk>
   <chunk x="0" y="112" width="16" height="16">
0,0,0,0,0,0,0,0,0,0,0,0,0,0,0,0,
0,0,0,0,0,0,0,0,0,0,0,0,0,0,0,0,
0,0,0,0,0,0,0,0,0,0,0,0,0,0,0,0,
0,0,0,0,0,0,0,0,0,0,0,0,0,0,0,0,
0,0,0,0,0,0,0,0,0,0,0,0,0,0,0,0,
0,0,0,0,0,0,0,0,0,0,0,0,0,0,0,0,
0,0,0,0,0,0,0,0,0,0,0,0,0,0,0,0,
0,0,0,0,0,0,0,0,0,0,0,0,0,0,0,0,
1,2,1,2,1,2,1,2,1,2,1,2,1,2,1,2,
13,14,13,14,13,14,13,14,13,14,13,14,13,14,13,14,
0,0,0,0,0,0,0,0,0,0,0,0,0,0,0,0,
0,0,0,0,0,0,0,0,0,0,0,0,0,0,0,0,
0,0,0,0,0,0,0,0,0,0,0,0,0,0,0,0,
0,0,0,0,0,0,0,0,0,0,0,0,0,0,0,0,
0,0,0,0,0,0,0,0,0,0,0,0,0,0,0,0,
0,0,0,0,0,0,0,0,0,0,0,0,0,0,0,0
</chunk>
   <chunk x="16" y="112" width="16" height="16">
0,0,0,0,0,0,0,0,0,0,0,0,0,0,1,2,
0,0,0,0,0,0,0,0,0,0,0,0,0,0,13,14,
0,0,0,0,0,0,0,0,0,0,0,0,0,0,1,2,
0,0,0,0,0,0,0,0,0,0,0,0,0,0,13,14,
0,0,0,0,0,0,0,0,0,0,0,0,0,0,1,2,
0,0,0,0,0,0,0,0,0,0,0,0,0,0,13,14,
0,0,0,0,0,0,0,0,0,0,0,0,0,0,1,2,
0,0,0,0,0,0,0,0,0,0,0,0,0,0,13,14,
1,2,1,2,1,2,1,2,1,2,1,2,1,2,1,2,
13,14,13,14,13,14,13,14,13,14,13,14,13,14,13,14,
0,0,0,0,0,0,0,0,0,0,0,0,0,0,0,0,
0,0,0,0,0,0,0,0,0,0,0,0,0,0,0,0,
0,0,0,0,0,0,0,0,0,0,0,0,0,0,0,0,
0,0,0,0,0,0,0,0,0,0,0,0,0,0,0,0,
0,0,0,0,0,0,0,0,0,0,0,0,0,0,0,0,
0,0,0,0,0,0,0,0,0,0,0,0,0,0,0,0
</chunk>
   <chunk x="32" y="112" width="16" height="16">
0,0,0,0,0,28,29,31,0,0,0,0,0,0,0,0,
0,0,0,0,0,41,42,43,0,0,0,0,0,0,0,0,
0,0,0,0,0,53,54,56,0,0,0,0,0,0,0,0,
0,0,0,0,0,0,0,0,0,0,0,0,0,0,0,0,
0,0,0,0,0,0,0,0,0,0,0,0,0,0,0,0,
0,0,0,0,0,0,0,0,0,0,0,0,0,0,0,0,
0,0,0,0,0,0,0,0,0,0,0,0,0,0,0,0,
0,0,0,0,0,0,0,0,0,0,0,0,0,0,0,0,
0,0,0,0,0,0,0,0,0,0,0,0,0,0,0,0,
0,0,0,0,0,0,0,0,0,0,0,0,0,0,0,0,
0,0,0,0,0,0,0,0,0,0,0,0,0,0,0,0,
0,0,0,0,0,0,0,0,0,0,0,0,0,0,32,34,
0,0,0,0,0,0,0,0,0,0,0,0,0,0,7,8,
0,0,0,0,0,0,0,0,0,0,0,0,0,0,57,58,
0,0,0,0,0,0,0,0,0,0,0,0,0,0,0,0,
0,0,0,0,0,0,0,0,0,0,0,0,0,0,0,0
</chunk>
   <chunk x="48" y="112" width="16" height="16">
0,0,0,0,0,0,0,0,0,28,29,31,0,0,0,0,
0,0,0,0,0,0,0,0,0,41,42,43,0,0,0,0,
0,0,0,0,0,0,0,0,0,53,54,56,0,0,0,0,
0,0,0,0,0,0,0,0,0,0,0,0,0,0,0,0,
0,0,0,0,0,0,0,0,0,0,0,0,0,0,0,0,
0,0,0,0,0,0,0,0,0,0,0,0,0,0,0,0,
0,0,0,0,0,0,0,0,0,0,0,0,0,0,0,0,
0,0,0,0,0,0,0,0,0,0,0,0,0,0,0,0,
0,0,0,0,0,0,0,0,0,0,0,0,0,0,0,0,
0,0,0,0,0,0,0,0,0,0,0,0,0,0,0,0,
0,0,0,0,0,0,0,0,0,0,0,0,0,0,0,0,
35,0,0,32,34,35,0,0,0,0,0,0,0,0,0,0,
9,3,3,19,21,23,0,0,0,0,0,0,0,0,0,0,
59,15,15,57,58,59,0,0,0,0,0,0,0,0,0,0,
0,0,0,0,0,0,0,0,0,0,0,0,0,0,0,0,
0,0,0,0,0,0,0,0,0,0,0,0,0,0,0,0
</chunk>
   <chunk x="64" y="112" width="16" height="16">
0,0,0,0,1,2,0,0,0,0,0,0,0,0,0,0,
0,0,0,0,13,14,0,0,0,0,0,0,0,0,0,0,
0,0,0,0,1,2,0,0,0,0,0,0,0,0,0,0,
0,0,0,0,13,14,0,0,0,0,0,0,0,0,0,0,
0,0,0,0,1,2,0,0,0,0,0,0,0,0,0,0,
0,0,0,0,13,14,0,0,0,0,0,0,0,0,0,0,
0,0,0,0,1,2,0,0,0,0,0,0,0,0,0,0,
0,0,0,0,13,14,0,0,0,0,0,0,0,0,0,0,
0,0,0,0,1,2,1,2,1,2,1,2,1,2,1,2,
0,0,0,0,13,14,13,14,13,14,13,14,13,14,13,14,
0,0,0,0,0,0,0,0,0,0,0,0,0,0,0,0,
0,0,0,0,0,0,0,0,0,0,0,0,0,0,0,0,
0,0,0,0,0,0,0,0,0,0,0,0,0,0,0,0,
0,0,0,0,0,0,0,0,0,0,0,0,0,0,0,0,
0,0,0,0,0,0,0,0,0,0,0,0,0,0,0,0,
0,0,0,0,0,0,0,0,0,0,0,0,0,0,0,0
</chunk>
   <chunk x="80" y="112" width="16" height="16">
0,0,0,0,0,0,0,0,0,0,0,0,0,0,0,0,
0,0,0,0,0,0,0,0,0,0,0,0,0,0,0,0,
0,0,0,0,0,0,0,0,0,0,0,0,0,0,0,0,
0,0,0,0,0,0,0,0,0,0,0,0,0,0,0,0,
0,0,0,0,0,0,0,0,0,0,0,0,0,0,0,0,
0,0,0,0,0,0,0,0,0,0,0,0,0,0,0,0,
0,0,0,0,0,0,0,0,0,0,0,0,0,0,0,0,
0,0,0,0,0,0,0,0,0,0,0,0,0,0,0,0,
1,2,1,2,1,2,1,2,1,2,1,2,1,2,1,2,
13,14,13,14,13,14,13,14,13,14,13,14,13,14,13,14,
0,0,0,0,0,0,0,0,0,0,0,0,0,0,0,0,
0,0,0,0,0,0,0,0,0,0,0,0,0,0,0,0,
0,0,0,0,0,0,0,0,0,0,0,0,0,0,0,0,
0,0,0,0,0,0,0,0,0,0,0,0,0,0,0,0,
0,0,0,0,0,0,0,0,0,0,0,0,0,0,0,0,
0,0,0,0,0,0,0,0,0,0,0,0,0,0,0,0
</chunk>
   <chunk x="96" y="112" width="16" height="16">
0,0,0,0,0,0,0,0,0,0,0,0,0,0,0,0,
0,0,0,0,0,0,0,0,0,0,0,0,0,0,0,0,
0,0,0,0,0,0,0,0,0,0,0,0,0,0,0,0,
0,0,0,0,0,0,0,0,0,0,0,0,0,0,0,0,
0,0,0,0,0,0,0,0,0,0,0,0,0,0,0,0,
0,0,0,0,0,0,0,0,0,0,0,0,0,0,0,0,
0,0,0,0,0,0,0,0,0,0,0,0,0,0,0,0,
0,0,0,0,0,0,0,0,0,0,0,0,0,0,0,0,
1,2,1,2,1,2,1,2,1,2,1,2,1,2,1,2,
13,14,13,14,13,14,13,14,13,14,13,14,13,14,13,14,
0,0,0,0,0,0,0,0,0,0,0,0,0,0,0,0,
0,0,0,0,0,0,0,0,0,0,0,0,0,0,0,0,
0,0,0,0,0,0,0,0,0,0,0,0,0,0,0,0,
0,0,0,0,0,0,0,0,0,0,0,0,0,0,0,0,
0,0,0,0,0,0,0,0,0,0,0,0,0,0,0,0,
0,0,0,0,0,0,0,0,0,0,0,0,0,0,0,0
</chunk>
   <chunk x="112" y="112" width="16" height="16">
0,0,0,0,0,0,0,0,0,0,0,0,0,0,0,0,
0,0,0,0,0,0,0,0,0,0,0,0,0,0,0,0,
0,0,0,0,0,0,0,0,0,0,0,0,0,0,0,0,
0,0,0,0,0,0,0,0,0,0,0,0,0,0,0,0,
0,0,0,0,0,0,0,0,0,0,0,0,0,0,0,0,
0,0,0,0,0,0,0,0,0,0,0,0,0,0,0,0,
0,0,0,0,0,0,0,0,0,0,0,0,0,0,0,0,
0,0,0,0,0,0,0,0,0,0,0,0,0,0,0,0,
1,2,1,2,1,2,1,2,1,2,1,2,1,2,1,2,
13,14,13,14,13,14,13,14,13,14,13,14,13,14,13,14,
0,0,0,0,0,0,0,0,0,0,0,0,0,0,0,0,
0,0,0,0,0,0,0,0,0,0,0,0,0,0,0,0,
0,0,0,0,0,0,0,0,0,0,0,0,0,0,0,0,
0,0,0,0,0,0,0,0,0,0,0,0,0,0,0,0,
0,0,0,0,0,0,0,0,0,0,0,0,0,0,0,0,
0,0,0,0,0,0,0,0,0,0,0,0,0,0,0,0
</chunk>
   <chunk x="128" y="112" width="16" height="16">
0,0,0,0,0,0,0,0,0,0,0,0,0,0,0,0,
0,0,0,0,0,0,0,0,0,0,0,0,0,0,0,0,
0,0,0,0,0,0,0,0,0,0,0,0,0,0,0,0,
0,0,0,0,0,0,0,0,0,0,0,0,0,0,0,0,
0,0,0,0,0,0,0,0,0,0,0,0,0,0,0,0,
0,0,0,0,0,0,0,0,0,0,0,0,0,0,0,0,
0,0,0,0,0,0,0,0,0,0,0,0,0,0,0,0,
0,0,0,0,0,0,0,0,0,0,0,0,0,0,0,0,
1,2,1,2,1,2,1,2,1,2,1,2,1,2,1,2,
13,14,13,14,13,14,13,14,13,14,13,14,13,14,13,14,
0,0,0,0,0,0,0,0,0,0,0,0,0,0,0,0,
0,0,0,0,0,0,0,0,0,0,0,0,0,0,0,0,
0,0,0,0,0,0,0,0,0,0,0,0,0,0,0,0,
0,0,0,0,0,0,0,0,0,0,0,0,0,0,0,0,
0,0,0,0,0,0,0,0,0,0,0,0,0,0,0,0,
0,0,0,0,0,0,0,0,0,0,0,0,0,0,0,0
</chunk>
   <chunk x="144" y="112" width="16" height="16">
0,0,0,0,0,0,0,0,0,0,0,0,0,0,0,0,
0,0,0,0,0,0,0,0,0,0,0,0,0,0,0,0,
0,0,0,0,0,0,0,0,0,0,0,0,0,0,0,0,
0,0,0,0,0,0,0,0,0,0,0,0,0,0,0,0,
0,0,0,0,0,0,0,0,0,0,0,0,0,0,0,0,
0,0,0,0,0,0,0,0,0,0,0,0,0,0,0,0,
0,0,0,0,0,0,0,0,0,0,0,0,0,0,0,0,
0,0,0,0,0,0,0,0,0,0,0,0,0,0,0,0,
1,2,1,2,1,2,1,2,1,2,1,2,1,2,1,2,
13,14,13,14,13,14,13,14,13,14,13,14,13,14,13,14,
0,0,0,0,0,0,0,0,0,0,0,0,0,0,0,0,
0,0,0,0,0,0,0,0,0,0,0,0,0,0,0,0,
0,0,0,0,0,0,0,0,0,0,0,0,0,0,0,0,
0,0,0,0,0,0,0,0,0,0,0,0,0,0,0,0,
0,0,0,0,0,0,0,0,0,0,0,0,0,0,0,0,
0,0,0,0,0,0,0,0,0,0,0,0,0,0,0,0
</chunk>
   <chunk x="160" y="112" width="16" height="16">
1,2,0,0,0,0,0,0,0,0,0,0,0,0,0,0,
13,14,0,0,0,0,0,0,0,0,0,0,0,0,0,0,
1,2,0,0,28,29,31,0,0,0,0,0,0,0,0,0,
13,14,0,0,41,42,43,0,0,0,0,0,0,0,0,0,
1,2,0,0,53,54,56,0,0,0,0,0,0,0,0,0,
13,14,0,0,0,0,0,0,0,0,0,0,0,0,0,0,
1,2,0,0,0,0,0,0,0,0,0,0,0,0,0,0,
13,14,0,0,0,0,0,0,0,0,0,0,0,0,0,0,
1,2,0,0,0,0,0,0,0,0,0,0,0,0,0,0,
13,14,0,0,0,0,0,0,0,0,0,0,0,0,0,0,
0,0,0,0,0,0,0,0,0,0,0,0,0,0,0,0,
0,0,0,0,0,0,0,0,0,0,0,0,0,0,0,0,
0,0,0,0,0,0,0,0,0,0,0,0,0,0,0,0,
0,0,0,0,0,0,0,0,0,0,0,0,0,0,0,0,
0,0,0,0,0,0,0,0,0,0,0,0,0,0,0,0,
0,0,0,0,0,0,0,0,0,0,0,0,0,0,0,0
</chunk>
   <chunk x="176" y="112" width="16" height="16">
0,0,1,2,0,0,0,0,0,0,0,0,0,0,0,0,
0,0,13,14,0,0,0,0,0,0,0,0,0,0,0,0,
0,0,1,2,0,0,0,0,0,0,0,0,0,0,0,0,
0,0,13,14,0,0,0,0,0,0,0,0,0,0,0,0,
0,0,1,2,0,0,0,0,0,0,0,0,0,0,0,0,
0,0,13,14,0,0,0,0,0,0,0,0,0,0,0,0,
0,0,1,2,0,0,0,0,0,0,0,0,0,0,0,0,
0,0,13,14,0,0,0,0,0,0,0,0,0,0,0,0,
0,0,1,2,0,0,0,0,0,0,0,0,0,0,0,0,
0,0,13,14,0,0,0,0,0,0,0,0,0,0,0,0,
0,0,1,2,0,0,0,0,0,0,0,0,0,0,0,0,
0,0,13,14,0,0,0,0,0,0,0,0,0,0,0,0,
0,0,1,2,0,0,0,0,0,0,0,0,0,0,0,0,
0,0,13,14,0,0,0,0,0,0,0,0,0,0,0,0,
0,0,1,2,0,0,0,0,0,0,0,0,0,0,0,0,
0,0,13,14,0,0,0,0,0,0,0,0,0,0,0,0
</chunk>
   <chunk x="-48" y="128" width="16" height="16">
0,0,0,0,0,0,0,0,1,2,1,2,1,2,1,2,
0,0,0,0,0,0,0,0,13,14,13,14,13,14,13,14,
0,0,0,0,0,0,0,0,0,0,0,0,0,0,0,0,
0,0,0,0,0,0,0,0,0,0,0,0,0,0,0,0,
0,0,0,0,0,0,0,0,0,0,0,0,0,0,0,0,
0,0,0,0,0,0,0,0,0,0,0,0,0,0,0,0,
0,0,0,0,0,0,0,0,0,0,0,0,0,0,0,0,
0,0,0,0,0,0,0,0,0,0,0,0,0,0,0,0,
0,0,0,0,0,0,0,0,0,0,0,0,0,0,0,0,
0,0,0,0,0,0,0,0,0,0,0,0,0,0,0,0,
0,0,0,0,0,0,0,0,0,0,0,0,0,0,0,0,
0,0,0,0,0,0,0,0,0,0,0,0,0,0,0,0,
0,0,0,0,0,0,0,0,0,0,0,0,0,0,0,0,
0,0,0,0,0,0,0,0,0,0,0,0,0,0,0,0,
0,0,0,0,0,0,0,0,0,0,0,0,0,0,0,0,
0,0,0,0,0,0,0,0,0,0,0,0,0,0,0,0
</chunk>
   <chunk x="-32" y="128" width="16" height="16">
1,2,1,2,1,2,1,2,1,2,1,2,1,2,1,2,
13,14,13,14,13,14,13,14,13,14,13,14,13,14,13,14,
0,0,0,0,0,0,0,0,0,0,0,0,0,0,0,0,
0,0,0,0,0,0,0,0,0,0,0,0,0,0,0,0,
0,0,0,0,0,0,0,0,0,0,0,0,0,0,0,0,
0,0,0,0,0,0,0,0,0,0,0,0,0,0,0,0,
0,0,0,0,0,0,0,0,0,0,0,0,0,0,0,0,
0,0,0,0,0,0,0,0,0,0,0,0,0,0,0,0,
0,0,0,0,0,0,0,0,0,0,0,0,0,0,0,0,
0,0,0,0,0,0,0,0,0,0,0,0,0,0,0,0,
0,0,0,0,0,0,0,0,0,0,0,0,0,0,0,0,
0,0,0,0,0,0,0,0,0,0,0,0,0,0,0,0,
0,0,0,0,0,0,0,0,0,0,0,0,0,0,0,0,
0,0,0,0,0,0,0,0,0,0,0,0,0,0,0,0,
0,0,0,0,0,0,0,0,0,0,0,0,0,0,0,0,
0,0,0,0,0,0,0,0,0,0,0,0,0,0,0,0
</chunk>
   <chunk x="-16" y="128" width="16" height="16">
1,2,1,2,1,2,1,2,1,2,1,2,1,2,1,2,
13,14,13,14,13,14,13,14,13,14,13,14,13,14,13,14,
0,0,0,0,0,0,0,0,0,0,0,0,0,0,0,0,
0,0,0,0,0,0,0,0,0,0,0,0,0,0,0,0,
0,0,0,0,0,0,0,0,0,0,0,0,0,0,0,0,
0,0,0,0,0,0,0,0,0,0,0,0,0,0,0,0,
0,0,0,0,0,0,0,0,0,0,0,0,0,0,0,0,
0,0,0,0,0,0,0,0,0,0,0,0,0,0,0,0,
0,0,0,0,0,0,0,0,0,0,0,0,0,0,0,0,
0,0,0,0,0,0,0,0,0,0,0,0,0,0,0,0,
0,0,0,0,0,0,0,0,0,0,0,0,0,0,0,0,
0,0,0,0,0,0,0,0,0,0,0,0,0,0,0,0,
0,0,0,0,0,0,0,0,0,0,0,0,0,0,0,0,
0,0,0,0,0,0,0,0,0,0,0,0,0,0,0,0,
0,0,0,0,0,0,0,0,0,0,0,0,0,0,0,0,
0,0,0,0,0,0,0,0,0,0,0,0,0,0,0,0
</chunk>
   <chunk x="0" y="128" width="16" height="16">
1,2,1,2,1,2,1,2,1,2,1,2,1,2,1,2,
13,14,13,14,13,14,13,14,13,14,13,14,13,14,13,14,
0,0,0,0,0,0,0,0,0,0,0,0,0,0,0,0,
0,0,0,0,0,0,0,0,0,0,0,0,0,0,0,0,
0,0,0,0,0,0,0,0,0,0,0,0,0,0,0,0,
0,0,0,0,0,0,0,0,0,0,0,0,0,0,0,0,
0,0,0,0,0,0,0,0,0,0,0,0,0,0,0,0,
0,0,0,0,0,0,0,0,0,0,0,0,0,0,0,0,
0,0,0,0,0,0,0,0,0,0,0,0,0,0,0,0,
0,0,0,0,0,0,0,0,0,0,0,0,0,0,0,0,
0,0,0,0,0,0,0,0,0,0,0,0,0,0,0,0,
0,0,0,0,0,0,0,0,0,0,0,0,0,0,0,0,
0,0,0,0,0,0,0,0,0,0,0,0,0,0,0,0,
0,0,0,0,0,0,0,0,0,0,0,0,0,0,0,0,
0,0,0,0,0,0,0,0,0,0,0,0,0,0,0,0,
0,0,0,0,0,0,0,0,0,0,0,0,0,0,0,0
</chunk>
   <chunk x="16" y="128" width="16" height="16">
1,2,1,2,1,2,1,2,1,2,1,2,1,2,1,2,
13,14,13,14,13,14,13,14,13,14,13,14,13,14,13,14,
0,0,0,0,0,0,0,0,0,0,0,0,0,0,1,2,
0,0,0,0,0,0,0,0,0,0,0,0,0,0,13,14,
0,0,0,0,0,0,0,0,0,0,0,0,0,0,1,2,
0,0,0,0,0,0,0,0,0,0,0,0,0,0,13,14,
0,0,0,0,0,0,0,0,0,0,0,0,0,0,1,2,
0,0,0,0,0,0,0,0,0,0,0,0,0,0,13,14,
0,0,0,0,0,0,0,0,0,0,0,0,0,0,1,2,
0,0,0,0,0,0,0,0,0,0,0,0,0,0,13,14,
0,0,0,0,0,0,0,0,0,0,0,0,0,0,1,2,
0,0,0,0,0,0,0,0,0,0,0,0,0,0,13,14,
0,0,0,0,0,0,0,0,0,0,0,0,0,0,0,0,
0,0,0,0,0,0,0,0,0,0,0,0,0,0,0,0,
0,0,0,0,0,0,0,0,0,0,0,0,0,0,0,0,
0,0,0,0,0,0,0,0,0,0,0,0,0,0,0,0
</chunk>
   <chunk x="32" y="128" width="16" height="16">
0,0,0,0,0,0,0,0,0,0,0,0,0,0,0,0,
0,0,0,0,0,0,0,0,0,0,0,0,0,0,0,0,
0,0,0,0,0,0,0,0,0,0,0,0,0,0,0,0,
0,0,0,0,0,0,0,0,0,0,0,0,0,0,0,0,
0,0,0,0,0,0,0,0,0,0,0,0,0,0,0,0,
0,0,0,0,0,0,0,0,0,0,0,0,0,0,0,0,
0,0,0,0,0,0,0,0,0,0,0,0,0,0,0,0,
0,0,0,0,0,0,0,0,0,0,0,0,0,0,0,0,
0,0,0,0,0,0,0,0,0,0,0,0,0,0,0,0,
0,0,0,0,0,0,0,0,0,0,0,0,0,0,0,0,
1,2,1,2,1,2,1,2,1,2,1,2,1,2,1,2,
13,14,13,14,13,14,13,14,13,14,13,14,13,14,13,14,
0,0,0,0,0,0,0,0,0,0,0,0,0,0,0,0,
0,0,0,0,0,0,0,0,0,0,0,0,0,0,0,0,
0,0,0,0,0,0,0,0,0,0,0,0,0,0,0,0,
0,0,0,0,0,0,0,0,0,0,0,0,0,0,0,0
</chunk>
   <chunk x="48" y="128" width="16" height="16">
0,0,0,0,0,0,0,0,0,0,0,0,0,0,0,0,
0,0,0,0,0,0,0,0,0,0,0,0,0,0,0,0,
0,0,0,0,0,0,0,0,0,0,0,0,0,0,0,0,
0,0,0,0,0,0,0,0,0,0,0,0,0,0,0,0,
0,0,0,0,0,0,0,0,0,0,0,0,0,0,0,0,
0,0,0,0,0,0,0,0,0,0,0,0,0,0,0,0,
0,0,0,0,0,0,0,0,0,0,0,0,0,0,0,0,
0,0,0,0,0,0,0,0,0,0,0,0,0,0,0,0,
0,0,0,0,0,0,0,0,0,0,0,0,0,0,0,0,
0,0,0,0,0,0,0,0,0,0,0,0,0,0,0,0,
1,2,1,2,1,2,1,2,1,2,1,2,1,2,1,2,
13,14,13,14,13,14,13,14,13,14,13,14,13,14,13,14,
0,0,0,0,0,0,0,0,0,0,0,0,0,0,0,0,
0,0,0,0,0,0,0,0,0,0,0,0,0,0,0,0,
0,0,0,0,0,0,0,0,0,0,0,0,0,0,0,0,
0,0,0,0,0,0,0,0,0,0,0,0,0,0,0,0
</chunk>
   <chunk x="64" y="128" width="16" height="16">
0,0,0,0,1,2,1,2,1,2,1,2,1,2,1,2,
0,0,0,0,13,14,13,14,13,14,13,14,13,14,13,14,
0,0,0,0,1,2,0,0,0,0,0,0,0,0,0,0,
0,0,0,0,13,14,0,0,0,0,0,0,0,0,0,0,
0,0,0,0,1,2,0,0,0,0,0,0,0,0,0,0,
0,0,0,0,13,14,0,0,0,0,0,0,0,0,0,0,
0,0,0,0,1,2,0,0,0,0,0,0,0,0,0,0,
0,0,0,0,13,14,0,0,0,0,0,0,0,0,0,0,
0,0,0,0,1,2,0,0,0,0,0,0,0,0,0,0,
0,0,0,0,13,14,0,0,0,0,0,0,0,0,0,0,
1,2,1,2,1,2,0,0,0,0,0,0,0,0,0,0,
13,14,13,14,13,14,0,0,0,0,0,0,0,0,0,0,
0,0,0,0,0,0,0,0,0,0,0,0,0,0,0,0,
0,0,0,0,0,0,0,0,0,0,0,0,0,0,0,0,
0,0,0,0,0,0,0,0,0,0,0,0,0,0,0,0,
0,0,0,0,0,0,0,0,0,0,0,0,0,0,0,0
</chunk>
   <chunk x="80" y="128" width="16" height="16">
1,2,1,2,1,2,1,2,1,2,1,2,1,2,1,2,
13,14,13,14,13,14,13,14,13,14,13,14,13,14,13,14,
0,0,0,0,0,0,0,0,0,0,0,0,0,0,0,0,
0,0,0,0,0,0,0,0,0,0,0,0,0,0,0,0,
0,0,0,0,0,0,0,0,0,0,0,0,0,0,0,0,
0,0,0,0,0,0,0,0,0,0,0,0,0,0,0,0,
0,0,0,0,0,0,0,0,0,0,0,0,0,0,0,0,
0,0,0,0,0,0,0,0,0,0,0,0,0,0,0,0,
0,0,0,0,0,0,0,0,0,0,0,0,0,0,0,0,
0,0,0,0,0,0,0,0,0,0,0,0,0,0,0,0,
0,0,0,0,0,0,0,0,0,0,0,0,0,0,0,0,
0,0,0,0,0,0,0,0,0,0,0,0,0,0,0,0,
0,0,0,0,0,0,0,0,0,0,0,0,0,0,0,0,
0,0,0,0,0,0,0,0,0,0,0,0,0,0,0,0,
0,0,0,0,0,0,0,0,0,0,0,0,0,0,0,0,
0,0,0,0,0,0,0,0,0,0,0,0,0,0,0,0
</chunk>
   <chunk x="96" y="128" width="16" height="16">
1,2,1,2,1,2,0,0,0,0,0,0,0,0,0,0,
13,14,13,14,13,14,0,0,0,0,0,0,0,0,0,0,
0,0,0,0,1,2,0,0,0,0,0,0,0,0,0,0,
0,0,0,0,13,14,0,0,0,0,0,0,0,0,0,0,
0,0,0,0,1,2,0,0,0,0,0,0,0,0,0,0,
0,0,0,0,13,14,0,0,0,0,0,0,0,0,0,0,
0,0,0,0,1,2,0,0,0,0,0,0,0,0,0,0,
0,0,0,0,13,14,0,0,0,0,0,0,0,0,0,0,
0,0,0,0,1,2,0,0,0,0,0,0,0,0,0,0,
0,0,0,0,13,14,0,0,0,0,0,0,0,0,0,0,
0,0,0,0,1,2,0,0,0,0,0,0,0,0,0,0,
0,0,0,0,13,14,0,0,0,0,0,0,0,0,0,0,
0,0,0,0,1,2,0,0,0,0,0,0,0,0,0,0,
0,0,0,0,13,14,0,0,0,0,0,0,0,0,0,0,
0,0,0,0,1,2,0,0,0,0,0,0,0,0,0,0,
0,0,0,0,13,14,0,0,0,0,0,0,0,0,0,0
</chunk>
   <chunk x="128" y="128" width="16" height="16">
0,0,0,0,0,0,0,0,0,0,1,2,1,2,1,2,
0,0,0,0,0,0,0,0,0,0,13,14,13,14,13,14,
0,0,0,0,0,0,0,0,0,0,1,2,0,0,0,0,
0,0,0,0,0,0,0,0,0,0,13,14,0,0,0,0,
0,0,0,0,0,0,0,0,0,0,1,2,0,0,0,0,
0,0,0,0,0,0,0,0,0,0,13,14,0,0,0,0,
0,0,0,0,0,0,0,0,0,0,1,2,0,0,0,0,
0,0,0,0,0,0,0,0,0,0,13,14,0,0,0,0,
0,0,0,0,0,0,0,0,0,0,1,2,0,0,0,0,
0,0,0,0,0,0,0,0,0,0,13,14,0,0,0,0,
0,0,0,0,0,0,0,0,0,0,1,2,0,0,0,0,
0,0,0,0,0,0,0,0,0,0,13,14,0,0,0,0,
0,0,0,0,0,0,0,0,0,0,1,2,0,0,0,0,
0,0,0,0,0,0,0,0,0,0,13,14,0,0,0,0,
0,0,0,0,0,0,0,0,0,0,1,2,0,0,0,0,
0,0,0,0,0,0,0,0,0,0,13,14,0,0,0,0
</chunk>
   <chunk x="144" y="128" width="16" height="16">
1,2,1,2,1,2,1,2,1,2,1,2,1,2,1,2,
13,14,13,14,13,14,13,14,13,14,13,14,13,14,13,14,
0,0,0,0,0,0,0,0,0,0,0,0,0,0,0,0,
0,0,0,0,0,0,0,0,0,0,0,0,0,0,0,0,
0,0,0,0,0,0,0,0,0,0,0,0,0,0,0,0,
0,0,0,0,0,0,0,0,0,0,0,0,0,0,0,0,
0,0,0,0,0,0,0,0,0,0,0,0,0,0,0,0,
0,0,0,0,0,0,0,0,0,0,0,0,0,0,0,0,
0,0,0,0,0,0,0,0,0,0,0,0,0,0,0,0,
0,0,0,0,0,0,0,0,0,0,0,0,0,0,0,0,
0,0,0,0,0,0,0,0,0,0,0,0,0,0,0,0,
0,0,0,0,0,0,0,0,0,0,0,0,0,0,0,0,
0,0,0,0,0,0,0,0,0,0,0,0,0,0,0,0,
0,0,0,0,0,0,0,0,0,0,0,0,0,0,0,0,
0,0,0,0,0,0,0,0,0,0,0,0,0,0,0,0,
0,0,0,0,0,0,0,0,0,0,0,0,0,0,0,0
</chunk>
   <chunk x="160" y="128" width="16" height="16">
1,2,1,2,1,2,1,2,1,2,1,2,1,2,1,2,
13,14,13,14,13,14,13,14,13,14,13,14,13,14,13,14,
0,0,0,0,0,0,0,0,0,0,0,0,0,0,0,0,
0,0,0,0,0,0,0,0,0,0,0,0,0,0,0,0,
0,0,0,0,0,0,0,0,0,0,0,0,0,0,0,0,
0,0,0,0,0,0,0,0,0,0,0,0,0,0,0,0,
0,0,0,0,0,0,0,0,0,0,0,0,0,0,0,0,
0,0,0,0,0,0,0,0,0,0,0,0,0,0,0,0,
0,0,0,0,0,0,0,0,0,0,0,0,0,0,0,0,
0,0,0,0,0,0,0,0,0,0,0,0,0,0,0,0,
0,0,0,0,0,0,0,0,0,0,0,0,0,0,0,0,
0,0,0,0,0,0,0,0,0,0,0,0,0,0,0,0,
0,0,0,0,0,0,0,0,0,0,0,0,0,0,0,0,
0,0,0,0,0,0,0,0,0,0,0,0,0,0,0,0,
0,0,0,0,0,0,0,0,0,0,0,0,0,0,0,0,
0,0,0,0,0,0,0,0,0,0,0,0,0,0,0,0
</chunk>
   <chunk x="176" y="128" width="16" height="16">
1,2,1,2,0,0,0,0,0,0,0,0,0,0,0,0,
13,14,13,14,0,0,0,0,0,0,0,0,0,0,0,0,
0,0,0,0,0,0,0,0,0,0,0,0,0,0,0,0,
0,0,0,0,0,0,0,0,0,0,0,0,0,0,0,0,
0,0,0,0,0,0,0,0,0,0,0,0,0,0,0,0,
0,0,0,0,0,0,0,0,0,0,0,0,0,0,0,0,
0,0,0,0,0,0,0,0,0,0,0,0,0,0,0,0,
0,0,0,0,0,0,0,0,0,0,0,0,0,0,0,0,
0,0,0,0,0,0,0,0,0,0,0,0,0,0,0,0,
0,0,0,0,0,0,0,0,0,0,0,0,0,0,0,0,
0,0,0,0,0,0,0,0,0,0,0,0,0,0,0,0,
0,0,0,0,0,0,0,0,0,0,0,0,0,0,0,0,
0,0,0,0,0,0,0,0,0,0,0,0,0,0,0,0,
0,0,0,0,0,0,0,0,0,0,0,0,0,0,0,0,
0,0,0,0,0,0,0,0,0,0,0,0,0,0,0,0,
0,0,0,0,0,0,0,0,0,0,0,0,0,0,0,0
</chunk>
   <chunk x="96" y="144" width="16" height="16">
0,0,0,0,1,2,0,0,0,0,0,0,0,0,0,0,
0,0,0,0,13,14,0,0,0,0,0,0,0,0,0,0,
0,0,0,0,1,2,0,0,0,0,0,0,0,0,0,0,
0,0,0,0,13,14,0,0,0,0,0,0,0,0,0,0,
0,0,0,0,1,2,0,0,0,0,0,0,0,0,0,0,
0,0,0,0,13,14,0,0,0,0,0,0,0,0,0,0,
0,0,0,0,1,2,0,0,0,0,0,0,0,0,0,0,
0,0,0,0,13,14,0,0,0,0,0,0,0,0,0,0,
0,0,0,0,1,2,0,0,0,0,0,0,0,0,0,0,
0,0,0,0,13,14,0,0,0,0,0,0,0,0,0,0,
0,0,0,0,1,2,0,0,0,0,0,0,0,0,0,0,
0,0,0,0,13,14,0,0,0,0,0,0,0,0,0,0,
0,0,0,0,1,2,0,0,0,0,0,0,0,0,0,0,
0,0,0,0,13,14,0,0,0,0,0,0,0,0,0,0,
0,0,0,0,1,2,0,0,0,0,0,0,0,0,0,0,
0,0,0,0,13,14,0,0,0,0,0,0,0,0,0,0
</chunk>
   <chunk x="112" y="144" width="16" height="16">
0,0,0,0,0,0,0,0,0,0,0,0,0,0,0,0,
0,0,0,0,0,0,0,0,0,0,0,0,0,0,0,0,
0,0,0,0,0,0,0,0,0,0,0,0,0,0,0,0,
0,0,0,0,0,0,0,0,0,0,0,0,0,0,0,0,
0,0,0,0,0,0,0,0,0,0,0,0,0,0,0,0,
0,0,0,0,0,0,0,0,0,0,0,0,0,0,0,0,
0,0,0,0,0,32,34,35,32,34,35,0,0,0,0,0,
0,0,0,0,0,7,8,9,19,21,23,0,0,0,0,0,
0,0,0,0,0,57,58,59,57,58,59,0,0,0,0,0,
0,0,0,0,0,0,0,0,0,0,0,0,0,0,0,0,
0,0,0,0,0,0,0,0,0,0,0,0,0,0,0,0,
0,0,0,0,0,0,0,0,0,0,0,0,0,0,0,0,
0,0,0,0,0,0,0,0,0,0,0,0,0,0,0,0,
0,0,0,0,0,0,0,0,0,0,0,0,0,0,0,0,
0,0,0,0,0,0,0,0,0,0,0,0,0,0,0,0,
0,0,0,0,0,0,0,0,0,0,0,0,0,0,0,0
</chunk>
   <chunk x="128" y="144" width="16" height="16">
0,0,0,0,0,0,0,0,0,0,1,2,0,0,0,0,
0,0,0,0,0,0,0,0,0,0,13,14,0,0,0,0,
0,0,0,0,0,0,0,0,0,0,1,2,0,0,0,0,
0,0,0,0,0,0,0,0,0,0,13,14,0,0,0,0,
0,0,0,0,0,0,0,0,0,0,1,2,0,0,0,0,
0,0,0,0,0,0,0,0,0,0,13,14,0,0,0,0,
0,0,0,0,0,0,0,0,0,0,1,2,0,0,0,0,
0,0,0,0,0,0,0,0,0,0,13,14,0,0,0,0,
0,0,0,0,0,0,0,0,0,0,1,2,0,0,0,0,
0,0,0,0,0,0,0,0,0,0,13,14,0,0,0,0,
0,0,0,0,0,0,0,0,0,0,1,2,0,0,0,0,
0,0,0,0,0,0,0,0,0,0,13,14,0,0,0,0,
0,0,0,0,0,0,0,0,0,0,1,2,0,0,0,0,
0,0,0,0,0,0,0,0,0,0,13,14,0,0,0,0,
0,0,0,0,0,0,0,0,0,0,1,2,0,0,0,0,
0,0,0,0,0,0,0,0,0,0,13,14,0,0,0,0
</chunk>
   <chunk x="96" y="160" width="16" height="16">
0,0,0,0,1,2,0,0,0,0,0,0,0,0,0,0,
0,0,0,0,13,14,0,0,0,0,0,0,0,0,0,0,
0,0,0,0,1,2,0,0,0,0,0,0,0,0,0,0,
0,0,0,0,13,14,0,0,0,0,0,0,0,0,0,0,
0,0,0,0,1,2,0,0,0,0,0,0,0,0,0,0,
0,0,0,0,13,14,0,0,0,0,0,0,0,0,0,0,
0,0,0,0,1,2,0,0,0,0,0,0,0,0,0,0,
0,0,0,0,13,14,0,0,0,0,0,0,0,0,0,0,
0,0,0,0,1,2,1,2,1,2,1,2,1,2,1,2,
0,0,0,0,13,14,13,14,13,14,13,14,13,14,13,14,
0,0,0,0,0,0,0,0,0,0,0,0,0,0,0,0,
0,0,0,0,0,0,0,0,0,0,0,0,0,0,0,0,
0,0,0,0,0,0,0,0,0,0,0,0,0,0,0,0,
0,0,0,0,0,0,0,0,0,0,0,0,0,0,0,0,
0,0,0,0,0,0,0,0,0,0,0,0,0,0,0,0,
0,0,0,0,0,0,0,0,0,0,0,0,0,0,0,0
</chunk>
   <chunk x="112" y="160" width="16" height="16">
0,0,0,0,0,0,0,0,0,0,0,0,0,0,0,0,
0,0,0,0,0,0,0,0,0,0,0,0,0,0,0,0,
0,0,0,0,0,0,0,0,0,0,0,0,0,0,0,0,
0,0,0,0,0,0,0,0,0,0,0,0,0,0,0,0,
0,0,0,0,0,0,0,0,0,0,0,0,0,0,0,0,
0,0,0,0,0,0,0,0,0,0,0,0,0,0,0,0,
0,0,0,0,0,0,0,0,0,0,0,0,0,0,0,0,
0,0,0,0,0,0,0,0,0,0,0,0,0,0,0,0,
1,2,1,2,1,2,1,2,1,2,1,2,1,2,1,2,
13,14,13,14,13,14,13,14,13,14,13,14,13,14,13,14,
0,0,0,0,0,0,0,0,0,0,0,0,0,0,0,0,
0,0,0,0,0,0,0,0,0,0,0,0,0,0,0,0,
0,0,0,0,0,0,0,0,0,0,0,0,0,0,0,0,
0,0,0,0,0,0,0,0,0,0,0,0,0,0,0,0,
0,0,0,0,0,0,0,0,0,0,0,0,0,0,0,0,
0,0,0,0,0,0,0,0,0,0,0,0,0,0,0,0
</chunk>
   <chunk x="128" y="160" width="16" height="16">
0,0,0,0,0,0,0,0,0,0,1,2,0,0,0,0,
0,0,0,0,0,0,0,0,0,0,13,14,0,0,0,0,
0,0,0,0,0,0,0,0,0,0,1,2,0,0,0,0,
0,0,0,0,0,0,0,0,0,0,13,14,0,0,0,0,
0,0,0,0,0,0,0,0,0,0,1,2,0,0,0,0,
0,0,0,0,0,0,0,0,0,0,13,14,0,0,0,0,
0,0,0,0,0,0,0,0,0,0,1,2,0,0,0,0,
0,0,0,0,0,0,0,0,0,0,13,14,0,0,0,0,
1,2,1,2,1,2,1,2,1,2,1,2,0,0,0,0,
13,14,13,14,13,14,13,14,13,14,13,14,0,0,0,0,
0,0,0,0,0,0,0,0,0,0,0,0,0,0,0,0,
0,0,0,0,0,0,0,0,0,0,0,0,0,0,0,0,
0,0,0,0,0,0,0,0,0,0,0,0,0,0,0,0,
0,0,0,0,0,0,0,0,0,0,0,0,0,0,0,0,
0,0,0,0,0,0,0,0,0,0,0,0,0,0,0,0,
0,0,0,0,0,0,0,0,0,0,0,0,0,0,0,0
</chunk>
  </data>
 </layer>
 <group id="20" name="route_1" offsetx="1008.09" offsety="2959.45">
  <layer id="21" name="bottom" width="40" height="60">
   <data encoding="csv">
    <chunk x="-64" y="-48" width="16" height="16">
0,0,0,0,0,0,0,0,0,0,0,0,0,0,0,0,
0,0,0,0,0,0,0,0,0,0,0,0,0,0,0,0,
0,0,0,0,0,0,0,0,0,0,0,0,0,0,0,0,
0,0,0,0,0,0,0,0,0,0,0,0,0,0,0,0,
0,0,0,0,0,0,77,77,77,77,77,77,77,77,77,77,
0,0,0,0,0,0,77,77,77,77,77,77,77,77,77,77,
0,0,0,0,0,0,77,77,77,77,77,77,77,77,77,77,
0,0,0,0,0,0,77,77,77,77,77,77,77,77,77,77,
0,0,0,0,0,0,77,77,77,77,77,77,77,77,77,77,
0,0,0,0,0,0,77,77,77,77,77,77,77,77,77,77,
0,0,0,0,0,0,77,77,77,77,77,77,77,77,77,77,
0,0,0,0,0,0,77,77,77,77,77,77,77,77,77,77,
0,0,0,0,0,0,77,77,77,77,77,77,77,77,77,77,
0,0,0,0,0,0,77,77,77,77,77,77,77,77,77,77,
0,0,0,0,0,0,77,77,77,77,77,77,77,77,77,77,
0,0,0,0,0,0,77,77,77,77,77,77,77,77,77,77
</chunk>
    <chunk x="-48" y="-48" width="16" height="16">
0,0,0,0,0,0,0,0,0,0,0,0,0,0,0,0,
0,0,0,0,0,0,0,0,0,0,0,0,0,0,0,0,
0,0,0,0,0,0,0,0,0,0,0,0,0,0,0,0,
0,0,0,0,0,0,0,0,0,0,0,0,0,0,0,0,
77,77,77,77,77,77,77,77,77,77,77,77,77,77,77,77,
77,77,77,77,77,77,77,77,77,77,77,77,77,77,77,77,
77,77,77,77,77,77,77,77,77,77,77,77,77,77,77,77,
77,77,77,77,77,77,77,77,77,77,77,77,77,77,77,77,
77,77,77,77,77,77,77,77,77,77,77,77,77,77,77,77,
76,76,76,76,76,76,76,76,76,76,76,76,76,76,76,76,
76,76,76,76,76,76,76,76,76,76,76,76,76,76,76,76,
76,76,76,76,76,76,76,76,76,76,76,76,76,76,76,76,
59,76,76,76,76,76,76,76,76,76,76,76,76,76,76,76,
76,76,76,76,76,76,76,76,76,76,76,76,76,76,76,76,
76,76,76,76,76,76,76,76,76,76,76,76,76,76,76,76,
76,77,76,76,76,76,76,76,76,76,76,76,76,76,76,76
</chunk>
    <chunk x="-32" y="-48" width="16" height="16">
0,0,0,0,0,0,0,0,0,0,0,0,0,0,0,0,
0,0,0,0,0,0,0,0,0,0,0,0,0,0,0,0,
0,0,0,0,0,0,0,0,0,0,0,0,0,0,0,0,
0,0,0,0,0,0,0,0,0,0,0,0,0,0,0,0,
77,77,77,77,77,77,77,77,77,77,77,77,77,77,77,77,
77,77,77,77,77,77,77,77,77,77,77,77,77,77,77,77,
77,77,77,77,77,77,77,77,77,77,77,77,77,77,77,77,
77,77,77,77,77,77,77,77,77,77,77,77,77,77,77,77,
77,77,77,77,77,77,77,77,77,77,77,77,77,77,77,77,
76,76,76,76,76,76,76,76,76,76,76,76,76,76,76,76,
76,76,76,76,76,76,76,76,76,76,76,76,76,76,76,76,
76,76,76,76,76,76,76,76,76,76,76,76,76,76,76,76,
76,76,76,76,76,76,76,76,76,76,76,76,76,76,76,76,
76,76,76,76,76,76,76,76,76,76,76,76,76,76,76,76,
76,76,76,76,76,76,76,76,76,76,76,76,76,76,76,76,
76,76,76,76,76,76,76,76,76,76,76,76,76,76,76,76
</chunk>
    <chunk x="-16" y="-48" width="16" height="16">
0,0,0,0,0,0,0,0,0,0,0,0,0,0,0,0,
0,0,0,0,0,0,0,0,0,0,0,0,0,0,0,0,
0,0,0,0,0,0,0,0,0,0,0,0,0,0,0,0,
0,0,0,0,0,0,0,0,0,0,0,0,0,0,0,0,
77,77,77,77,77,77,77,77,77,77,77,77,77,77,77,77,
77,77,77,77,77,77,77,77,77,77,77,77,77,77,77,77,
77,77,77,77,77,77,77,77,77,77,77,77,77,77,77,77,
77,77,77,77,77,77,77,77,77,77,77,77,77,77,77,77,
77,77,77,77,77,77,77,77,77,77,77,77,77,77,77,77,
76,76,76,76,76,76,76,76,76,76,76,76,76,77,77,77,
76,76,76,76,76,76,76,76,76,76,76,76,76,77,77,77,
76,76,76,76,76,76,76,76,76,76,76,76,76,77,77,77,
76,76,76,76,76,76,76,76,76,76,76,76,76,77,77,77,
76,77,77,77,77,76,76,76,76,76,76,76,76,77,77,77,
77,60,5,5,69,77,76,76,76,76,76,76,76,77,77,77,
77,5,5,5,5,77,76,76,76,76,76,76,76,77,77,77
</chunk>
    <chunk x="0" y="-48" width="16" height="16">
0,0,0,0,0,0,0,0,0,0,0,0,0,0,0,0,
0,0,0,0,0,0,0,0,0,0,0,0,0,0,0,0,
0,0,0,0,0,0,0,0,0,0,0,0,0,0,0,0,
0,0,0,0,0,0,0,0,0,0,0,0,0,0,0,0,
77,77,77,77,0,0,0,0,0,0,0,0,0,0,0,0,
77,77,77,77,0,0,0,0,0,0,0,0,0,0,0,0,
77,77,77,77,0,0,0,0,0,0,0,0,0,0,0,0,
77,77,77,77,0,0,0,0,0,0,0,0,0,0,0,0,
77,77,77,77,0,0,0,0,0,0,0,0,0,0,0,0,
77,77,77,77,0,0,0,0,0,0,0,0,0,0,0,0,
77,77,77,77,0,0,0,0,0,0,0,0,0,0,0,0,
77,77,77,77,0,0,0,0,0,0,0,0,0,0,0,0,
77,77,77,77,0,0,0,0,0,0,0,0,0,0,0,0,
77,77,77,77,0,0,0,0,0,0,0,0,0,0,0,0,
77,77,77,77,0,0,0,0,0,0,0,0,0,0,0,0,
77,77,77,77,0,0,0,0,0,0,0,0,0,0,0,0
</chunk>
    <chunk x="-64" y="-32" width="16" height="16">
0,0,0,0,0,0,77,77,77,77,77,77,77,77,77,77,
0,0,0,0,0,0,77,77,77,77,77,77,77,77,77,77,
0,0,0,0,0,0,77,77,77,77,77,77,77,77,77,77,
0,0,0,0,0,0,77,77,77,77,77,77,77,77,77,77,
0,0,0,0,0,0,77,77,77,77,77,77,77,77,77,77,
0,0,0,0,0,0,77,77,77,77,77,77,77,77,77,77,
0,0,0,0,0,0,77,77,77,77,77,77,77,77,77,77,
0,0,0,0,0,0,77,77,77,77,77,77,77,77,77,77,
0,0,0,0,0,0,77,77,77,77,77,77,77,77,77,77,
0,0,0,0,0,0,77,77,77,77,77,77,77,77,77,77,
0,0,0,0,0,0,77,77,77,77,77,77,77,77,77,77,
0,0,0,0,0,0,77,77,77,77,77,77,77,77,77,77,
0,0,0,0,0,0,77,77,77,77,77,77,77,77,77,77,
0,0,0,0,0,0,77,77,77,77,77,77,77,77,77,101,
0,0,0,0,0,0,77,77,77,77,77,77,77,77,77,77,
0,0,0,0,0,0,77,77,77,77,77,77,77,77,77,77
</chunk>
    <chunk x="-48" y="-32" width="16" height="16">
76,77,76,76,76,76,76,76,76,76,76,76,76,76,76,76,
76,77,76,76,76,76,76,76,76,76,76,76,76,76,76,76,
76,77,76,76,76,76,76,76,76,76,76,76,76,76,76,76,
76,77,76,76,76,77,77,76,76,76,76,76,76,76,76,76,
77,77,76,76,76,76,76,77,76,76,76,76,76,76,76,76,
76,77,76,76,76,76,60,76,76,76,76,76,76,76,76,76,
77,76,76,76,76,76,77,76,76,76,76,76,76,76,76,76,
77,76,76,76,76,77,77,76,76,76,76,76,76,76,76,76,
77,76,76,76,76,76,76,76,76,76,76,76,76,76,76,76,
77,77,77,77,77,77,76,76,76,76,76,76,76,76,76,76,
76,77,77,77,77,77,76,76,76,76,76,76,76,76,76,76,
76,77,77,77,77,77,76,76,76,76,76,76,76,76,76,76,
76,76,77,77,76,76,76,76,76,76,76,76,76,76,76,76,
102,102,102,102,102,102,102,102,103,76,76,76,76,76,76,76,
76,77,77,77,77,76,76,76,77,76,76,76,59,76,76,76,
76,76,77,77,77,77,77,77,76,77,77,77,76,77,77,77
</chunk>
    <chunk x="-32" y="-32" width="16" height="16">
76,76,76,76,76,76,76,76,76,76,76,76,76,76,76,76,
76,76,76,76,76,76,76,76,76,76,76,76,76,76,76,76,
76,76,76,76,77,76,76,76,77,77,77,77,76,76,77,77,
76,76,76,77,76,77,77,77,77,76,76,77,77,77,76,76,
76,76,77,76,77,76,76,76,76,76,76,76,76,76,76,76,
76,76,76,77,76,76,76,76,76,76,76,76,76,76,76,76,
76,76,77,76,76,76,76,76,76,76,76,76,76,76,76,76,
76,76,76,76,76,76,76,76,76,76,76,76,76,76,76,76,
76,76,76,76,76,76,76,76,76,76,76,76,76,76,76,76,
76,76,76,76,76,76,76,76,76,76,76,76,76,76,76,76,
76,76,76,76,76,76,76,76,76,76,76,76,76,76,76,76,
76,76,76,76,76,76,76,76,76,76,76,76,76,76,76,76,
76,76,76,76,76,76,76,76,76,76,76,76,76,76,76,76,
76,76,76,76,76,76,76,76,76,76,76,76,76,76,76,76,
76,76,76,76,76,76,76,76,76,76,76,76,76,76,76,76,
77,77,76,76,76,76,76,77,77,77,77,77,76,76,76,76
</chunk>
    <chunk x="-16" y="-32" width="16" height="16">
77,5,5,5,5,77,76,76,76,76,76,76,76,77,77,77,
77,69,5,5,60,77,76,76,76,76,76,76,76,77,77,77,
76,77,77,77,77,76,76,76,76,76,76,76,76,77,77,77,
76,76,76,76,76,76,76,76,76,76,76,76,76,77,77,77,
76,76,76,76,76,76,76,76,76,76,76,76,76,77,77,77,
76,76,76,76,76,76,76,76,76,76,76,76,76,77,77,77,
76,76,76,76,76,76,76,76,76,76,76,76,76,77,77,77,
76,76,76,76,76,76,76,76,76,76,76,76,76,77,77,77,
76,76,76,76,76,76,76,76,76,76,76,76,76,77,77,77,
76,76,76,76,76,76,76,76,76,76,76,76,76,77,77,77,
76,76,76,76,76,76,76,76,76,76,76,76,76,77,77,77,
76,76,76,76,76,76,76,76,76,76,76,76,76,77,77,77,
76,76,76,76,76,76,76,76,76,76,76,76,76,77,77,77,
76,76,76,76,76,76,76,76,76,76,76,76,76,77,77,77,
76,76,76,76,76,76,76,76,76,76,76,76,76,77,77,77,
76,77,77,77,77,77,76,76,76,76,76,76,76,77,77,77
</chunk>
    <chunk x="0" y="-32" width="16" height="16">
77,77,77,77,0,0,0,0,0,0,0,0,0,0,0,0,
77,77,77,77,0,0,0,0,0,0,0,0,0,0,0,0,
77,77,77,77,0,0,0,0,0,0,0,0,0,0,0,0,
77,77,77,77,0,0,0,0,0,0,0,0,0,0,0,0,
77,77,77,77,0,0,0,0,0,0,0,0,0,0,0,0,
77,77,77,77,0,0,0,0,0,0,0,0,0,0,0,0,
77,77,77,77,0,0,0,0,0,0,0,0,0,0,0,0,
77,77,77,77,0,0,0,0,0,0,0,0,0,0,0,0,
77,77,77,77,0,0,0,0,0,0,0,0,0,0,0,0,
77,77,77,77,0,0,0,0,0,0,0,0,0,0,0,0,
77,77,77,77,0,0,0,0,0,0,0,0,0,0,0,0,
77,77,77,77,0,0,0,0,0,0,0,0,0,0,0,0,
77,77,77,77,0,0,0,0,0,0,0,0,0,0,0,0,
77,77,77,77,0,0,0,0,0,0,0,0,0,0,0,0,
77,77,77,77,0,0,0,0,0,0,0,0,0,0,0,0,
77,77,77,77,0,0,0,0,0,0,0,0,0,0,0,0
</chunk>
    <chunk x="-64" y="-16" width="16" height="16">
0,0,0,0,0,0,77,77,77,77,77,77,77,77,77,77,
0,0,0,0,0,0,77,77,77,77,77,77,77,77,77,77,
0,0,0,0,0,0,77,77,77,77,77,77,77,77,77,77,
0,0,0,0,0,0,77,77,77,77,77,77,77,77,77,77,
0,0,0,0,0,0,77,77,77,77,77,77,77,77,77,77,
0,0,0,0,0,0,77,77,77,77,77,77,77,77,77,77,
0,0,0,0,0,0,77,77,77,77,77,77,77,77,77,77,
0,0,0,0,0,0,77,77,77,77,77,77,77,77,77,77,
0,0,0,0,0,0,77,77,77,77,77,77,77,77,77,77,
0,0,0,0,0,0,77,77,77,77,77,77,77,77,77,77,
0,0,0,0,0,0,77,77,77,77,77,77,77,77,77,77,
0,0,0,0,0,0,77,77,77,77,77,77,77,77,77,77,
0,0,0,0,0,0,77,77,77,77,77,77,77,77,77,77,
0,0,0,0,0,0,77,77,77,77,77,77,77,77,77,77,
0,0,0,0,0,0,77,77,77,77,77,77,77,77,77,77,
0,0,0,0,0,0,77,77,77,77,77,77,77,77,77,77
</chunk>
    <chunk x="-48" y="-16" width="16" height="16">
60,76,77,76,76,76,76,77,77,77,77,77,76,76,76,76,
76,76,77,77,76,76,76,76,76,77,77,77,77,77,76,76,
76,77,76,76,76,76,76,76,76,76,76,76,76,76,76,76,
76,76,76,76,76,76,76,76,76,76,76,76,76,76,76,76,
76,76,76,76,76,76,76,76,76,76,76,76,76,76,76,76,
76,77,76,76,76,76,76,76,76,76,76,76,76,76,76,76,
76,77,76,76,76,76,76,76,76,76,76,76,76,76,76,76,
77,77,76,76,76,76,76,77,77,77,77,77,77,77,77,77,
77,76,76,76,76,76,60,77,77,77,77,77,77,77,77,77,
76,77,76,76,76,76,76,77,77,76,76,76,76,76,76,76,
76,77,76,76,76,76,76,77,77,76,76,76,76,76,76,76,
77,76,76,76,76,76,76,77,77,76,76,76,76,76,76,76,
77,76,76,76,76,76,76,77,76,76,76,76,76,76,76,76,
77,76,76,76,76,76,76,77,77,76,76,76,76,76,76,76,
76,77,76,76,76,76,76,77,76,76,76,76,76,76,76,76,
76,77,76,76,76,76,76,77,76,76,76,76,76,76,76,76
</chunk>
    <chunk x="-32" y="-16" width="16" height="16">
77,77,77,60,77,77,77,77,76,76,76,76,77,77,77,77,
76,76,76,76,76,76,76,76,76,76,76,76,76,76,76,76,
76,76,76,76,76,76,76,76,76,76,76,76,76,76,76,76,
76,76,76,76,76,76,76,76,76,76,76,76,76,76,76,76,
76,76,76,76,76,76,76,76,76,76,76,76,76,76,76,76,
76,76,76,76,76,76,76,76,76,76,76,76,76,76,76,76,
76,76,76,76,76,76,76,76,76,76,76,76,76,76,76,76,
77,77,77,77,77,77,77,77,76,76,76,76,76,76,76,76,
77,77,77,59,77,77,77,77,76,76,76,76,76,76,76,76,
76,76,76,76,76,76,77,77,76,76,76,76,76,76,76,76,
76,76,76,76,76,76,76,77,76,76,76,76,76,76,76,76,
76,76,76,76,76,76,76,77,76,76,76,76,76,76,76,76,
76,76,76,76,76,76,76,77,76,76,76,76,76,76,76,76,
76,76,76,76,76,76,76,77,76,76,76,76,76,76,77,77,
76,76,76,76,76,76,76,77,59,76,76,76,76,76,77,77,
76,76,76,76,76,76,76,77,77,77,77,77,77,77,77,76
</chunk>
    <chunk x="-16" y="-16" width="16" height="16">
77,77,77,77,77,77,76,76,76,76,76,76,76,77,77,77,
76,76,77,77,77,76,76,76,76,76,76,76,76,77,77,77,
76,76,77,77,77,76,76,76,76,76,76,76,76,77,77,77,
76,76,77,77,76,76,76,76,76,76,76,76,76,77,77,77,
76,76,77,77,76,76,76,76,76,76,76,76,76,77,77,77,
76,76,76,77,59,76,76,76,76,76,76,76,76,77,77,77,
76,76,76,77,76,76,76,76,76,76,76,76,76,77,77,77,
76,76,76,77,76,76,76,76,76,76,76,76,76,77,77,77,
76,76,76,77,77,76,76,76,76,76,76,76,76,77,77,77,
76,76,76,76,77,76,76,76,76,76,76,76,76,77,77,77,
76,76,76,76,77,76,76,76,76,76,76,76,76,77,77,77,
76,76,76,77,77,76,76,76,76,76,76,76,76,77,77,77,
76,76,76,77,77,77,76,76,76,76,76,76,76,77,77,77,
77,77,77,77,77,77,77,77,76,76,76,76,76,77,77,77,
77,77,77,77,77,77,77,77,76,76,76,76,76,77,77,77,
76,76,76,76,76,76,77,77,76,76,76,76,76,77,77,77
</chunk>
    <chunk x="0" y="-16" width="16" height="16">
77,77,77,77,0,0,0,0,0,0,0,0,0,0,0,0,
77,77,77,77,0,0,0,0,0,0,0,0,0,0,0,0,
77,77,77,77,0,0,0,0,0,0,0,0,0,0,0,0,
77,77,77,77,0,0,0,0,0,0,0,0,0,0,0,0,
77,77,77,77,0,0,0,0,0,0,0,0,0,0,0,0,
77,77,77,77,0,0,0,0,0,0,0,0,0,0,0,0,
77,77,77,77,0,0,0,0,0,0,0,0,0,0,0,0,
77,77,77,77,0,0,0,0,0,0,0,0,0,0,0,0,
77,77,77,77,0,0,0,0,0,0,0,0,0,0,0,0,
77,77,77,77,0,0,0,0,0,0,0,0,0,0,0,0,
77,77,77,77,0,0,0,0,0,0,0,0,0,0,0,0,
77,77,77,77,0,0,0,0,0,0,0,0,0,0,0,0,
77,77,77,77,0,0,0,0,0,0,0,0,0,0,0,0,
77,77,77,77,0,0,0,0,0,0,0,0,0,0,0,0,
77,77,77,77,0,0,0,0,0,0,0,0,0,0,0,0,
77,77,77,77,0,0,0,0,0,0,0,0,0,0,0,0
</chunk>
    <chunk x="-64" y="0" width="16" height="16">
0,0,0,0,0,0,77,77,77,77,77,77,77,77,77,77,
0,0,0,0,0,0,77,77,77,77,77,77,77,77,77,77,
0,0,0,0,0,0,77,77,77,77,77,77,77,77,77,77,
0,0,0,0,0,0,77,77,77,77,77,77,77,77,77,77,
0,0,0,0,0,0,77,77,77,77,77,77,77,77,77,77,
0,0,0,0,0,0,77,77,77,77,77,77,77,77,77,77,
0,0,0,0,0,0,77,77,77,77,77,77,77,77,77,77,
0,0,0,0,0,0,77,77,77,77,77,77,77,77,77,77,
0,0,0,0,0,0,77,77,77,77,77,77,77,77,77,77,
0,0,0,0,0,0,77,77,77,77,77,77,77,77,77,77,
0,0,0,0,0,0,77,77,77,77,77,77,77,77,77,77,
0,0,0,0,0,0,77,77,77,77,77,77,77,77,77,77,
0,0,0,0,0,0,77,77,77,77,77,77,77,77,77,77,
0,0,0,0,0,0,77,77,77,77,77,77,77,77,77,77,
0,0,0,0,0,0,77,77,77,77,77,77,77,77,77,77,
0,0,0,0,0,0,77,77,77,77,77,77,77,77,77,77
</chunk>
    <chunk x="-48" y="0" width="16" height="16">
76,77,76,76,76,76,76,77,76,76,76,76,76,76,76,76,
77,76,76,76,76,77,77,77,77,77,77,77,77,77,76,76,
76,77,76,76,76,77,77,77,77,77,77,77,77,77,76,76,
76,77,76,76,76,77,76,76,76,76,76,76,76,76,59,76,
76,76,76,76,76,76,76,76,76,76,76,76,76,76,76,76,
76,76,76,76,76,76,76,76,76,76,76,76,76,76,76,76,
76,77,77,76,77,76,76,76,76,76,76,76,76,76,76,76,
76,76,76,77,76,76,76,76,76,76,76,76,76,76,76,76,
76,76,76,76,76,76,76,76,76,76,76,76,76,76,76,76,
76,76,76,76,76,76,76,76,76,76,76,76,76,76,76,76,
76,76,76,76,76,76,76,76,76,76,76,76,76,76,76,76,
76,76,76,76,76,76,76,76,76,76,76,76,76,76,76,76,
76,76,76,76,76,76,76,76,76,76,76,76,76,76,76,76,
76,76,76,76,76,76,76,76,76,76,76,76,76,76,76,76,
76,76,76,76,76,76,76,76,76,76,76,76,76,76,76,76,
76,76,76,76,76,76,76,76,76,76,76,76,76,76,76,76
</chunk>
    <chunk x="-32" y="0" width="16" height="16">
76,76,76,76,76,76,76,76,76,77,77,77,77,77,76,76,
76,76,76,76,76,76,76,76,76,76,76,76,76,76,76,76,
76,76,76,76,76,76,76,76,76,76,76,76,76,76,76,76,
76,76,76,76,76,76,76,76,76,76,76,76,76,76,76,76,
76,76,76,76,76,76,76,76,76,76,76,76,76,76,76,76,
76,76,76,76,76,76,76,76,76,76,76,76,76,76,76,76,
76,76,76,76,76,76,76,76,76,76,76,76,76,76,76,76,
76,76,76,76,76,76,76,76,76,76,76,76,76,76,76,76,
76,76,76,76,76,76,76,76,76,76,76,76,76,76,76,76,
76,76,76,76,76,76,76,76,76,76,76,76,76,76,76,76,
76,76,76,76,76,76,76,76,76,77,77,77,76,76,76,76,
76,76,76,76,76,76,76,76,76,77,77,77,77,77,76,76,
76,76,76,76,76,76,76,76,76,77,77,77,77,77,77,77,
76,76,76,76,76,76,76,76,76,76,76,76,77,77,77,77,
76,76,76,76,76,76,76,76,76,76,76,76,76,76,76,76,
76,76,76,76,76,76,76,76,76,76,76,76,76,76,76,76
</chunk>
    <chunk x="-16" y="0" width="16" height="16">
76,76,76,76,76,76,77,77,76,76,76,76,76,77,77,77,
76,76,76,76,76,76,77,77,76,76,76,76,76,77,77,77,
76,76,76,76,76,76,77,77,76,76,76,76,76,77,77,77,
76,76,76,76,76,77,77,77,77,76,76,76,76,77,77,77,
76,76,101,102,102,102,102,102,102,102,102,103,76,77,77,77,
76,76,76,76,76,77,77,77,77,76,76,76,76,77,77,77,
76,76,76,76,76,76,77,77,76,76,76,76,76,77,77,77,
76,76,76,59,76,76,77,77,76,76,76,76,76,77,77,77,
76,76,76,76,76,76,77,77,77,77,76,76,76,77,77,77,
76,76,76,76,76,76,77,77,77,77,76,69,76,77,77,77,
76,76,76,76,76,76,76,76,77,77,76,76,76,77,77,77,
76,76,76,76,76,76,76,76,77,77,76,76,76,77,77,77,
77,77,77,77,77,77,77,77,77,77,77,77,76,77,77,77,
77,77,77,77,77,77,77,77,77,77,77,77,76,77,77,77,
76,76,76,76,76,76,76,76,76,76,77,77,76,77,77,77,
76,76,76,76,76,76,76,76,69,76,57,58,76,77,77,77
</chunk>
    <chunk x="0" y="0" width="16" height="16">
77,77,77,77,0,0,0,0,0,0,0,0,0,0,0,0,
77,77,77,77,0,0,0,0,0,0,0,0,0,0,0,0,
77,77,77,77,0,0,0,0,0,0,0,0,0,0,0,0,
77,77,77,77,0,0,0,0,0,0,0,0,0,0,0,0,
77,77,77,77,0,0,0,0,0,0,0,0,0,0,0,0,
77,77,77,77,0,0,0,0,0,0,0,0,0,0,0,0,
77,77,77,77,0,0,0,0,0,0,0,0,0,0,0,0,
77,77,77,77,0,0,0,0,0,0,0,0,0,0,0,0,
77,77,77,77,0,0,0,0,0,0,0,0,0,0,0,0,
77,77,77,77,0,0,0,0,0,0,0,0,0,0,0,0,
77,77,77,77,0,0,0,0,0,0,0,0,0,0,0,0,
77,77,77,77,0,0,0,0,0,0,0,0,0,0,0,0,
77,77,77,77,0,0,0,0,0,0,0,0,0,0,0,0,
77,77,77,77,0,0,0,0,0,0,0,0,0,0,0,0,
77,77,77,77,0,0,0,0,0,0,0,0,0,0,0,0,
77,77,77,77,0,0,0,0,0,0,0,0,0,0,0,0
</chunk>
    <chunk x="-64" y="16" width="16" height="16">
0,0,0,0,0,0,77,77,77,77,77,77,77,77,77,77,
0,0,0,0,0,0,77,77,77,77,77,77,77,77,77,77,
0,0,0,0,0,0,77,77,77,77,77,77,77,77,77,77,
0,0,0,0,0,0,77,77,77,77,77,77,77,77,77,77,
0,0,0,0,0,0,77,77,77,77,77,77,77,77,77,77,
0,0,0,0,0,0,77,77,77,77,77,77,77,77,77,77,
0,0,0,0,0,0,77,77,77,77,77,77,77,77,77,77,
0,0,0,0,0,0,77,77,77,77,77,77,77,77,77,77,
0,0,0,0,0,0,0,0,0,0,0,0,0,0,0,0,
0,0,0,0,0,0,0,0,0,0,0,0,0,0,0,0,
0,0,0,0,0,0,0,0,0,0,0,0,0,0,0,0,
0,0,0,0,0,0,0,0,0,0,0,0,0,0,0,0,
0,0,0,0,0,0,0,0,0,0,0,0,0,0,0,0,
0,0,0,0,0,0,0,0,0,0,0,0,0,0,0,0,
0,0,0,0,0,0,0,0,0,0,0,0,0,0,0,0,
0,0,0,0,0,0,0,0,0,0,0,0,0,0,0,0
</chunk>
    <chunk x="-48" y="16" width="16" height="16">
76,76,76,76,76,76,76,76,76,76,76,76,76,76,76,76,
76,76,76,76,76,76,76,76,76,76,76,76,76,76,76,76,
76,76,76,76,76,76,76,76,76,76,76,76,76,76,76,76,
76,76,76,76,76,76,76,76,76,76,76,76,76,76,76,76,
77,77,77,77,77,77,77,77,77,77,77,77,77,77,77,77,
77,77,77,77,77,77,77,77,77,77,77,77,77,77,77,77,
77,77,77,77,77,77,77,77,77,77,77,77,77,77,77,77,
77,77,77,77,77,77,77,77,77,77,77,77,77,77,77,77,
0,0,0,0,0,0,0,0,0,0,0,0,0,0,0,0,
0,0,0,0,0,0,0,0,0,0,0,0,0,0,0,0,
0,0,0,0,0,0,0,0,0,0,0,0,0,0,0,0,
0,0,0,0,0,0,0,0,0,0,0,0,0,0,0,0,
0,0,0,0,0,0,0,0,0,0,0,0,0,0,0,0,
0,0,0,0,0,0,0,0,0,0,0,0,0,0,0,0,
0,0,0,0,0,0,0,0,0,0,0,0,0,0,0,0,
0,0,0,0,0,0,0,0,0,0,0,0,0,0,0,0
</chunk>
    <chunk x="-32" y="16" width="16" height="16">
76,76,76,76,76,76,76,76,76,76,76,76,76,76,76,76,
76,76,76,76,76,76,76,76,76,76,76,76,76,76,76,76,
76,76,76,76,76,76,76,76,76,76,76,76,76,76,76,76,
76,76,76,76,76,76,76,76,76,76,76,76,76,76,76,76,
77,77,77,77,77,77,77,77,77,77,77,77,77,77,77,77,
77,77,77,77,77,77,77,77,77,77,77,77,77,77,77,77,
77,77,77,77,77,77,77,77,77,77,77,77,77,77,77,77,
77,77,77,77,77,77,77,77,77,77,77,77,77,77,77,77,
0,0,0,0,0,0,0,0,0,0,0,0,0,0,0,0,
0,0,0,0,0,0,0,0,0,0,0,0,0,0,0,0,
0,0,0,0,0,0,0,0,0,0,0,0,0,0,0,0,
0,0,0,0,0,0,0,0,0,0,0,0,0,0,0,0,
0,0,0,0,0,0,0,0,0,0,0,0,0,0,0,0,
0,0,0,0,0,0,0,0,0,0,0,0,0,0,0,0,
0,0,0,0,0,0,0,0,0,0,0,0,0,0,0,0,
0,0,0,0,0,0,0,0,0,0,0,0,0,0,0,0
</chunk>
    <chunk x="-16" y="16" width="16" height="16">
76,76,76,76,76,76,76,76,76,76,67,68,76,77,77,77,
76,76,76,76,76,76,76,76,76,76,77,77,76,77,77,77,
76,76,76,76,76,76,76,76,76,76,77,77,76,77,77,77,
76,76,76,76,76,76,76,76,76,76,77,77,76,77,77,77,
77,77,77,77,77,77,77,77,77,77,92,77,77,77,77,77,
77,77,77,77,77,77,77,77,77,77,77,92,77,77,77,77,
77,77,77,77,77,77,77,77,77,77,92,77,77,77,77,77,
77,77,77,77,77,77,77,77,77,77,77,92,77,77,77,77,
0,0,0,0,0,0,0,0,0,0,0,0,0,0,0,0,
0,0,0,0,0,0,0,0,0,0,0,0,0,0,0,0,
0,0,0,0,0,0,0,0,0,0,0,0,0,0,0,0,
0,0,0,0,0,0,0,0,0,0,0,0,0,0,0,0,
0,0,0,0,0,0,0,0,0,0,0,0,0,0,0,0,
0,0,0,0,0,0,0,0,0,0,0,0,0,0,0,0,
0,0,0,0,0,0,0,0,0,0,0,0,0,0,0,0,
0,0,0,0,0,0,0,0,0,0,0,0,0,0,0,0
</chunk>
    <chunk x="0" y="16" width="16" height="16">
77,77,77,77,0,0,0,0,0,0,0,0,0,0,0,0,
77,77,77,77,0,0,0,0,0,0,0,0,0,0,0,0,
77,77,77,77,0,0,0,0,0,0,0,0,0,0,0,0,
77,77,77,77,0,0,0,0,0,0,0,0,0,0,0,0,
77,77,77,77,0,0,0,0,0,0,0,0,0,0,0,0,
77,77,77,77,0,0,0,0,0,0,0,0,0,0,0,0,
77,77,77,77,0,0,0,0,0,0,0,0,0,0,0,0,
77,77,77,77,0,0,0,0,0,0,0,0,0,0,0,0,
0,0,0,0,0,0,0,0,0,0,0,0,0,0,0,0,
0,0,0,0,0,0,0,0,0,0,0,0,0,0,0,0,
0,0,0,0,0,0,0,0,0,0,0,0,0,0,0,0,
0,0,0,0,0,0,0,0,0,0,0,0,0,0,0,0,
0,0,0,0,0,0,0,0,0,0,0,0,0,0,0,0,
0,0,0,0,0,0,0,0,0,0,0,0,0,0,0,0,
0,0,0,0,0,0,0,0,0,0,0,0,0,0,0,0,
0,0,0,0,0,0,0,0,0,0,0,0,0,0,0,0
</chunk>
   </data>
  </layer>
  <layer id="22" name="top" width="40" height="60" visible="0">
   <data encoding="csv">
    <chunk x="-64" y="-48" width="16" height="16">
0,0,0,0,0,0,0,0,0,0,0,0,0,0,0,0,
0,0,0,0,0,0,0,0,0,0,0,0,0,0,0,0,
0,0,0,0,0,0,0,0,0,0,0,0,0,0,0,0,
0,0,0,0,0,0,0,0,0,0,0,0,0,0,0,0,
0,0,0,0,0,0,0,0,0,0,0,0,0,0,0,0,
0,0,0,0,0,0,0,0,0,0,0,0,0,0,0,0,
0,0,0,0,0,0,0,0,0,0,0,0,0,0,0,0,
0,0,0,0,0,0,0,0,0,0,0,0,0,0,0,0,
0,0,0,0,0,0,0,0,0,0,0,0,0,0,0,0,
0,0,0,0,0,0,0,0,0,0,0,0,0,0,0,0,
0,0,0,0,0,0,0,0,0,0,0,0,0,0,0,0,
0,0,0,0,0,0,0,0,0,0,0,0,0,0,0,0,
0,0,0,0,0,0,0,0,0,0,0,0,0,0,0,0,
0,0,0,0,0,0,132,133,134,135,132,133,134,135,145,146,
0,0,0,0,0,0,142,143,144,145,142,143,144,145,155,156,
0,0,0,0,0,0,152,153,154,155,152,153,154,155,136,0
</chunk>
    <chunk x="-48" y="-48" width="16" height="16">
0,0,0,0,0,0,0,0,0,0,0,0,0,0,0,0,
0,0,0,0,0,0,0,0,0,0,0,0,0,0,0,0,
0,0,0,0,0,0,0,0,0,0,0,0,0,0,0,0,
0,0,0,0,0,0,0,0,0,0,0,0,0,0,0,0,
0,0,0,0,1,2,1,2,1,2,1,2,1,2,1,2,
0,0,0,0,11,12,11,12,11,12,11,12,11,12,11,12,
0,0,0,0,1,2,1,2,1,2,1,2,1,2,1,2,
0,0,0,0,11,12,11,12,11,12,11,12,11,12,11,12,
0,0,0,0,1,2,1,2,1,2,1,2,1,2,1,2,
0,0,0,0,11,12,11,12,11,12,11,12,11,12,11,12,
0,0,0,0,1,2,1,2,1,2,1,2,1,2,1,2,
0,0,0,0,11,12,11,12,11,12,11,12,11,12,11,12,
0,0,0,0,0,0,1,2,1,2,1,2,1,2,1,2,
0,0,0,0,0,0,11,12,11,12,11,12,11,12,11,12,
0,0,0,3,0,0,0,0,1,2,1,2,1,2,1,2,
0,0,0,13,4,0,0,0,11,12,11,12,11,12,11,12
</chunk>
    <chunk x="-32" y="-48" width="16" height="16">
0,0,0,0,0,0,0,0,0,0,0,0,0,0,0,0,
0,0,0,0,0,0,0,0,0,0,0,0,0,0,0,0,
0,0,0,0,0,0,0,0,0,0,0,0,0,0,0,0,
0,0,0,0,0,0,0,0,0,0,0,0,0,0,0,0,
1,2,1,2,1,2,1,2,1,2,1,2,1,2,1,2,
11,12,11,12,11,12,11,12,11,12,11,12,11,12,11,12,
1,2,1,2,1,2,1,2,1,2,1,2,1,2,1,2,
11,12,11,12,11,12,11,12,11,12,11,12,11,12,11,12,
1,2,1,2,1,2,1,2,1,2,1,2,1,2,1,2,
11,12,11,12,11,12,11,12,11,12,11,12,11,12,11,12,
1,2,1,2,1,2,1,2,1,2,1,2,1,2,1,2,
11,12,11,12,11,12,11,12,11,12,11,12,11,12,11,12,
1,2,1,2,1,2,1,2,1,2,1,2,1,2,1,2,
11,12,11,12,11,12,11,12,11,12,11,12,11,12,11,12,
1,2,1,2,1,2,1,2,1,2,1,2,1,2,0,0,
11,12,11,12,11,12,11,12,11,12,11,12,11,12,0,0
</chunk>
    <chunk x="-16" y="-48" width="16" height="16">
0,0,0,0,0,0,0,0,0,0,0,0,0,0,0,0,
0,0,0,0,0,0,0,0,0,0,0,0,0,0,0,0,
0,0,0,0,0,0,0,0,0,0,0,0,0,0,0,0,
0,0,0,0,0,0,0,0,0,0,0,0,0,0,0,0,
1,2,1,2,1,2,1,2,1,2,1,2,1,2,1,2,
11,12,11,12,11,12,11,12,11,12,11,12,11,12,11,12,
1,2,1,2,1,2,1,2,1,2,1,2,1,2,1,2,
11,12,11,12,11,12,11,12,11,12,11,12,11,12,11,12,
1,2,1,2,1,2,1,2,1,2,1,2,1,2,1,2,
11,12,11,12,11,12,11,12,11,12,11,12,11,12,11,12,
1,2,1,2,1,2,1,2,1,2,1,2,1,2,1,2,
11,12,11,12,11,12,11,12,11,12,11,12,11,12,11,12,
0,0,0,0,0,0,1,2,1,2,1,2,1,2,1,2,
0,0,0,0,0,0,11,12,11,12,11,12,11,12,11,12,
0,0,0,0,0,0,0,0,1,2,1,2,1,2,1,2,
0,0,0,0,0,0,0,0,11,12,11,12,11,12,11,12
</chunk>
    <chunk x="0" y="-48" width="16" height="16">
0,0,0,0,0,0,0,0,0,0,0,0,0,0,0,0,
0,0,0,0,0,0,0,0,0,0,0,0,0,0,0,0,
0,0,0,0,0,0,0,0,0,0,0,0,0,0,0,0,
0,0,0,0,0,0,0,0,0,0,0,0,0,0,0,0,
1,2,1,2,0,0,0,0,0,0,0,0,0,0,0,0,
11,12,11,12,0,0,0,0,0,0,0,0,0,0,0,0,
1,2,1,2,0,0,0,0,0,0,0,0,0,0,0,0,
11,12,11,12,0,0,0,0,0,0,0,0,0,0,0,0,
1,2,1,2,0,0,0,0,0,0,0,0,0,0,0,0,
11,12,11,12,0,0,0,0,0,0,0,0,0,0,0,0,
1,2,1,2,0,0,0,0,0,0,0,0,0,0,0,0,
11,12,11,12,0,0,0,0,0,0,0,0,0,0,0,0,
1,2,1,2,0,0,0,0,0,0,0,0,0,0,0,0,
11,12,11,12,0,0,0,0,0,0,0,0,0,0,0,0,
1,2,1,2,0,0,0,0,0,0,0,0,0,0,0,0,
11,12,11,12,0,0,0,0,0,0,0,0,0,0,0,0
</chunk>
    <chunk x="-64" y="-32" width="16" height="16">
0,0,0,0,0,0,122,123,124,125,122,123,124,125,146,0,
0,0,0,0,0,0,132,133,134,135,132,133,134,135,156,0,
0,0,0,0,0,0,142,143,144,145,142,143,144,145,126,0,
0,0,0,0,0,0,152,153,154,155,152,153,154,155,136,0,
0,0,0,0,0,0,122,123,124,125,122,123,124,125,146,0,
0,0,0,0,0,0,132,133,134,135,132,133,134,135,156,0,
0,0,0,0,0,0,142,143,144,145,142,143,144,145,126,0,
0,0,0,0,0,0,152,153,154,155,152,153,154,155,136,0,
0,0,0,0,0,0,122,123,124,125,122,123,124,125,146,0,
0,0,0,0,0,0,132,133,134,135,132,133,134,135,156,0,
0,0,0,0,0,0,142,143,144,145,142,143,144,145,126,0,
0,0,0,0,0,0,152,153,154,155,152,153,154,155,136,0,
0,0,0,0,0,0,122,123,124,125,122,123,124,125,126,0,
0,0,0,0,0,0,132,133,134,135,132,133,134,135,136,0,
0,0,0,0,0,0,142,143,144,145,142,143,144,145,146,0,
0,0,0,0,0,0,152,153,154,155,152,153,154,155,156,0
</chunk>
    <chunk x="-48" y="-32" width="16" height="16">
0,0,109,110,109,110,109,110,1,2,1,2,1,2,1,2,
0,0,119,120,119,120,119,120,11,12,11,12,11,12,11,12,
0,0,109,110,0,0,0,0,1,2,1,2,1,2,1,2,
0,0,119,120,0,0,0,0,11,12,11,12,11,12,11,12,
0,0,109,110,3,3,0,0,1,2,1,2,1,2,1,2,
0,0,119,120,13,13,0,0,11,12,11,12,11,12,11,12,
0,0,109,110,0,0,0,0,1,2,1,2,1,2,1,2,
0,0,119,120,0,0,0,0,11,12,11,12,11,12,11,12,
0,0,109,110,0,0,0,3,1,2,1,2,1,2,1,2,
0,0,119,120,0,0,0,13,11,12,11,12,11,12,11,12,
0,0,14,0,0,0,1,2,1,2,1,2,1,2,1,2,
0,0,0,0,0,0,11,12,11,12,11,12,11,12,11,12,
0,0,0,0,0,0,1,2,1,2,1,2,1,2,1,2,
0,15,16,17,0,0,11,12,11,12,11,12,11,12,11,12,
0,0,0,0,0,0,0,0,0,0,0,0,0,0,0,0,
0,0,0,0,0,0,0,0,0,0,0,0,0,0,0,0
</chunk>
    <chunk x="-32" y="-32" width="16" height="16">
1,2,1,2,1,2,1,2,1,2,1,2,1,2,0,0,
11,12,11,12,11,12,11,12,11,12,11,12,11,12,0,0,
1,2,0,0,0,0,0,0,0,0,0,0,0,0,0,0,
11,12,0,0,0,0,0,0,0,0,0,0,0,0,0,0,
1,2,0,0,1,2,1,2,1,2,1,2,1,2,1,2,
11,12,0,0,11,12,11,12,11,12,11,12,11,12,11,12,
1,2,0,0,1,2,1,2,1,2,1,2,1,2,1,2,
11,12,0,0,11,12,11,12,11,12,11,12,11,12,11,12,
1,2,0,0,1,2,1,2,1,2,1,2,1,2,1,2,
11,12,0,0,11,12,11,12,11,12,11,12,11,12,11,12,
1,2,0,0,1,2,1,2,1,2,1,2,1,2,1,2,
11,12,0,0,11,12,11,12,11,12,11,12,11,12,11,12,
1,2,0,4,1,2,1,2,1,2,1,2,1,2,1,2,
11,12,4,0,11,12,11,12,11,12,11,12,11,12,11,12,
0,0,0,0,0,0,0,0,0,0,0,0,0,0,0,0,
0,0,0,0,0,0,0,0,0,0,0,0,0,0,0,0
</chunk>
    <chunk x="-16" y="-32" width="16" height="16">
0,0,0,0,0,0,0,0,1,2,1,2,1,2,1,2,
0,0,0,0,0,0,0,0,11,12,11,12,11,12,11,12,
0,0,0,0,0,0,1,2,1,2,1,2,1,2,1,2,
0,0,0,0,0,0,11,12,11,12,11,12,11,12,11,12,
1,2,1,2,1,2,1,2,1,2,1,2,1,2,1,2,
11,12,11,12,11,12,11,12,11,12,11,12,11,12,11,12,
1,2,1,2,1,2,1,2,1,2,1,2,1,2,1,2,
11,12,11,12,11,12,11,12,11,12,11,12,11,12,11,12,
1,2,1,2,1,2,1,2,1,2,1,2,1,2,1,2,
11,12,11,12,11,12,11,12,11,12,11,12,11,12,11,12,
1,2,1,2,1,2,1,2,1,2,1,2,1,2,1,2,
11,12,11,12,11,12,11,12,11,12,11,12,11,12,11,12,
1,2,1,2,1,2,1,2,1,2,1,2,1,2,1,2,
11,12,11,12,11,12,11,12,11,12,11,12,11,12,11,12,
0,0,0,0,0,0,0,0,0,0,1,2,1,2,1,2,
0,0,0,0,0,0,0,0,0,0,11,12,11,12,11,12
</chunk>
    <chunk x="0" y="-32" width="16" height="16">
1,2,1,2,0,0,0,0,0,0,0,0,0,0,0,0,
11,12,11,12,0,0,0,0,0,0,0,0,0,0,0,0,
1,2,1,2,0,0,0,0,0,0,0,0,0,0,0,0,
11,12,11,12,0,0,0,0,0,0,0,0,0,0,0,0,
1,2,1,2,0,0,0,0,0,0,0,0,0,0,0,0,
11,12,11,12,0,0,0,0,0,0,0,0,0,0,0,0,
1,2,1,2,0,0,0,0,0,0,0,0,0,0,0,0,
11,12,11,12,0,0,0,0,0,0,0,0,0,0,0,0,
1,2,1,2,0,0,0,0,0,0,0,0,0,0,0,0,
11,12,11,12,0,0,0,0,0,0,0,0,0,0,0,0,
1,2,1,2,0,0,0,0,0,0,0,0,0,0,0,0,
11,12,11,12,0,0,0,0,0,0,0,0,0,0,0,0,
1,2,1,2,0,0,0,0,0,0,0,0,0,0,0,0,
11,12,11,12,0,0,0,0,0,0,0,0,0,0,0,0,
1,2,1,2,0,0,0,0,0,0,0,0,0,0,0,0,
11,12,11,12,0,0,0,0,0,0,0,0,0,0,0,0
</chunk>
    <chunk x="-64" y="-16" width="16" height="16">
0,0,0,0,0,0,122,123,124,125,122,123,124,125,126,0,
0,0,0,0,0,0,132,133,134,135,132,133,134,135,136,0,
0,0,0,0,0,0,142,143,144,145,142,143,144,145,146,0,
0,0,0,0,0,0,152,153,154,155,152,153,154,155,156,0,
0,0,0,0,0,0,122,123,124,125,122,123,124,125,126,0,
0,0,0,0,0,0,132,133,134,135,132,133,134,135,136,0,
0,0,0,0,0,0,142,143,144,145,142,143,144,145,146,0,
0,0,0,0,0,0,152,153,154,155,152,153,154,155,156,0,
0,0,0,0,0,0,122,123,124,125,122,123,124,125,126,0,
0,0,0,0,0,0,132,133,134,135,132,133,134,135,136,0,
0,0,0,0,0,0,142,143,144,145,142,143,144,145,146,0,
0,0,0,0,0,0,152,153,154,155,152,153,154,155,156,0,
0,0,0,0,0,0,122,123,124,125,122,123,124,125,126,0,
0,0,0,0,0,0,132,133,134,135,132,133,134,135,136,0,
0,0,0,0,0,0,142,143,144,145,142,143,144,145,146,0,
0,0,0,0,0,0,152,153,154,155,152,153,154,155,156,0
</chunk>
    <chunk x="-48" y="-16" width="16" height="16">
0,0,0,0,1,2,1,2,1,2,1,2,3,0,0,0,
0,0,0,0,11,12,11,12,11,12,11,12,13,0,0,0,
0,0,1,2,1,2,1,2,1,2,1,2,1,2,1,2,
0,0,11,12,11,12,11,12,11,12,11,12,11,12,11,12,
0,0,1,2,1,2,25,26,27,0,1,2,1,2,1,2,
0,0,11,12,11,12,35,36,37,0,11,12,11,12,11,12,
0,0,1,2,1,2,45,46,47,0,0,0,0,0,0,0,
0,0,11,12,11,12,0,0,0,0,0,0,0,0,0,0,
0,0,1,2,1,2,0,0,0,0,0,0,0,0,0,0,
0,0,11,12,11,12,0,0,0,0,0,0,0,0,0,0,
0,0,1,2,1,2,0,0,0,0,1,2,1,2,1,2,
0,0,11,12,11,12,0,0,0,0,11,12,11,12,11,12,
0,0,1,2,1,2,0,0,0,0,1,2,1,2,1,2,
0,0,11,12,11,12,0,0,0,0,11,12,11,12,11,12,
0,0,1,2,3,0,0,0,0,0,3,28,29,30,0,0,
0,0,11,12,13,0,0,0,0,0,13,38,39,40,0,0
</chunk>
    <chunk x="-32" y="-16" width="16" height="16">
0,0,0,0,0,0,0,0,0,0,0,0,0,0,0,0,
0,0,0,0,0,0,0,0,0,0,0,0,0,0,0,0,
1,2,1,2,1,2,1,2,1,2,1,2,1,2,1,2,
11,12,11,12,11,12,11,12,11,12,11,12,11,12,11,12,
1,2,1,2,1,2,1,2,1,2,1,2,1,2,1,2,
11,12,11,12,11,12,11,12,11,12,11,12,11,12,11,12,
0,0,0,0,0,0,0,0,0,81,82,83,0,0,1,2,
0,0,0,0,0,0,0,0,0,91,92,93,0,0,11,12,
0,0,0,0,0,0,0,0,0,91,92,93,0,0,1,2,
0,0,0,0,0,0,0,0,0,91,92,93,0,0,11,12,
1,2,1,2,3,0,0,0,0,91,92,93,0,0,4,4,
11,12,11,12,13,0,0,0,0,91,92,93,0,0,0,0,
1,2,1,2,1,2,0,0,0,101,102,103,0,0,0,0,
11,12,11,12,11,12,0,0,0,0,0,0,0,0,0,0,
81,83,1,2,1,2,0,0,0,0,0,0,0,0,0,0,
101,103,11,12,11,12,0,0,0,0,0,0,0,0,0,0
</chunk>
    <chunk x="-16" y="-16" width="16" height="16">
0,0,0,0,0,0,0,0,1,2,1,2,1,2,1,2,
0,0,0,0,0,0,0,4,11,12,122,123,124,125,122,123,
3,0,0,0,0,0,1,2,1,2,132,122,123,124,125,133,
13,0,0,0,0,0,11,12,11,12,142,132,133,134,135,143,
0,0,0,0,0,0,1,2,1,2,152,142,143,144,145,153,
0,0,0,0,0,0,11,12,11,12,122,152,153,154,155,123,
1,2,0,0,0,0,1,2,1,122,123,122,123,124,125,124,
11,12,0,0,0,0,11,12,11,132,133,132,133,134,135,134,
1,2,0,0,0,0,1,2,1,142,143,142,143,144,145,144,
11,12,0,0,0,0,11,12,11,152,153,152,153,154,155,154,
1,2,0,0,0,0,0,3,1,122,123,122,123,124,125,124,
11,12,0,0,0,0,0,13,11,151,152,132,133,134,135,134,
0,0,0,0,0,0,0,0,0,0,162,142,143,144,145,144,
0,0,0,0,0,0,0,0,0,0,151,152,153,154,155,154,
0,0,0,0,0,0,0,0,0,0,1,162,121,124,125,124,
0,0,0,0,0,0,0,0,0,0,11,12,131,132,133,134
</chunk>
    <chunk x="0" y="-16" width="16" height="16">
1,2,1,2,0,0,0,0,0,0,0,0,0,0,0,0,
124,125,122,123,0,0,0,0,0,0,0,0,0,0,0,0,
134,135,132,133,0,0,0,0,0,0,0,0,0,0,0,0,
144,145,142,143,0,0,0,0,0,0,0,0,0,0,0,0,
154,155,152,153,0,0,0,0,0,0,0,0,0,0,0,0,
124,125,122,123,0,0,0,0,0,0,0,0,0,0,0,0,
125,122,123,124,0,0,0,0,0,0,0,0,0,0,0,0,
135,132,133,134,0,0,0,0,0,0,0,0,0,0,0,0,
145,142,143,144,0,0,0,0,0,0,0,0,0,0,0,0,
155,152,153,154,0,0,0,0,0,0,0,0,0,0,0,0,
125,122,123,124,0,0,0,0,0,0,0,0,0,0,0,0,
135,132,133,134,0,0,0,0,0,0,0,0,0,0,0,0,
145,142,143,144,0,0,0,0,0,0,0,0,0,0,0,0,
155,152,153,154,0,0,0,0,0,0,0,0,0,0,0,0,
125,122,123,124,0,0,0,0,0,0,0,0,0,0,0,0,
135,132,133,134,0,0,0,0,0,0,0,0,0,0,0,0
</chunk>
    <chunk x="-64" y="0" width="16" height="16">
0,0,0,0,0,0,122,123,124,125,122,123,124,125,126,0,
0,0,0,0,0,0,132,133,134,135,132,133,134,135,136,0,
0,0,0,0,0,0,142,143,144,145,142,143,144,145,146,0,
0,0,0,0,0,0,152,153,154,155,152,153,154,155,156,0,
0,0,0,0,0,0,122,123,124,125,122,123,124,125,126,0,
0,0,0,0,0,0,132,133,134,135,132,133,134,135,136,0,
0,0,0,0,0,0,142,143,122,123,122,123,122,123,146,0,
0,0,0,0,0,0,152,153,132,133,132,133,132,133,156,0,
0,0,0,0,0,0,122,123,122,123,122,123,122,123,112,113,
0,0,0,0,0,0,132,133,132,133,132,133,132,133,124,125,
0,0,0,0,0,0,122,123,122,123,122,123,122,123,134,135,
0,0,0,0,0,0,132,133,132,133,132,133,132,133,144,145,
0,0,0,0,0,0,122,123,122,123,122,123,122,123,154,155,
0,0,0,0,0,0,132,133,134,135,132,133,134,135,132,122,
0,0,0,0,0,0,122,123,144,145,142,143,144,145,142,132,
0,0,0,0,0,0,132,133,154,155,152,153,154,155,152,142
</chunk>
    <chunk x="-48" y="0" width="16" height="16">
0,0,1,2,0,0,0,0,0,0,0,48,49,50,0,0,
0,0,11,12,0,0,0,0,0,0,0,0,0,0,0,0,
0,0,1,2,0,0,0,0,0,0,0,0,0,0,0,0,
0,0,11,12,0,0,0,0,0,0,0,0,0,0,0,0,
0,0,1,2,0,0,0,0,112,113,112,113,114,115,112,113,
0,0,11,12,0,0,0,121,122,123,124,125,122,123,124,125,
0,0,0,0,0,0,0,131,132,133,134,135,132,133,134,135,
0,0,0,0,0,0,0,112,142,143,144,145,142,143,144,145,
114,115,112,113,114,115,121,122,152,153,154,155,152,153,154,155,
122,123,124,125,122,123,124,125,122,123,124,125,122,123,124,125,
132,133,134,135,132,133,134,135,132,133,134,135,132,133,134,135,
142,143,144,145,142,143,144,145,142,143,144,145,142,143,144,145,
152,153,154,155,152,153,154,155,152,153,154,155,152,153,154,155,
123,124,125,122,123,124,125,122,123,122,123,124,125,122,123,124,
133,134,135,132,133,134,135,132,133,132,133,134,135,132,133,134,
143,144,145,142,143,144,145,142,143,142,143,144,145,142,143,144
</chunk>
    <chunk x="-32" y="0" width="16" height="16">
0,0,1,2,1,2,3,0,0,0,0,0,0,0,0,0,
0,0,11,12,11,12,13,0,0,0,0,0,0,0,0,0,
0,0,1,2,1,2,1,2,1,2,1,2,3,0,0,0,
0,0,11,12,11,12,11,12,11,12,11,12,13,0,0,0,
112,113,114,115,0,0,1,2,1,2,1,2,1,2,1,2,
122,123,124,125,126,0,11,12,11,12,11,12,11,12,11,12,
132,133,134,135,136,0,0,0,0,0,0,0,1,2,1,2,
142,143,144,145,146,0,0,0,0,25,26,27,11,12,11,12,
152,153,154,155,156,0,3,0,0,35,36,37,1,2,1,2,
122,123,124,125,126,0,13,0,4,45,46,47,11,12,11,12,
132,133,134,135,136,0,0,0,0,0,0,0,0,0,0,0,
142,143,144,145,146,0,0,0,0,0,0,0,0,0,0,0,
152,153,154,155,156,0,0,0,0,0,0,0,0,0,0,0,
125,122,123,124,125,12,81,82,82,82,83,0,0,0,0,0,
135,132,133,134,135,2,91,92,92,92,93,0,0,0,0,0,
145,142,143,144,145,12,101,102,102,102,103,0,0,0,0,0
</chunk>
    <chunk x="-16" y="0" width="16" height="16">
0,3,0,0,0,0,0,0,0,0,0,0,141,142,143,144,
3,13,0,0,0,0,0,0,0,0,0,0,151,152,153,154,
13,81,83,0,3,0,0,0,0,3,0,0,121,122,123,124,
0,101,103,0,13,0,0,0,0,13,0,0,131,132,133,134,
1,2,101,102,102,15,16,16,17,102,102,103,141,142,143,144,
11,12,3,0,0,0,0,0,0,0,0,3,151,152,153,154,
1,2,13,0,0,0,0,0,0,0,0,13,121,122,123,124,
11,12,0,0,0,0,0,0,14,0,0,0,131,132,133,134,
1,2,0,0,0,0,0,0,0,0,0,0,141,142,143,144,
11,12,0,0,0,0,0,0,0,0,0,0,151,152,153,154,
81,83,0,0,0,1,2,4,0,0,0,0,121,122,123,124,
101,103,0,0,4,11,12,0,0,0,0,0,131,132,133,134,
0,0,0,0,0,0,0,0,0,0,0,0,141,142,143,144,
0,0,0,0,0,0,0,0,0,0,0,0,151,152,153,154,
0,0,0,0,0,81,83,0,0,0,0,76,121,122,123,124,
0,0,0,0,0,101,103,0,0,0,0,76,131,132,133,134
</chunk>
    <chunk x="0" y="0" width="16" height="16">
145,142,143,144,0,0,0,0,0,0,0,0,0,0,0,0,
155,152,153,154,0,0,0,0,0,0,0,0,0,0,0,0,
125,122,123,124,0,0,0,0,0,0,0,0,0,0,0,0,
135,132,133,134,0,0,0,0,0,0,0,0,0,0,0,0,
145,142,143,144,0,0,0,0,0,0,0,0,0,0,0,0,
155,152,153,154,0,0,0,0,0,0,0,0,0,0,0,0,
125,122,123,124,0,0,0,0,0,0,0,0,0,0,0,0,
135,132,133,134,0,0,0,0,0,0,0,0,0,0,0,0,
145,142,143,144,0,0,0,0,0,0,0,0,0,0,0,0,
155,152,153,154,0,0,0,0,0,0,0,0,0,0,0,0,
125,122,123,124,0,0,0,0,0,0,0,0,0,0,0,0,
135,132,133,134,0,0,0,0,0,0,0,0,0,0,0,0,
145,142,143,144,0,0,0,0,0,0,0,0,0,0,0,0,
155,152,153,154,0,0,0,0,0,0,0,0,0,0,0,0,
125,122,123,124,0,0,0,0,0,0,0,0,0,0,0,0,
135,132,133,134,0,0,0,0,0,0,0,0,0,0,0,0
</chunk>
    <chunk x="-64" y="16" width="16" height="16">
0,0,0,0,0,0,122,123,124,125,122,123,124,125,122,152,
0,0,0,0,0,0,132,133,134,135,132,133,134,135,132,122,
0,0,0,0,0,0,122,123,144,145,142,143,144,145,142,132,
0,0,0,0,0,0,132,133,154,155,152,153,154,155,152,142,
0,0,0,0,0,0,122,123,124,125,122,123,124,125,122,152,
0,0,0,0,0,0,132,133,134,135,132,133,134,135,132,122,
0,0,0,0,0,0,122,123,144,145,142,143,144,145,142,132,
0,0,0,0,0,0,132,133,154,155,152,153,154,155,152,142,
0,0,0,0,0,0,0,0,0,0,0,0,0,0,0,0,
0,0,0,0,0,0,0,0,0,0,0,0,0,0,0,0,
0,0,0,0,0,0,0,0,0,0,0,0,0,0,0,0,
0,0,0,0,0,0,0,0,0,0,0,0,0,0,0,0,
0,0,0,0,0,0,0,0,0,0,0,0,0,0,0,0,
0,0,0,0,0,0,0,0,0,0,0,0,0,0,0,0,
0,0,0,0,0,0,0,0,0,0,0,0,0,0,0,0,
0,0,0,0,0,0,0,0,0,0,0,0,0,0,0,0
</chunk>
    <chunk x="-48" y="16" width="16" height="16">
153,154,155,152,153,154,155,152,153,152,153,154,155,152,153,154,
123,124,125,122,123,124,125,122,123,122,123,124,125,122,123,124,
133,134,135,132,133,134,135,132,133,132,133,134,135,132,133,134,
143,144,145,142,143,144,145,142,143,142,143,144,145,142,143,144,
153,154,155,152,153,154,155,152,153,152,153,154,155,152,153,154,
123,124,125,122,123,124,125,122,123,122,123,124,125,122,123,124,
133,134,135,132,133,134,135,132,133,132,133,134,135,132,133,134,
143,144,145,142,143,144,145,142,143,142,143,144,145,142,143,144,
0,0,0,0,0,0,0,0,0,0,0,0,0,0,0,0,
0,0,0,0,0,0,0,0,0,0,0,0,0,0,0,0,
0,0,0,0,0,0,0,0,0,0,0,0,0,0,0,0,
0,0,0,0,0,0,0,0,0,0,0,0,0,0,0,0,
0,0,0,0,0,0,0,0,0,0,0,0,0,0,0,0,
0,0,0,0,0,0,0,0,0,0,0,0,0,0,0,0,
0,0,0,0,0,0,0,0,0,0,0,0,0,0,0,0,
0,0,0,0,0,0,0,0,0,0,0,0,0,0,0,0
</chunk>
    <chunk x="-32" y="16" width="16" height="16">
155,152,153,154,155,2,1,2,1,2,1,2,1,2,1,2,
125,122,123,124,125,122,123,124,125,122,123,124,125,122,123,124,
135,132,133,134,135,132,133,134,135,132,133,134,135,132,133,134,
145,142,143,144,145,142,143,144,145,142,143,144,145,142,143,144,
155,152,153,154,155,152,153,154,155,152,153,154,155,152,153,154,
125,122,123,124,125,122,123,124,125,122,123,124,125,122,123,124,
135,132,133,134,135,132,133,134,135,132,133,134,135,132,133,134,
145,142,143,144,145,142,143,144,145,142,143,144,145,142,143,144,
0,0,0,0,0,0,0,0,0,0,0,0,0,0,0,0,
0,0,0,0,0,0,0,0,0,0,0,0,0,0,0,0,
0,0,0,0,0,0,0,0,0,0,0,0,0,0,0,0,
0,0,0,0,0,0,0,0,0,0,0,0,0,0,0,0,
0,0,0,0,0,0,0,0,0,0,0,0,0,0,0,0,
0,0,0,0,0,0,0,0,0,0,0,0,0,0,0,0,
0,0,0,0,0,0,0,0,0,0,0,0,0,0,0,0,
0,0,0,0,0,0,0,0,0,0,0,0,0,0,0,0
</chunk>
    <chunk x="-16" y="16" width="16" height="16">
1,2,1,2,1,2,1,2,1,2,76,0,141,142,143,144,
125,122,123,124,125,122,123,124,125,12,0,76,151,152,153,154,
135,132,133,134,135,132,133,134,135,2,76,92,121,122,123,124,
145,142,143,144,145,142,143,144,145,12,92,92,131,132,133,134,
155,152,153,154,155,152,153,154,155,2,0,0,141,142,143,144,
125,122,123,124,125,122,123,124,125,12,0,0,151,152,153,154,
135,132,133,134,135,132,133,134,135,2,0,0,121,122,123,124,
145,142,143,144,145,142,143,144,145,12,0,0,131,132,133,134,
0,0,0,0,0,0,0,0,0,0,0,0,0,0,0,0,
0,0,0,0,0,0,0,0,0,0,0,0,0,0,0,0,
0,0,0,0,0,0,0,0,0,0,0,0,0,0,0,0,
0,0,0,0,0,0,0,0,0,0,0,0,0,0,0,0,
0,0,0,0,0,0,0,0,0,0,0,0,0,0,0,0,
0,0,0,0,0,0,0,0,0,0,0,0,0,0,0,0,
0,0,0,0,0,0,0,0,0,0,0,0,0,0,0,0,
0,0,0,0,0,0,0,0,0,0,0,0,0,0,0,0
</chunk>
    <chunk x="0" y="16" width="16" height="16">
145,142,143,144,0,0,0,0,0,0,0,0,0,0,0,0,
155,152,153,154,0,0,0,0,0,0,0,0,0,0,0,0,
125,122,123,124,0,0,0,0,0,0,0,0,0,0,0,0,
135,132,133,134,0,0,0,0,0,0,0,0,0,0,0,0,
145,142,143,144,0,0,0,0,0,0,0,0,0,0,0,0,
155,152,153,154,0,0,0,0,0,0,0,0,0,0,0,0,
125,122,123,124,0,0,0,0,0,0,0,0,0,0,0,0,
135,132,133,134,0,0,0,0,0,0,0,0,0,0,0,0,
0,0,0,0,0,0,0,0,0,0,0,0,0,0,0,0,
0,0,0,0,0,0,0,0,0,0,0,0,0,0,0,0,
0,0,0,0,0,0,0,0,0,0,0,0,0,0,0,0,
0,0,0,0,0,0,0,0,0,0,0,0,0,0,0,0,
0,0,0,0,0,0,0,0,0,0,0,0,0,0,0,0,
0,0,0,0,0,0,0,0,0,0,0,0,0,0,0,0,
0,0,0,0,0,0,0,0,0,0,0,0,0,0,0,0,
0,0,0,0,0,0,0,0,0,0,0,0,0,0,0,0
</chunk>
   </data>
  </layer>
  <layer id="30" name="top2" width="40" height="60">
   <data encoding="csv">
    <chunk x="-64" y="-80" width="16" height="16">
0,0,0,0,0,0,0,0,0,0,0,0,0,0,0,0,
0,0,0,0,0,0,0,0,0,0,0,0,0,0,0,0,
0,0,0,0,0,0,0,0,0,0,0,0,0,0,0,0,
0,0,0,0,38,39,40,0,0,0,0,0,0,0,0,0,
0,0,0,0,38,39,40,0,0,0,0,0,0,0,0,0,
0,0,0,0,48,49,50,0,0,0,0,0,0,0,0,0,
0,0,0,0,0,0,0,0,0,0,0,0,0,0,0,0,
0,0,0,0,0,0,0,0,0,0,0,0,0,0,0,0,
0,0,0,0,0,0,0,0,0,0,0,0,0,0,0,0,
0,0,0,0,0,0,0,0,0,0,0,0,0,0,0,0,
0,0,0,0,0,0,0,0,0,0,0,0,0,0,0,0,
0,0,0,0,0,0,0,0,0,0,0,0,0,0,0,0,
0,0,0,0,0,0,0,0,0,0,0,0,0,0,0,0,
0,0,0,0,0,0,0,0,0,0,0,0,0,0,0,0,
0,0,0,0,0,0,0,0,0,0,0,0,0,0,0,0,
0,0,0,0,0,0,0,0,0,0,0,0,0,0,0,0
</chunk>
    <chunk x="-64" y="-48" width="16" height="16">
0,0,0,0,0,0,0,0,0,0,0,0,0,0,0,0,
0,0,0,0,0,0,0,0,0,0,0,0,0,0,0,0,
0,0,0,0,0,0,0,0,0,0,0,0,0,0,0,0,
0,0,0,0,0,0,0,0,0,0,0,0,0,0,0,0,
0,0,0,0,0,0,122,123,124,125,122,123,124,125,122,123,
0,0,0,0,0,0,123,124,123,124,123,124,123,124,123,124,
0,0,0,0,0,0,133,134,133,134,133,134,133,134,133,134,
0,0,0,0,0,0,123,124,123,124,123,124,123,124,123,124,
0,0,0,0,0,0,133,134,133,134,133,134,133,134,133,134,
0,0,0,0,0,0,123,124,123,124,123,124,123,124,123,124,
0,0,0,0,0,0,133,134,133,134,133,134,133,134,133,134,
0,0,0,0,0,0,123,124,123,124,123,124,123,124,123,124,
0,0,0,0,0,0,122,123,133,134,133,134,133,163,164,134,
0,0,0,0,0,0,132,133,143,144,145,142,143,113,114,155,
0,0,0,0,0,0,122,123,124,125,122,123,124,125,155,156,
0,0,0,0,0,0,132,133,134,135,163,164,134,135,165,166
</chunk>
    <chunk x="-48" y="-48" width="16" height="16">
0,0,0,0,0,0,0,0,0,0,0,0,0,0,0,0,
0,0,0,0,0,0,0,0,0,0,0,0,0,0,0,0,
0,0,0,0,0,0,0,0,0,0,0,0,0,0,0,0,
0,0,0,0,0,0,0,0,0,0,0,0,0,0,0,0,
115,0,0,0,0,112,123,124,125,122,123,124,125,122,123,124,
125,126,0,0,121,122,123,124,125,122,123,124,125,122,123,124,
135,136,0,0,131,132,133,134,135,132,133,134,135,132,133,134,
145,146,0,0,141,142,123,124,125,122,123,124,125,122,123,124,
155,156,0,0,151,152,133,163,164,132,133,134,135,132,133,134,
125,126,0,0,121,122,123,113,114,122,123,124,125,122,123,124,
135,136,0,0,131,132,133,134,135,132,133,134,135,132,133,134,
145,146,0,0,0,151,163,151,152,122,163,164,125,122,123,124,
155,156,0,0,0,0,0,0,162,132,113,114,135,132,133,134,
165,0,0,0,0,0,0,0,121,122,123,124,125,122,123,124,
0,0,0,0,109,110,109,110,131,132,133,134,135,132,133,134,
0,0,0,0,119,120,119,120,141,122,123,124,125,122,123,124
</chunk>
    <chunk x="-32" y="-48" width="16" height="16">
0,0,0,0,0,0,0,0,0,0,0,0,0,0,0,0,
0,0,0,0,0,0,0,0,0,0,0,0,0,0,0,0,
0,0,0,0,0,0,0,0,0,0,0,0,0,0,0,0,
0,0,0,0,0,0,0,0,0,0,0,0,0,0,0,0,
125,122,123,124,125,122,123,124,125,122,123,124,125,122,123,124,
125,122,123,124,125,122,123,124,125,122,123,124,125,122,123,122,
135,132,133,134,135,132,133,134,135,132,133,134,135,132,133,132,
125,122,123,124,125,122,123,124,125,122,123,124,125,122,123,122,
135,132,133,134,135,132,133,134,135,132,133,134,135,132,133,132,
125,122,123,124,125,122,123,124,125,122,123,124,125,122,123,122,
135,132,133,134,135,132,133,134,135,132,133,134,135,132,133,132,
125,122,123,124,125,122,123,124,125,122,123,124,125,155,156,162,
135,132,133,134,135,132,133,134,135,132,133,134,135,156,0,0,
163,164,123,124,125,122,123,124,125,122,123,124,125,126,0,0,
113,114,133,134,135,132,133,134,135,132,133,134,135,136,0,0,
125,122,123,124,125,122,123,124,125,122,123,124,125,146,0,0
</chunk>
    <chunk x="-16" y="-48" width="16" height="16">
0,0,0,0,0,0,0,0,0,0,0,0,0,0,0,0,
0,0,0,0,0,0,0,0,0,0,0,0,0,0,0,0,
0,0,0,0,0,0,0,0,0,0,0,0,0,0,0,0,
0,0,0,0,0,0,0,0,0,0,0,0,0,0,0,0,
125,122,123,124,125,122,123,124,125,122,123,124,125,122,123,124,
123,124,125,122,123,124,125,122,123,124,125,122,123,124,125,122,
133,134,135,132,133,134,135,132,133,134,135,132,133,134,135,132,
123,124,125,122,123,124,125,122,123,124,125,122,123,124,125,122,
133,134,135,132,133,134,135,132,133,134,135,132,133,134,135,132,
123,124,125,122,123,124,125,122,123,124,125,122,123,124,125,122,
133,134,135,132,133,134,135,132,133,134,135,132,133,134,135,132,
163,164,165,162,163,164,165,162,163,164,152,142,143,144,145,142,
0,0,0,0,0,0,0,0,0,0,131,152,153,154,155,152,
0,0,0,0,0,0,0,0,0,0,141,122,123,124,125,122,
0,0,0,0,0,0,0,0,0,0,131,132,133,134,135,132,
0,0,0,0,0,0,0,0,0,0,141,122,123,124,125,122
</chunk>
    <chunk x="0" y="-48" width="16" height="16">
0,0,0,0,0,0,0,0,0,0,0,0,0,0,0,0,
0,0,0,0,0,0,0,0,0,0,0,0,0,0,0,0,
0,0,0,0,0,0,0,0,0,0,0,0,0,0,0,0,
0,0,0,0,0,0,0,0,0,0,0,0,0,0,0,0,
125,122,123,124,0,0,0,0,0,0,0,0,0,0,0,0,
123,124,123,124,0,0,0,0,0,0,0,0,0,0,0,0,
133,134,133,134,0,0,0,0,0,0,0,0,0,0,0,0,
123,124,123,124,0,0,0,0,0,0,0,0,0,0,0,0,
133,134,133,134,0,0,0,0,0,0,0,0,0,0,0,0,
123,124,125,122,0,0,0,0,0,0,0,0,0,0,0,0,
133,134,135,132,0,0,0,0,0,0,0,0,0,0,0,0,
143,144,145,142,0,0,0,0,0,0,0,0,0,0,0,0,
153,154,155,152,0,0,0,0,0,0,0,0,0,0,0,0,
123,124,125,122,0,0,0,0,0,0,0,0,0,0,0,0,
133,134,135,132,0,0,0,0,0,0,0,0,0,0,0,0,
123,124,125,122,0,0,0,0,0,0,0,0,0,0,0,0
</chunk>
    <chunk x="-64" y="-32" width="16" height="16">
0,0,0,0,0,0,142,143,144,145,113,114,144,145,126,0,
0,0,0,0,0,0,152,153,154,155,152,153,154,155,136,0,
0,0,0,0,0,0,122,123,124,125,122,163,164,125,146,0,
0,0,0,0,0,0,132,133,134,135,132,113,114,135,156,0,
0,0,0,0,0,0,142,143,144,163,164,143,144,145,126,0,
0,0,0,0,0,0,152,153,154,113,114,153,154,155,136,0,
0,0,0,0,0,0,122,123,124,125,122,123,124,125,146,0,
0,0,0,0,0,0,132,133,134,135,132,133,134,135,156,0,
0,0,0,0,0,0,142,143,144,145,142,143,144,145,126,0,
0,0,0,0,0,0,152,153,163,164,152,153,154,155,136,0,
0,0,0,0,0,0,122,123,113,114,122,123,124,125,146,0,
0,0,0,0,0,0,132,133,163,164,132,133,134,135,156,0,
0,0,0,0,0,0,142,143,113,114,142,163,164,145,126,0,
0,0,0,0,0,0,152,153,154,155,152,113,114,155,136,0,
0,0,0,0,0,0,122,123,124,125,122,123,124,125,146,0,
0,0,0,0,0,0,132,133,134,135,132,133,134,135,156,0
</chunk>
    <chunk x="-48" y="-32" width="16" height="16">
0,0,0,109,110,0,0,0,151,132,133,134,135,132,133,163,
0,0,0,119,120,0,0,0,121,122,123,124,125,122,123,113,
0,0,3,109,110,0,0,0,131,132,133,134,135,132,133,134,
0,0,13,119,120,0,0,0,141,122,163,164,125,122,123,124,
0,0,109,110,0,0,0,0,151,132,113,114,135,132,133,134,
0,0,119,120,0,0,0,0,121,122,123,124,125,122,123,124,
0,0,0,0,0,0,0,0,131,132,133,134,135,132,133,134,
0,0,0,0,0,0,0,0,141,122,123,124,125,122,123,124,
0,0,0,0,0,0,0,0,151,132,133,134,135,132,133,134,
0,0,0,0,0,0,0,0,121,122,123,124,125,122,123,124,
0,0,0,0,0,0,0,0,131,132,133,134,135,132,133,163,
0,0,0,0,0,0,0,0,141,122,163,164,125,122,123,113,
0,0,0,0,0,0,0,0,151,132,113,114,135,132,133,134,
0,0,15,16,16,17,0,0,0,162,163,164,165,162,163,164,
0,0,0,0,0,0,0,0,0,0,109,110,0,24,0,24,
0,0,0,0,0,0,0,0,0,0,119,120,0,24,24,0
</chunk>
    <chunk x="-32" y="-32" width="16" height="16">
164,132,133,134,135,132,133,134,135,132,133,134,135,156,0,0,
114,122,165,162,163,164,165,162,163,164,165,162,163,0,0,0,
135,132,126,0,0,0,0,0,0,0,0,0,0,0,0,0,
125,122,136,0,0,0,0,0,0,0,0,0,0,0,0,0,
135,132,146,0,0,0,0,0,0,0,0,0,0,0,0,0,
125,122,156,0,0,0,112,113,114,115,112,113,114,115,112,113,
135,132,126,0,0,121,122,123,124,125,122,123,124,125,122,123,
125,122,136,0,0,131,132,133,134,135,132,133,134,135,132,133,
135,132,146,0,0,141,142,143,144,145,142,143,144,145,142,143,
125,122,156,0,0,151,152,153,154,155,152,153,154,155,152,153,
164,132,126,0,0,121,122,123,124,125,122,123,124,125,122,123,
114,122,136,0,0,131,132,133,134,135,163,164,134,135,132,133,
135,132,146,0,0,141,142,143,144,145,113,114,144,145,142,143,
165,162,163,0,0,162,163,164,165,162,163,164,165,162,163,164,
0,0,0,0,0,0,0,0,0,0,0,0,0,0,0,0,
0,0,0,0,0,0,0,0,0,0,0,0,0,0,0,0
</chunk>
    <chunk x="-16" y="-32" width="16" height="16">
0,0,0,0,0,0,0,0,0,0,131,132,133,134,135,132,
0,0,0,0,0,0,0,0,0,0,141,142,143,144,145,142,
0,0,0,0,0,0,0,0,0,0,151,152,153,154,155,152,
0,0,0,0,0,0,0,0,0,0,141,142,123,124,125,122,
0,0,0,0,0,0,0,0,0,112,122,123,124,125,122,123,
114,115,112,113,114,115,112,113,121,122,143,133,134,135,132,133,
124,125,122,123,124,125,122,123,122,125,122,123,124,125,122,123,
134,135,132,133,134,135,132,133,134,135,132,133,134,135,132,133,
144,145,142,143,144,145,142,143,144,145,142,143,144,145,142,143,
154,155,152,153,154,155,152,153,154,155,152,153,154,155,152,153,
124,125,122,123,124,125,122,123,124,125,122,123,124,125,122,123,
134,135,132,133,134,135,132,133,134,135,132,133,134,135,132,133,
144,145,142,143,144,145,142,143,144,145,142,143,144,145,142,143,
165,162,163,164,165,162,163,164,165,162,152,153,154,155,152,153,
0,0,0,0,0,0,0,0,0,121,122,163,164,125,122,123,
0,0,0,0,0,0,0,0,0,131,132,113,114,135,132,133
</chunk>
    <chunk x="0" y="-32" width="16" height="16">
133,134,135,132,0,0,0,0,0,0,0,0,0,0,0,0,
143,144,145,142,0,0,0,0,0,0,0,0,0,0,0,0,
153,154,155,152,0,0,0,0,0,0,0,0,0,0,0,0,
123,124,125,122,0,0,0,0,0,0,0,0,0,0,0,0,
124,125,122,123,0,0,0,0,0,0,0,0,0,0,0,0,
134,135,132,133,0,0,0,0,0,0,0,0,0,0,0,0,
124,125,122,123,0,0,0,0,0,0,0,0,0,0,0,0,
134,135,132,133,0,0,0,0,0,0,0,0,0,0,0,0,
144,145,142,143,0,0,0,0,0,0,0,0,0,0,0,0,
154,155,152,153,0,0,0,0,0,0,0,0,0,0,0,0,
124,125,122,123,0,0,0,0,0,0,0,0,0,0,0,0,
134,135,132,133,0,0,0,0,0,0,0,0,0,0,0,0,
144,145,142,143,0,0,0,0,0,0,0,0,0,0,0,0,
154,155,152,153,0,0,0,0,0,0,0,0,0,0,0,0,
124,125,122,123,0,0,0,0,0,0,0,0,0,0,0,0,
134,135,132,133,0,0,0,0,0,0,0,0,0,0,0,0
</chunk>
    <chunk x="-64" y="-16" width="16" height="16">
0,0,0,0,0,0,142,143,144,145,142,143,144,145,126,0,
0,0,0,0,0,0,152,153,154,155,152,153,154,155,136,0,
0,0,0,0,0,0,122,123,124,125,122,123,124,125,126,0,
0,0,0,0,0,0,132,133,134,135,132,133,134,135,136,0,
0,0,0,0,0,0,142,143,144,145,142,143,144,145,146,0,
0,0,0,0,0,0,152,153,154,155,152,153,154,155,156,0,
0,0,0,0,0,0,122,123,124,125,122,163,164,125,126,0,
0,0,0,0,0,0,132,133,134,135,132,113,114,135,136,0,
0,0,0,0,0,0,142,143,144,163,164,143,144,145,146,0,
0,0,0,0,0,0,152,153,154,113,114,153,154,155,156,0,
0,0,0,0,0,0,122,123,124,125,122,123,124,125,126,0,
0,0,0,0,0,0,132,133,134,135,132,133,134,135,136,0,
0,0,0,0,0,0,122,123,124,125,122,163,164,125,146,0,
0,0,0,0,0,0,132,133,134,135,132,113,114,135,156,0,
0,0,0,0,0,0,142,143,144,145,142,143,144,145,126,0,
0,0,0,0,0,0,152,153,154,155,152,153,154,155,136,0
</chunk>
    <chunk x="-48" y="-16" width="16" height="16">
0,0,0,0,0,0,0,0,0,0,0,24,24,24,109,110,
0,0,0,0,0,0,0,0,0,0,0,0,24,0,119,120,
0,0,0,112,113,112,113,112,113,114,115,112,113,114,115,112,
0,0,109,122,123,122,123,122,123,124,125,122,123,124,125,122,
0,0,119,132,133,132,133,163,164,134,135,132,133,134,135,132,
0,0,109,142,143,142,143,113,114,144,145,142,143,144,145,142,
0,0,119,152,153,152,153,163,164,165,162,163,164,165,162,163,
0,0,109,153,163,162,163,0,0,0,0,0,0,0,0,0,
0,0,119,125,126,0,0,0,0,0,0,0,0,0,0,0,
0,0,109,135,136,0,0,0,0,51,52,52,52,52,52,52,
0,0,119,145,146,0,0,0,0,61,62,62,62,62,62,62,
0,0,109,135,136,0,0,0,0,61,62,62,62,62,62,62,
0,0,119,145,146,0,0,0,0,71,72,85,62,62,62,62,
0,0,109,155,156,0,0,0,28,29,30,61,62,62,62,62,
0,0,119,125,126,0,0,0,38,39,40,61,62,62,62,62,
0,0,109,135,136,0,0,0,48,49,50,61,62,62,62,62
</chunk>
    <chunk x="-32" y="-16" width="16" height="16">
0,0,0,0,0,0,0,0,0,0,0,0,0,0,0,0,
0,0,0,0,0,0,0,0,0,0,0,0,0,0,0,0,
113,114,115,112,113,114,115,112,113,114,115,112,113,114,115,112,
123,124,125,122,123,124,125,122,163,164,125,122,123,124,125,122,
133,134,135,132,133,134,135,132,113,114,135,132,133,134,135,132,
143,144,145,142,143,144,145,142,143,144,145,142,143,144,145,142,
164,165,162,163,164,165,162,163,164,165,162,163,164,165,162,163,
0,0,0,0,0,0,0,0,0,28,29,30,0,81,82,83,
0,0,0,0,0,0,0,0,0,8,9,10,0,91,92,93,
52,53,0,0,0,0,0,0,0,48,49,50,0,91,92,93,
62,94,53,0,0,0,0,0,0,0,0,0,0,101,102,103,
62,62,94,53,0,0,0,0,0,0,0,0,0,0,0,0,
62,62,62,63,0,0,0,0,0,0,0,0,0,0,0,0,
62,62,62,63,0,0,0,121,115,0,0,0,0,0,0,0,
62,62,62,63,0,0,0,131,125,126,0,0,0,0,0,0,
62,62,62,63,0,0,0,141,135,136,0,0,0,0,0,0
</chunk>
    <chunk x="-16" y="-16" width="16" height="16">
0,0,0,0,0,0,0,0,0,141,142,143,144,145,142,143,
0,0,0,0,0,0,0,0,0,151,163,164,143,122,123,124,
113,114,126,0,0,0,0,0,0,112,113,114,135,132,133,134,
123,124,136,0,0,0,0,0,112,122,123,124,125,142,143,144,
133,134,146,0,0,0,0,112,122,123,124,125,135,152,153,154,
143,144,156,0,0,0,112,122,163,164,125,135,145,122,123,124,
164,165,0,0,0,112,122,123,113,114,144,125,155,132,133,134,
0,0,0,0,121,122,123,124,125,135,154,135,134,142,163,164,
0,0,0,0,131,163,164,134,122,123,124,125,144,152,113,114,
0,0,0,0,141,113,114,144,132,122,123,124,125,122,163,164,
0,0,0,0,151,152,153,154,142,132,133,134,135,132,113,114,
0,0,0,0,0,162,163,151,152,142,143,144,145,142,143,144,
0,0,0,0,0,0,0,0,162,152,153,154,155,152,153,154,
0,0,0,0,0,0,0,0,0,162,163,151,152,122,163,164,
0,0,0,0,0,0,0,0,0,0,0,0,131,132,113,114,
0,0,0,0,0,0,0,0,0,0,0,0,141,142,143,144
</chunk>
    <chunk x="0" y="-16" width="16" height="16">
144,145,142,143,0,0,0,0,0,0,0,0,0,0,0,0,
125,122,123,124,0,0,0,0,0,0,0,0,0,0,0,0,
135,132,133,134,0,0,0,0,0,0,0,0,0,0,0,0,
145,142,143,144,0,0,0,0,0,0,0,0,0,0,0,0,
155,152,153,154,0,0,0,0,0,0,0,0,0,0,0,0,
125,122,123,124,0,0,0,0,0,0,0,0,0,0,0,0,
135,132,133,134,0,0,0,0,0,0,0,0,0,0,0,0,
145,142,143,144,0,0,0,0,0,0,0,0,0,0,0,0,
155,152,153,154,0,0,0,0,0,0,0,0,0,0,0,0,
163,164,123,124,0,0,0,0,0,0,0,0,0,0,0,0,
113,114,133,134,0,0,0,0,0,0,0,0,0,0,0,0,
163,164,143,144,0,0,0,0,0,0,0,0,0,0,0,0,
113,114,153,154,0,0,0,0,0,0,0,0,0,0,0,0,
163,164,123,124,0,0,0,0,0,0,0,0,0,0,0,0,
113,114,133,134,0,0,0,0,0,0,0,0,0,0,0,0,
145,142,143,144,0,0,0,0,0,0,0,0,0,0,0,0
</chunk>
    <chunk x="-64" y="0" width="16" height="16">
0,0,0,0,0,0,122,123,124,125,122,123,124,125,146,0,
0,0,0,0,0,0,132,133,134,135,132,133,134,135,156,0,
0,0,0,0,0,0,142,143,144,145,142,143,144,145,126,0,
0,0,0,0,0,0,152,153,154,155,152,153,154,155,136,0,
0,0,0,0,0,0,122,123,124,163,164,123,124,125,126,0,
0,0,0,0,0,0,132,133,134,113,114,133,134,135,136,0,
0,0,0,0,0,0,122,123,124,125,122,123,124,125,146,0,
0,0,0,0,0,0,132,133,134,135,132,133,134,135,156,0,
0,0,0,0,0,0,142,143,144,145,142,143,144,145,126,0,
0,0,0,0,0,0,152,153,154,155,152,153,154,155,125,126,
0,0,0,0,0,0,122,123,124,125,122,123,124,125,122,123,
0,0,0,0,0,0,132,133,134,135,132,133,134,135,132,133,
0,0,0,0,0,0,142,143,144,145,142,143,144,145,142,143,
0,0,0,0,0,0,152,153,154,155,152,153,154,155,152,153,
0,0,0,0,0,0,122,123,124,125,122,123,124,125,122,123,
0,0,0,0,0,0,132,133,134,135,132,133,134,135,132,133
</chunk>
    <chunk x="-48" y="0" width="16" height="16">
0,0,119,125,146,0,0,0,0,0,0,71,72,72,72,72,
0,0,109,135,156,0,0,0,0,0,0,0,0,0,0,0,
0,0,119,145,126,0,0,0,0,0,0,0,0,0,0,0,
0,0,109,155,136,0,0,0,0,0,0,0,0,0,0,0,
0,0,119,165,0,0,0,121,113,114,115,112,113,114,115,112,
0,0,0,0,0,0,0,131,132,133,132,133,132,133,132,133,
0,0,0,0,0,0,0,141,122,123,122,123,163,164,122,123,
0,0,0,0,0,0,0,151,163,164,132,133,113,114,132,133,
0,0,0,0,0,0,0,121,113,114,142,143,142,143,142,163,
112,113,114,115,112,113,114,122,132,133,132,133,132,133,132,113,
124,125,122,123,124,125,122,123,142,143,142,143,142,143,142,143,
134,135,132,133,134,135,132,133,134,135,132,133,134,135,132,133,
144,145,142,163,164,145,142,143,144,145,142,143,144,145,142,163,
154,155,152,113,114,155,152,153,154,155,163,164,154,155,152,113,
124,125,122,123,124,125,122,123,124,125,113,114,124,125,122,123,
163,164,132,133,134,135,132,133,134,135,163,164,134,135,132,133
</chunk>
    <chunk x="-32" y="0" width="16" height="16">
85,62,62,63,0,0,0,151,145,126,112,113,114,115,112,113,
61,62,62,63,0,0,0,121,124,125,122,123,124,125,122,123,
71,72,72,73,0,0,0,131,134,135,132,133,134,135,163,164,
0,0,0,0,0,0,0,141,144,145,142,143,144,145,113,114,
113,114,115,0,0,0,0,151,134,135,163,164,165,162,163,164,
132,133,132,126,0,0,0,121,135,156,0,0,0,0,0,141,
122,123,122,136,0,0,0,131,145,126,25,26,27,0,0,151,
132,133,132,146,0,0,0,141,155,136,35,36,37,0,0,121,
164,143,142,156,0,0,0,151,125,146,45,46,47,0,0,131,
114,133,132,126,0,0,0,121,135,156,0,0,0,0,0,141,
142,143,142,136,112,113,121,122,145,126,0,0,0,0,0,151,
134,135,132,146,151,152,153,154,155,156,0,0,0,0,0,0,
164,145,142,156,0,162,163,164,165,166,0,0,0,0,0,0,
114,155,152,126,0,0,0,0,0,0,0,0,0,0,0,0,
124,125,122,136,0,0,0,0,0,0,0,0,0,0,0,0,
134,135,132,146,112,113,114,115,112,113,114,115,112,113,114,115
</chunk>
    <chunk x="-16" y="0" width="16" height="16">
114,126,0,0,0,0,0,0,0,0,0,0,151,152,153,154,
124,136,0,0,0,0,0,0,0,0,0,0,121,122,123,124,
134,146,0,0,0,0,0,0,0,0,0,0,131,132,133,134,
144,156,0,0,0,0,0,0,0,0,0,0,141,142,163,164,
145,126,0,0,0,15,16,16,17,0,0,0,151,152,113,114,
135,136,0,0,0,0,0,0,0,0,0,0,121,122,163,164,
145,146,0,0,0,0,0,0,0,0,0,0,131,132,113,114,
155,156,0,0,0,0,0,0,0,0,0,0,141,142,143,144,
125,126,0,0,0,0,0,0,0,0,0,0,151,152,153,154,
135,136,0,0,0,0,0,0,0,0,0,0,121,122,123,124,
152,146,0,0,0,0,0,0,0,0,0,0,131,132,133,134,
162,156,0,0,0,0,0,0,0,0,0,0,141,142,143,144,
0,0,0,0,0,0,0,0,0,0,0,0,151,152,153,154,
0,0,0,0,0,0,0,0,0,0,0,0,121,122,123,124,
0,0,0,0,0,0,0,0,0,0,0,0,131,132,133,134,
112,113,114,115,112,113,114,115,112,126,0,0,141,142,143,144
</chunk>
    <chunk x="0" y="0" width="16" height="16">
155,152,153,154,0,0,0,0,0,0,0,0,0,0,0,0,
125,122,123,124,0,0,0,0,0,0,0,0,0,0,0,0,
135,132,133,134,0,0,0,0,0,0,0,0,0,0,0,0,
145,142,143,144,0,0,0,0,0,0,0,0,0,0,0,0,
155,152,153,154,0,0,0,0,0,0,0,0,0,0,0,0,
125,122,123,124,0,0,0,0,0,0,0,0,0,0,0,0,
135,132,133,134,0,0,0,0,0,0,0,0,0,0,0,0,
145,142,143,144,0,0,0,0,0,0,0,0,0,0,0,0,
155,163,164,154,0,0,0,0,0,0,0,0,0,0,0,0,
125,113,114,124,0,0,0,0,0,0,0,0,0,0,0,0,
135,163,164,134,0,0,0,0,0,0,0,0,0,0,0,0,
145,113,114,144,0,0,0,0,0,0,0,0,0,0,0,0,
155,152,153,154,0,0,0,0,0,0,0,0,0,0,0,0,
125,122,123,124,0,0,0,0,0,0,0,0,0,0,0,0,
135,132,133,134,0,0,0,0,0,0,0,0,0,0,0,0,
145,142,143,144,0,0,0,0,0,0,0,0,0,0,0,0
</chunk>
    <chunk x="-64" y="16" width="16" height="16">
0,0,0,0,0,0,142,143,144,145,142,143,144,145,142,143,
0,0,0,0,0,0,152,153,154,155,152,153,154,155,152,153,
0,0,0,0,0,0,122,123,124,125,122,123,124,125,122,123,
0,0,0,0,0,0,132,133,134,135,132,133,134,135,132,133,
0,0,0,0,0,0,142,143,144,145,142,143,144,145,142,143,
0,0,0,0,0,0,152,153,154,155,152,153,154,155,152,153,
0,0,0,0,0,0,122,123,124,125,122,123,124,125,122,123,
0,0,0,0,0,0,132,133,134,135,132,133,134,135,132,133,
0,0,0,0,0,0,0,0,0,0,0,0,0,0,0,0,
0,0,0,0,0,0,0,0,0,0,0,0,0,0,0,0,
0,0,0,0,0,0,0,0,0,0,0,0,0,0,0,0,
0,0,0,0,0,0,0,0,0,0,0,0,0,0,0,0,
0,0,0,0,0,0,0,0,0,0,0,0,0,0,0,0,
0,0,0,0,0,0,0,0,0,0,0,0,0,0,0,0,
0,0,0,0,0,0,0,0,0,0,0,0,0,0,0,0,
0,0,0,0,0,0,0,0,0,0,0,0,0,0,0,0
</chunk>
    <chunk x="-48" y="16" width="16" height="16">
113,114,142,143,144,145,142,143,144,145,113,114,144,145,142,143,
154,155,152,153,154,155,152,153,154,155,152,153,154,155,152,153,
124,125,122,123,124,125,122,123,124,125,122,123,124,125,122,123,
134,135,132,133,134,135,132,133,134,135,132,133,134,135,132,133,
144,145,142,143,144,145,142,143,144,145,142,143,144,145,142,143,
154,155,152,153,154,155,152,153,154,155,152,153,154,155,152,153,
124,125,122,123,124,125,122,123,124,125,122,123,124,125,122,123,
134,135,132,133,134,135,132,133,134,135,132,133,134,135,132,133,
0,0,0,0,0,0,0,0,0,0,0,0,0,0,0,0,
0,0,0,0,0,0,0,0,0,0,0,0,0,0,0,0,
0,0,0,0,0,0,0,0,0,0,0,0,0,0,0,0,
0,0,0,0,0,0,0,0,0,0,0,0,0,0,0,0,
0,0,0,0,0,0,0,0,0,0,0,0,0,0,0,0,
0,0,0,0,0,0,0,0,0,0,0,0,0,0,0,0,
0,0,0,0,0,0,0,0,0,0,0,0,0,0,0,0,
0,0,0,0,0,0,0,0,0,0,0,0,0,0,0,0
</chunk>
    <chunk x="-32" y="16" width="16" height="16">
144,145,122,123,124,125,122,123,124,125,122,123,124,125,122,123,
154,155,132,133,134,135,132,133,134,135,132,133,134,135,132,133,
124,125,142,143,144,163,164,143,144,145,142,143,144,145,142,143,
134,135,152,153,154,113,114,153,154,155,152,153,154,155,152,153,
144,145,122,123,124,125,122,123,124,125,122,123,124,125,122,123,
154,155,132,133,134,135,132,133,134,135,132,133,134,135,163,164,
124,125,142,143,144,145,142,163,164,145,142,143,144,145,113,114,
134,135,152,153,154,155,152,113,114,155,152,153,154,155,152,153,
0,0,0,0,0,0,0,0,0,0,0,0,0,0,0,0,
0,0,0,0,0,0,0,0,0,0,0,0,0,0,0,0,
0,0,0,0,0,0,0,0,0,0,0,0,0,0,0,0,
0,0,0,0,0,0,0,0,0,0,0,0,0,0,0,0,
0,0,0,0,0,0,0,0,0,0,0,0,0,0,0,0,
0,0,0,0,0,0,0,0,0,0,0,0,0,0,0,0,
0,0,0,0,0,0,0,0,0,0,0,0,0,0,0,0,
0,0,0,0,0,0,0,0,0,0,0,0,0,0,0,0
</chunk>
    <chunk x="-16" y="16" width="16" height="16">
124,125,122,123,124,125,122,123,124,136,0,0,151,152,153,154,
163,164,132,133,134,135,132,133,134,146,0,0,121,122,163,164,
113,114,142,143,144,163,164,143,144,156,0,0,131,132,113,114,
154,155,152,153,154,113,114,153,154,126,0,0,141,142,143,144,
124,125,122,123,124,125,122,123,124,136,0,0,151,152,153,154,
134,135,132,133,134,135,132,133,134,146,0,0,121,122,123,124,
144,145,142,143,144,145,142,143,144,156,0,0,131,132,133,134,
154,155,152,153,154,155,152,153,154,126,0,0,141,142,143,144,
0,0,0,0,0,0,0,0,0,0,0,0,0,0,0,0,
0,0,0,0,0,0,0,0,0,0,0,0,0,0,0,0,
0,0,0,0,0,0,0,0,0,0,0,0,0,0,0,0,
0,0,0,0,0,0,0,0,0,0,0,0,0,0,0,0,
0,0,0,0,0,0,0,0,0,0,0,0,0,0,0,0,
0,0,0,0,0,0,0,0,0,0,0,0,0,0,0,0,
0,0,0,0,0,0,0,0,0,0,0,0,0,0,0,0,
0,0,0,0,0,0,0,0,0,0,0,0,0,0,0,0
</chunk>
    <chunk x="0" y="16" width="16" height="16">
155,152,153,154,0,0,0,0,0,0,0,0,0,0,0,0,
125,122,123,124,0,0,0,0,0,0,0,0,0,0,0,0,
135,132,133,134,0,0,0,0,0,0,0,0,0,0,0,0,
145,142,143,144,0,0,0,0,0,0,0,0,0,0,0,0,
155,152,153,154,0,0,0,0,0,0,0,0,0,0,0,0,
125,122,123,124,0,0,0,0,0,0,0,0,0,0,0,0,
135,132,133,134,0,0,0,0,0,0,0,0,0,0,0,0,
145,142,143,144,0,0,0,0,0,0,0,0,0,0,0,0,
0,0,0,0,0,0,0,0,0,0,0,0,0,0,0,0,
0,0,0,0,0,0,0,0,0,0,0,0,0,0,0,0,
0,0,0,0,0,0,0,0,0,0,0,0,0,0,0,0,
0,0,0,0,0,0,0,0,0,0,0,0,0,0,0,0,
0,0,0,0,0,0,0,0,0,0,0,0,0,0,0,0,
0,0,0,0,0,0,0,0,0,0,0,0,0,0,0,0,
0,0,0,0,0,0,0,0,0,0,0,0,0,0,0,0,
0,0,0,0,0,0,0,0,0,0,0,0,0,0,0,0
</chunk>
   </data>
  </layer>
  <layer id="23" name="blocker" width="40" height="60" visible="0">
   <data encoding="csv">
    <chunk x="-64" y="-48" width="16" height="16">
0,0,0,0,0,0,0,0,0,0,0,0,0,0,0,0,
0,0,0,0,0,0,0,0,0,0,0,0,0,0,0,0,
0,0,0,0,0,0,0,0,0,0,0,0,0,0,0,0,
0,0,0,0,0,0,0,0,0,0,0,0,0,0,0,0,
0,0,0,0,0,0,7,7,7,7,7,7,7,7,7,7,
0,0,0,0,0,0,7,7,7,7,7,7,7,7,7,7,
0,0,0,0,0,0,7,7,7,7,7,7,7,7,7,7,
0,0,0,0,0,0,7,7,7,7,7,7,7,7,7,7,
0,0,0,0,0,0,7,7,7,7,7,7,7,7,7,7,
0,0,0,0,0,0,7,7,7,7,7,7,7,7,7,7,
0,0,0,0,0,0,7,7,7,7,7,7,7,7,7,7,
0,0,0,0,0,0,7,7,7,7,7,7,7,7,7,7,
0,0,0,0,0,0,7,7,7,7,7,7,7,7,7,7,
0,0,0,0,0,0,7,7,7,7,7,7,7,7,7,7,
0,0,0,0,0,0,7,7,7,7,7,7,7,7,7,7,
0,0,0,0,0,0,7,7,7,7,7,7,7,7,7,7
</chunk>
    <chunk x="-48" y="-48" width="16" height="16">
0,0,0,0,0,0,0,0,0,0,0,0,0,0,0,0,
0,0,0,0,0,0,0,0,0,0,0,0,0,0,0,0,
0,0,0,0,0,0,0,0,0,0,0,0,0,0,0,0,
0,0,0,0,0,0,0,0,0,0,0,0,0,0,0,0,
7,7,0,0,7,7,7,7,7,7,7,7,7,7,7,7,
7,7,0,0,7,7,7,7,7,7,7,7,7,7,7,7,
7,7,0,0,7,7,7,7,7,7,7,7,7,7,7,7,
7,7,0,0,7,7,7,7,7,7,7,7,7,7,7,7,
7,7,0,0,7,7,7,7,7,7,7,7,7,7,7,7,
7,7,0,0,7,7,7,7,7,7,7,7,7,7,7,7,
7,7,0,0,7,7,7,7,7,7,7,7,7,7,7,7,
7,7,0,0,7,7,7,7,7,7,7,7,7,7,7,7,
0,0,0,0,0,0,7,7,7,7,7,7,7,7,7,7,
0,0,0,0,0,0,7,7,7,7,7,7,7,7,7,7,
0,0,0,7,0,0,0,0,7,7,7,7,7,7,7,7,
0,0,0,7,0,0,0,0,7,7,7,7,7,7,7,7
</chunk>
    <chunk x="-32" y="-48" width="16" height="16">
0,0,0,0,0,0,0,0,0,0,0,0,0,0,0,0,
0,0,0,0,0,0,0,0,0,0,0,0,0,0,0,0,
0,0,0,0,0,0,0,0,0,0,0,0,0,0,0,0,
0,0,0,0,0,0,0,0,0,0,0,0,0,0,0,0,
7,7,7,7,7,7,7,7,7,7,7,7,7,7,7,7,
7,7,7,7,7,7,7,7,7,7,7,7,7,7,7,7,
7,7,7,7,7,7,7,7,7,7,7,7,7,7,7,7,
7,7,7,7,7,7,7,7,7,7,7,7,7,7,7,7,
7,7,7,7,7,7,7,7,7,7,7,7,7,7,7,7,
7,7,7,7,7,7,7,7,7,7,7,7,7,7,7,7,
7,7,7,7,7,7,7,7,7,7,7,7,7,7,7,7,
7,7,7,7,7,7,7,7,7,7,7,7,7,7,7,7,
7,7,7,7,7,7,7,7,7,7,7,7,7,7,7,7,
7,7,7,7,7,7,7,7,7,7,7,7,7,7,7,7,
7,7,7,7,7,7,7,7,7,7,7,7,7,7,0,0,
7,7,7,7,7,7,7,7,7,7,7,7,7,7,0,0
</chunk>
    <chunk x="-16" y="-48" width="16" height="16">
0,0,0,0,0,0,0,0,0,0,0,0,0,0,0,0,
0,0,0,0,0,0,0,0,0,0,0,0,0,0,0,0,
0,0,0,0,0,0,0,0,0,0,0,0,0,0,0,0,
0,0,0,0,0,0,0,0,0,0,0,0,0,0,0,0,
7,7,7,7,7,7,7,7,7,7,7,7,7,7,7,7,
7,7,7,7,7,7,7,7,7,7,7,7,7,7,7,7,
7,7,7,7,7,7,7,7,7,7,7,7,7,7,7,7,
7,7,7,7,7,7,7,7,7,7,7,7,7,7,7,7,
7,7,7,7,7,7,7,7,7,7,7,7,7,7,7,7,
7,7,7,7,7,7,7,7,7,7,7,7,7,7,7,7,
7,7,7,7,7,7,7,7,7,7,7,7,7,7,7,7,
7,7,7,7,7,7,7,7,7,7,7,7,7,7,7,7,
0,0,0,0,0,0,7,7,7,7,7,7,7,7,7,7,
0,0,0,0,0,0,7,7,7,7,7,7,7,7,7,7,
0,0,0,0,0,0,0,0,7,7,7,7,7,7,7,7,
0,0,0,0,0,0,0,0,7,7,7,7,7,7,7,7
</chunk>
    <chunk x="0" y="-48" width="16" height="16">
0,0,0,0,0,0,0,0,0,0,0,0,0,0,0,0,
0,0,0,0,0,0,0,0,0,0,0,0,0,0,0,0,
0,0,0,0,0,0,0,0,0,0,0,0,0,0,0,0,
0,0,0,0,0,0,0,0,0,0,0,0,0,0,0,0,
7,7,7,7,0,0,0,0,0,0,0,0,0,0,0,0,
7,7,7,7,0,0,0,0,0,0,0,0,0,0,0,0,
7,7,7,7,0,0,0,0,0,0,0,0,0,0,0,0,
7,7,7,7,0,0,0,0,0,0,0,0,0,0,0,0,
7,7,7,7,0,0,0,0,0,0,0,0,0,0,0,0,
7,7,7,7,0,0,0,0,0,0,0,0,0,0,0,0,
7,7,7,7,0,0,0,0,0,0,0,0,0,0,0,0,
7,7,7,7,0,0,0,0,0,0,0,0,0,0,0,0,
7,7,7,7,0,0,0,0,0,0,0,0,0,0,0,0,
7,7,7,7,0,0,0,0,0,0,0,0,0,0,0,0,
7,7,7,7,0,0,0,0,0,0,0,0,0,0,0,0,
7,7,7,7,0,0,0,0,0,0,0,0,0,0,0,0
</chunk>
    <chunk x="-64" y="-32" width="16" height="16">
0,0,0,0,0,0,7,7,7,7,7,7,7,7,7,7,
0,0,0,0,0,0,7,7,7,7,7,7,7,7,7,7,
0,0,0,0,0,0,7,7,7,7,7,7,7,7,7,7,
0,0,0,0,0,0,7,7,7,7,7,7,7,7,7,7,
0,0,0,0,0,0,7,7,7,7,7,7,7,7,7,7,
0,0,0,0,0,0,7,7,7,7,7,7,7,7,7,7,
0,0,0,0,0,0,7,7,7,7,7,7,7,7,7,7,
0,0,0,0,0,0,7,7,7,7,7,7,7,7,7,7,
0,0,0,0,0,0,7,7,7,7,7,7,7,7,7,7,
0,0,0,0,0,0,7,7,7,7,7,7,7,7,7,7,
0,0,0,0,0,0,7,7,7,7,7,7,7,7,7,7,
0,0,0,0,0,0,7,7,7,7,7,7,7,7,7,7,
0,0,0,0,0,0,7,7,7,7,7,7,7,7,7,7,
0,0,0,0,0,0,7,7,7,7,7,7,7,7,7,7,
0,0,0,0,0,0,7,7,7,7,7,7,7,7,7,7,
0,0,0,0,0,0,7,7,7,7,7,7,7,7,7,7
</chunk>
    <chunk x="-48" y="-32" width="16" height="16">
0,0,7,7,7,7,7,7,7,7,7,7,7,7,7,7,
0,0,7,7,7,7,7,7,7,7,7,7,7,7,7,7,
0,0,7,7,0,0,0,0,7,7,7,7,7,7,7,7,
0,0,7,7,0,0,0,0,7,7,7,7,7,7,7,7,
0,0,7,7,7,7,0,0,7,7,7,7,7,7,7,7,
0,0,7,7,7,7,0,0,7,7,7,7,7,7,7,7,
0,0,7,7,0,0,0,0,7,7,7,7,7,7,7,7,
0,0,7,7,0,0,0,0,7,7,7,7,7,7,7,7,
0,0,7,7,0,0,7,7,7,7,7,7,7,7,7,7,
0,0,7,7,0,0,7,7,7,7,7,7,7,7,7,7,
0,0,0,0,0,0,7,7,7,7,7,7,7,7,7,7,
0,0,0,0,0,0,7,7,7,7,7,7,7,7,7,7,
0,0,0,0,0,0,7,7,7,7,7,7,7,7,7,7,
7,7,0,0,7,7,7,7,7,7,7,7,7,7,7,7,
0,0,0,0,0,0,0,0,0,0,0,0,0,0,0,0,
0,0,0,0,0,0,0,0,0,0,0,0,0,0,0,0
</chunk>
    <chunk x="-32" y="-32" width="16" height="16">
7,7,7,7,7,7,7,7,7,7,7,7,7,7,0,0,
7,7,7,7,7,7,7,7,7,7,7,7,7,7,0,0,
7,7,0,0,0,0,0,0,0,0,0,0,0,0,0,0,
7,7,0,0,0,0,0,0,0,0,0,0,0,0,0,0,
7,7,0,0,7,7,7,7,7,7,7,7,7,7,7,7,
7,7,0,0,7,7,7,7,7,7,7,7,7,7,7,7,
7,7,0,0,7,7,7,7,7,7,7,7,7,7,7,7,
7,7,0,0,7,7,7,7,7,7,7,7,7,7,7,7,
7,7,0,0,7,7,7,7,7,7,7,7,7,7,7,7,
7,7,0,0,7,7,7,7,7,7,7,7,7,7,7,7,
7,7,0,0,7,7,7,7,7,7,7,7,7,7,7,7,
7,7,0,0,7,7,7,7,7,7,7,7,7,7,7,7,
7,7,0,0,7,7,7,7,7,7,7,7,7,7,7,7,
7,7,0,0,7,7,7,7,7,7,7,7,7,7,7,7,
0,0,0,0,0,0,0,0,0,0,0,0,0,0,0,0,
0,0,0,0,0,0,0,0,0,0,0,0,0,0,0,0
</chunk>
    <chunk x="-16" y="-32" width="16" height="16">
0,0,0,0,0,0,0,0,7,7,7,7,7,7,7,7,
0,0,0,0,0,0,0,0,7,7,7,7,7,7,7,7,
0,0,0,0,0,0,7,7,7,7,7,7,7,7,7,7,
0,0,0,0,0,0,7,7,7,7,7,7,7,7,7,7,
7,7,7,7,7,7,7,7,7,7,7,7,7,7,7,7,
7,7,7,7,7,7,7,7,7,7,7,7,7,7,7,7,
7,7,7,7,7,7,7,7,7,7,7,7,7,7,7,7,
7,7,7,7,7,7,7,7,7,7,7,7,7,7,7,7,
7,7,7,7,7,7,7,7,7,7,7,7,7,7,7,7,
7,7,7,7,7,7,7,7,7,7,7,7,7,7,7,7,
7,7,7,7,7,7,7,7,7,7,7,7,7,7,7,7,
7,7,7,7,7,7,7,7,7,7,7,7,7,7,7,7,
7,7,7,7,7,7,7,7,7,7,7,7,7,7,7,7,
7,7,7,7,7,7,7,7,7,7,7,7,7,7,7,7,
0,0,0,0,0,0,0,0,0,0,7,7,7,7,7,7,
0,0,0,0,0,0,0,0,0,0,7,7,7,7,7,7
</chunk>
    <chunk x="0" y="-32" width="16" height="16">
7,7,7,7,0,0,0,0,0,0,0,0,0,0,0,0,
7,7,7,7,0,0,0,0,0,0,0,0,0,0,0,0,
7,7,7,7,0,0,0,0,0,0,0,0,0,0,0,0,
7,7,7,7,0,0,0,0,0,0,0,0,0,0,0,0,
7,7,7,7,0,0,0,0,0,0,0,0,0,0,0,0,
7,7,7,7,0,0,0,0,0,0,0,0,0,0,0,0,
7,7,7,7,0,0,0,0,0,0,0,0,0,0,0,0,
7,7,7,7,0,0,0,0,0,0,0,0,0,0,0,0,
7,7,7,7,0,0,0,0,0,0,0,0,0,0,0,0,
7,7,7,7,0,0,0,0,0,0,0,0,0,0,0,0,
7,7,7,7,0,0,0,0,0,0,0,0,0,0,0,0,
7,7,7,7,0,0,0,0,0,0,0,0,0,0,0,0,
7,7,7,7,0,0,0,0,0,0,0,0,0,0,0,0,
7,7,7,7,0,0,0,0,0,0,0,0,0,0,0,0,
7,7,7,7,0,0,0,0,0,0,0,0,0,0,0,0,
7,7,7,7,0,0,0,0,0,0,0,0,0,0,0,0
</chunk>
    <chunk x="-64" y="-16" width="16" height="16">
0,0,0,0,0,0,7,7,7,7,7,7,7,7,7,7,
0,0,0,0,0,0,7,7,7,7,7,7,7,7,7,7,
0,0,0,0,0,0,7,7,7,7,7,7,7,7,7,7,
0,0,0,0,0,0,7,7,7,7,7,7,7,7,7,7,
0,0,0,0,0,0,7,7,7,7,7,7,7,7,7,7,
0,0,0,0,0,0,7,7,7,7,7,7,7,7,7,7,
0,0,0,0,0,0,7,7,7,7,7,7,7,7,7,7,
0,0,0,0,0,0,7,7,7,7,7,7,7,7,7,7,
0,0,0,0,0,0,7,7,7,7,7,7,7,7,7,7,
0,0,0,0,0,0,7,7,7,7,7,7,7,7,7,7,
0,0,0,0,0,0,7,7,7,7,7,7,7,7,7,7,
0,0,0,0,0,0,7,7,7,7,7,7,7,7,7,7,
0,0,0,0,0,0,7,7,7,7,7,7,7,7,7,7,
0,0,0,0,0,0,7,7,7,7,7,7,7,7,7,7,
0,0,0,0,0,0,7,7,7,7,7,7,7,7,7,7,
0,0,0,0,0,0,7,7,7,7,7,7,7,7,7,7
</chunk>
    <chunk x="-48" y="-16" width="16" height="16">
0,0,0,0,7,7,7,7,7,7,7,7,0,0,0,0,
0,0,0,0,7,7,7,7,7,7,7,7,0,0,0,0,
0,0,7,7,7,7,7,7,7,7,7,7,7,7,7,7,
0,0,7,7,7,7,7,7,7,7,7,7,7,7,7,7,
0,0,7,7,7,7,7,7,7,7,7,7,7,7,7,7,
0,0,7,7,7,7,7,7,7,7,7,7,7,7,7,7,
0,0,7,7,7,7,7,0,7,0,0,0,0,0,0,0,
0,0,7,7,7,7,0,0,0,0,0,0,0,0,0,0,
0,0,7,7,7,7,0,0,0,0,0,0,0,0,0,0,
0,0,7,7,7,7,0,0,0,0,0,0,0,0,0,0,
0,0,7,7,7,7,0,0,0,0,7,7,7,7,7,7,
0,0,7,7,7,7,0,0,0,0,7,7,7,7,7,7,
0,0,7,7,7,7,7,0,0,7,7,7,7,7,7,7,
0,0,7,7,7,7,0,0,0,0,7,7,7,7,7,7,
0,0,7,7,7,0,0,0,0,0,7,7,7,7,0,0,
0,0,7,7,7,0,0,0,0,0,7,7,7,7,0,0
</chunk>
    <chunk x="-32" y="-16" width="16" height="16">
0,0,0,0,0,0,0,0,0,0,0,0,0,0,0,0,
0,0,0,0,0,0,0,0,0,0,0,0,0,0,0,0,
7,7,7,7,7,7,7,7,7,7,7,7,7,7,7,7,
7,7,7,7,7,7,7,7,7,7,7,7,7,7,7,7,
7,7,7,7,7,7,7,7,7,7,7,7,7,7,7,7,
7,7,7,7,7,7,7,7,7,7,7,7,7,7,7,7,
0,0,0,0,0,0,0,0,0,7,7,7,0,0,7,7,
0,0,0,0,0,0,0,0,0,7,7,7,0,0,7,7,
0,0,0,0,0,0,0,0,0,7,7,7,0,0,7,7,
0,0,0,0,0,0,0,0,0,7,7,7,0,0,7,7,
7,7,7,7,7,0,0,0,0,7,7,7,0,0,7,7,
7,7,7,7,7,0,0,0,0,7,7,7,0,0,0,0,
7,7,7,7,7,7,0,0,0,7,7,7,0,0,0,0,
7,7,7,7,7,7,0,0,0,0,0,0,0,0,0,0,
7,7,7,7,7,7,0,0,0,0,0,0,0,0,0,0,
7,7,7,7,7,7,0,0,0,0,0,0,0,0,0,0
</chunk>
    <chunk x="-16" y="-16" width="16" height="16">
0,0,0,0,0,0,0,0,7,7,7,7,7,7,7,7,
0,0,0,0,0,0,0,0,7,7,7,7,7,7,7,7,
0,0,0,0,0,0,7,7,7,7,7,7,7,7,7,7,
0,0,0,0,0,0,7,7,7,7,7,7,7,7,7,7,
0,0,0,0,0,0,7,7,7,7,7,7,7,7,7,7,
0,0,0,0,0,0,7,7,7,7,7,7,7,7,7,7,
7,7,0,0,0,0,7,7,7,7,7,7,7,7,7,7,
7,7,0,0,0,0,7,7,7,7,7,7,7,7,7,7,
7,7,0,0,0,0,7,7,7,7,7,7,7,7,7,7,
7,7,0,0,0,0,7,7,7,7,7,7,7,7,7,7,
7,7,0,0,0,0,0,7,7,7,7,7,7,7,7,7,
7,7,0,0,0,0,0,7,7,7,7,7,7,7,7,7,
0,0,0,0,0,0,0,0,0,0,7,7,7,7,7,7,
0,0,0,0,0,0,0,0,0,0,7,7,7,7,7,7,
0,0,0,0,0,0,0,0,0,0,7,7,7,7,7,7,
0,0,0,0,0,0,0,0,0,0,7,7,7,7,7,7
</chunk>
    <chunk x="0" y="-16" width="16" height="16">
7,7,7,7,0,0,0,0,0,0,0,0,0,0,0,0,
7,7,7,7,0,0,0,0,0,0,0,0,0,0,0,0,
7,7,7,7,0,0,0,0,0,0,0,0,0,0,0,0,
7,7,7,7,0,0,0,0,0,0,0,0,0,0,0,0,
7,7,7,7,0,0,0,0,0,0,0,0,0,0,0,0,
7,7,7,7,0,0,0,0,0,0,0,0,0,0,0,0,
7,7,7,7,0,0,0,0,0,0,0,0,0,0,0,0,
7,7,7,7,0,0,0,0,0,0,0,0,0,0,0,0,
7,7,7,7,0,0,0,0,0,0,0,0,0,0,0,0,
7,7,7,7,0,0,0,0,0,0,0,0,0,0,0,0,
7,7,7,7,0,0,0,0,0,0,0,0,0,0,0,0,
7,7,7,7,0,0,0,0,0,0,0,0,0,0,0,0,
7,7,7,7,0,0,0,0,0,0,0,0,0,0,0,0,
7,7,7,7,0,0,0,0,0,0,0,0,0,0,0,0,
7,7,7,7,0,0,0,0,0,0,0,0,0,0,0,0,
7,7,7,7,0,0,0,0,0,0,0,0,0,0,0,0
</chunk>
    <chunk x="-64" y="0" width="16" height="16">
0,0,0,0,0,0,7,7,7,7,7,7,7,7,7,7,
0,0,0,0,0,0,7,7,7,7,7,7,7,7,7,7,
0,0,0,0,0,0,7,7,7,7,7,7,7,7,7,7,
0,0,0,0,0,0,7,7,7,7,7,7,7,7,7,7,
0,0,0,0,0,0,7,7,7,7,7,7,7,7,7,7,
0,0,0,0,0,0,7,7,7,7,7,7,7,7,7,7,
0,0,0,0,0,0,7,7,7,7,7,7,7,7,7,7,
0,0,0,0,0,0,7,7,7,7,7,7,7,7,7,7,
0,0,0,0,0,0,7,7,7,7,7,7,7,7,7,7,
0,0,0,0,0,0,7,7,7,7,7,7,7,7,7,7,
0,0,0,0,0,0,7,7,7,7,7,7,7,7,7,7,
0,0,0,0,0,0,7,7,7,7,7,7,7,7,7,7,
0,0,0,0,0,0,7,7,7,7,7,7,7,7,7,7,
0,0,0,0,0,0,7,7,7,7,7,7,7,7,7,7,
0,0,0,0,0,0,7,7,7,7,7,7,7,7,7,7,
0,0,0,0,0,0,7,7,7,7,7,7,7,7,7,7
</chunk>
    <chunk x="-48" y="0" width="16" height="16">
0,0,7,7,0,0,0,0,0,0,0,7,0,7,0,0,
0,0,7,7,0,0,0,0,0,0,0,0,0,0,0,0,
0,0,7,7,0,0,0,0,0,0,0,0,0,0,0,0,
0,0,7,7,0,0,0,0,0,0,0,0,0,0,0,0,
0,0,7,7,0,0,7,7,7,7,7,7,7,7,7,7,
0,0,7,7,0,0,7,7,7,7,7,7,7,7,7,7,
0,0,0,0,0,0,7,7,7,7,7,7,7,7,7,7,
0,0,0,0,0,0,7,7,7,7,7,7,7,7,7,7,
7,7,7,7,7,7,7,7,7,7,7,7,7,7,7,7,
7,7,7,7,7,7,7,7,7,7,7,7,7,7,7,7,
7,7,7,7,7,7,7,7,7,7,7,7,7,7,7,7,
7,7,7,7,7,7,7,7,7,7,7,7,7,7,7,7,
7,7,7,7,7,7,7,7,7,7,7,7,7,7,7,7,
7,7,7,7,7,7,7,7,7,7,7,7,7,7,7,7,
7,7,7,7,7,7,7,7,7,7,7,7,7,7,7,7,
7,7,7,7,7,7,7,7,7,7,7,7,7,7,7,7
</chunk>
    <chunk x="-32" y="0" width="16" height="16">
0,0,7,7,7,7,7,0,0,0,0,0,0,0,0,0,
0,0,7,7,7,7,7,0,0,0,0,0,0,0,0,0,
0,0,7,7,7,7,7,7,7,7,7,7,7,0,0,0,
0,0,7,7,7,7,7,7,7,7,7,7,7,0,0,0,
7,7,7,7,7,7,7,7,7,7,7,7,7,7,7,7,
7,7,7,7,7,7,7,7,7,7,7,7,7,7,7,7,
7,7,7,7,7,7,0,0,0,0,7,7,7,7,7,7,
7,7,7,7,7,7,0,0,0,0,7,7,7,7,7,7,
7,7,7,7,7,7,7,0,0,7,7,7,7,7,7,7,
7,7,7,7,7,7,7,0,0,7,0,7,7,7,7,7,
7,7,7,7,7,7,0,0,0,0,0,0,0,0,0,0,
7,7,7,7,7,7,0,0,0,0,0,0,0,0,0,0,
7,7,7,7,7,7,0,0,0,0,0,0,0,0,0,0,
7,7,7,7,7,7,7,7,7,7,7,0,0,0,0,0,
7,7,7,7,7,7,7,7,7,7,7,0,0,0,0,0,
7,7,7,7,7,7,7,7,7,7,7,0,0,0,0,0
</chunk>
    <chunk x="-16" y="0" width="16" height="16">
0,7,0,0,0,0,0,0,0,0,0,0,7,7,7,7,
7,7,0,0,0,0,0,0,0,0,0,0,7,7,7,7,
7,7,7,0,7,0,0,0,0,7,0,0,7,7,7,7,
0,7,7,0,7,0,0,0,0,7,0,0,7,7,7,7,
7,7,7,7,7,0,0,0,0,7,7,7,7,7,7,7,
7,7,7,0,0,0,0,0,0,0,0,7,7,7,7,7,
7,7,7,0,0,0,0,0,0,0,0,7,7,7,7,7,
7,7,0,0,0,0,0,0,7,0,0,0,7,7,7,7,
7,7,0,0,0,0,0,0,0,0,0,0,7,7,7,7,
7,7,0,0,0,0,0,0,0,0,0,0,7,7,7,7,
7,7,0,0,0,7,7,0,0,0,0,0,7,7,7,7,
7,7,0,0,0,7,7,0,0,0,0,0,7,7,7,7,
0,0,0,0,0,0,0,0,0,0,0,0,7,7,7,7,
0,0,0,0,0,0,0,0,0,0,0,0,7,7,7,7,
0,0,0,0,0,7,7,0,0,0,0,0,7,7,7,7,
0,0,0,0,0,7,7,0,0,0,0,0,7,7,7,7
</chunk>
    <chunk x="0" y="0" width="16" height="16">
7,7,7,7,0,0,0,0,0,0,0,0,0,0,0,0,
7,7,7,7,0,0,0,0,0,0,0,0,0,0,0,0,
7,7,7,7,0,0,0,0,0,0,0,0,0,0,0,0,
7,7,7,7,0,0,0,0,0,0,0,0,0,0,0,0,
7,7,7,7,0,0,0,0,0,0,0,0,0,0,0,0,
7,7,7,7,0,0,0,0,0,0,0,0,0,0,0,0,
7,7,7,7,0,0,0,0,0,0,0,0,0,0,0,0,
7,7,7,7,0,0,0,0,0,0,0,0,0,0,0,0,
7,7,7,7,0,0,0,0,0,0,0,0,0,0,0,0,
7,7,7,7,0,0,0,0,0,0,0,0,0,0,0,0,
7,7,7,7,0,0,0,0,0,0,0,0,0,0,0,0,
7,7,7,7,0,0,0,0,0,0,0,0,0,0,0,0,
7,7,7,7,0,0,0,0,0,0,0,0,0,0,0,0,
7,7,7,7,0,0,0,0,0,0,0,0,0,0,0,0,
7,7,7,7,0,0,0,0,0,0,0,0,0,0,0,0,
7,7,7,7,0,0,0,0,0,0,0,0,0,0,0,0
</chunk>
    <chunk x="-64" y="16" width="16" height="16">
0,0,0,0,0,0,7,7,7,7,7,7,7,7,7,7,
0,0,0,0,0,0,7,7,7,7,7,7,7,7,7,7,
0,0,0,0,0,0,7,7,7,7,7,7,7,7,7,7,
0,0,0,0,0,0,7,7,7,7,7,7,7,7,7,7,
0,0,0,0,0,0,7,7,7,7,7,7,7,7,7,7,
0,0,0,0,0,0,7,7,7,7,7,7,7,7,7,7,
0,0,0,0,0,0,7,7,7,7,7,7,7,7,7,7,
0,0,0,0,0,0,7,7,7,7,7,7,7,7,7,7,
0,0,0,0,0,0,0,0,0,0,0,0,0,0,0,0,
0,0,0,0,0,0,0,0,0,0,0,0,0,0,0,0,
0,0,0,0,0,0,0,0,0,0,0,0,0,0,0,0,
0,0,0,0,0,0,0,0,0,0,0,0,0,0,0,0,
0,0,0,0,0,0,0,0,0,0,0,0,0,0,0,0,
0,0,0,0,0,0,0,0,0,0,0,0,0,0,0,0,
0,0,0,0,0,0,0,0,0,0,0,0,0,0,0,0,
0,0,0,0,0,0,0,0,0,0,0,0,0,0,0,0
</chunk>
    <chunk x="-48" y="16" width="16" height="16">
7,7,7,7,7,7,7,7,7,7,7,7,7,7,7,7,
7,7,7,7,7,7,7,7,7,7,7,7,7,7,7,7,
7,7,7,7,7,7,7,7,7,7,7,7,7,7,7,7,
7,7,7,7,7,7,7,7,7,7,7,7,7,7,7,7,
7,7,7,7,7,7,7,7,7,7,7,7,7,7,7,7,
7,7,7,7,7,7,7,7,7,7,7,7,7,7,7,7,
7,7,7,7,7,7,7,7,7,7,7,7,7,7,7,7,
7,7,7,7,7,7,7,7,7,7,7,7,7,7,7,7,
0,0,0,0,0,0,0,0,0,0,0,0,0,0,0,0,
0,0,0,0,0,0,0,0,0,0,0,0,0,0,0,0,
0,0,0,0,0,0,0,0,0,0,0,0,0,0,0,0,
0,0,0,0,0,0,0,0,0,0,0,0,0,0,0,0,
0,0,0,0,0,0,0,0,0,0,0,0,0,0,0,0,
0,0,0,0,0,0,0,0,0,0,0,0,0,0,0,0,
0,0,0,0,0,0,0,0,0,0,0,0,0,0,0,0,
0,0,0,0,0,0,0,0,0,0,0,0,0,0,0,0
</chunk>
    <chunk x="-32" y="16" width="16" height="16">
7,7,7,7,7,7,7,7,7,7,7,7,7,7,7,7,
7,7,7,7,7,7,7,7,7,7,7,7,7,7,7,7,
7,7,7,7,7,7,7,7,7,7,7,7,7,7,7,7,
7,7,7,7,7,7,7,7,7,7,7,7,7,7,7,7,
7,7,7,7,7,7,7,7,7,7,7,7,7,7,7,7,
7,7,7,7,7,7,7,7,7,7,7,7,7,7,7,7,
7,7,7,7,7,7,7,7,7,7,7,7,7,7,7,7,
7,7,7,7,7,7,7,7,7,7,7,7,7,7,7,7,
0,0,0,0,0,0,0,0,0,0,0,0,0,0,0,0,
0,0,0,0,0,0,0,0,0,0,0,0,0,0,0,0,
0,0,0,0,0,0,0,0,0,0,0,0,0,0,0,0,
0,0,0,0,0,0,0,0,0,0,0,0,0,0,0,0,
0,0,0,0,0,0,0,0,0,0,0,0,0,0,0,0,
0,0,0,0,0,0,0,0,0,0,0,0,0,0,0,0,
0,0,0,0,0,0,0,0,0,0,0,0,0,0,0,0,
0,0,0,0,0,0,0,0,0,0,0,0,0,0,0,0
</chunk>
    <chunk x="-16" y="16" width="16" height="16">
7,7,7,7,7,7,7,7,7,7,0,0,7,7,7,7,
7,7,7,7,7,7,7,7,7,7,0,0,7,7,7,7,
7,7,7,7,7,7,7,7,7,7,0,0,7,7,7,7,
7,7,7,7,7,7,7,7,7,7,0,0,7,7,7,7,
7,7,7,7,7,7,7,7,7,7,0,0,7,7,7,7,
7,7,7,7,7,7,7,7,7,7,0,0,7,7,7,7,
7,7,7,7,7,7,7,7,7,7,0,0,7,7,7,7,
7,7,7,7,7,7,7,7,7,7,0,0,7,7,7,7,
0,0,0,0,0,0,0,0,0,0,0,0,0,0,0,0,
0,0,0,0,0,0,0,0,0,0,0,0,0,0,0,0,
0,0,0,0,0,0,0,0,0,0,0,0,0,0,0,0,
0,0,0,0,0,0,0,0,0,0,0,0,0,0,0,0,
0,0,0,0,0,0,0,0,0,0,0,0,0,0,0,0,
0,0,0,0,0,0,0,0,0,0,0,0,0,0,0,0,
0,0,0,0,0,0,0,0,0,0,0,0,0,0,0,0,
0,0,0,0,0,0,0,0,0,0,0,0,0,0,0,0
</chunk>
    <chunk x="0" y="16" width="16" height="16">
7,7,7,7,0,0,0,0,0,0,0,0,0,0,0,0,
7,7,7,7,0,0,0,0,0,0,0,0,0,0,0,0,
7,7,7,7,0,0,0,0,0,0,0,0,0,0,0,0,
7,7,7,7,0,0,0,0,0,0,0,0,0,0,0,0,
7,7,7,7,0,0,0,0,0,0,0,0,0,0,0,0,
7,7,7,7,0,0,0,0,0,0,0,0,0,0,0,0,
7,7,7,7,0,0,0,0,0,0,0,0,0,0,0,0,
7,7,7,7,0,0,0,0,0,0,0,0,0,0,0,0,
0,0,0,0,0,0,0,0,0,0,0,0,0,0,0,0,
0,0,0,0,0,0,0,0,0,0,0,0,0,0,0,0,
0,0,0,0,0,0,0,0,0,0,0,0,0,0,0,0,
0,0,0,0,0,0,0,0,0,0,0,0,0,0,0,0,
0,0,0,0,0,0,0,0,0,0,0,0,0,0,0,0,
0,0,0,0,0,0,0,0,0,0,0,0,0,0,0,0,
0,0,0,0,0,0,0,0,0,0,0,0,0,0,0,0,
0,0,0,0,0,0,0,0,0,0,0,0,0,0,0,0
</chunk>
   </data>
  </layer>
 </group>
 <layer id="1" name="objectsTopWorld" width="40" height="60" visible="0" locked="1">
  <data encoding="csv">
   <chunk x="0" y="-48" width="16" height="16">
0,0,0,0,0,0,0,0,0,0,0,0,0,0,0,0,
0,0,0,0,0,0,0,0,0,0,0,0,0,0,0,0,
0,0,0,0,0,0,0,0,0,0,0,0,0,0,0,0,
0,0,0,0,0,0,0,0,0,0,0,0,0,0,0,0,
0,0,0,0,0,0,0,0,0,0,0,0,0,0,0,0,
0,0,0,0,0,0,0,0,0,0,0,0,0,0,0,0,
0,0,0,0,0,0,0,0,0,0,0,0,0,0,0,0,
0,0,0,0,0,0,0,0,0,0,0,0,0,0,0,0,
0,0,1,2,1,2,1,2,1,2,1,2,1,2,1,2,
0,0,13,14,13,14,13,14,13,14,13,14,13,14,13,14,
1,2,1,2,0,0,0,0,0,0,0,0,1,2,0,0,
13,14,13,14,0,0,0,0,0,0,0,0,13,14,0,0,
1,2,0,0,0,0,0,0,0,0,0,0,1,2,0,0,
13,14,0,0,0,0,0,0,0,0,0,0,13,14,1,2,
1,2,0,0,0,0,0,0,0,0,0,0,1,2,13,14,
13,14,0,0,0,0,0,0,0,0,0,0,13,14,0,0
</chunk>
   <chunk x="16" y="-48" width="16" height="16">
0,0,0,0,0,0,0,0,0,0,0,0,0,0,0,0,
0,0,0,0,0,0,0,0,0,0,0,0,0,0,0,0,
0,0,0,0,0,0,0,0,0,0,0,0,0,0,0,0,
0,0,0,0,0,0,0,0,0,0,0,0,0,0,0,0,
0,0,0,0,0,0,0,0,0,0,0,0,0,0,0,0,
0,0,0,0,0,0,0,0,0,0,0,0,0,0,0,0,
0,0,0,0,0,0,0,0,0,0,0,0,0,0,0,0,
0,0,0,0,0,0,0,0,0,0,0,0,0,0,0,0,
1,2,1,2,1,2,1,2,1,2,1,2,0,0,0,0,
13,14,13,14,13,14,13,14,13,14,13,14,0,0,0,0,
0,0,0,0,0,0,0,0,0,0,0,0,1,2,0,0,
1,2,0,0,0,0,0,0,0,0,0,0,13,14,0,0,
13,14,0,0,0,0,1,2,1,2,0,0,1,2,0,0,
1,2,0,0,0,0,13,14,13,14,0,0,13,14,0,0,
13,14,0,0,1,2,0,0,1,2,0,0,1,2,1,2,
1,2,0,0,13,14,0,0,13,14,0,0,13,14,13,14
</chunk>
   <chunk x="32" y="-48" width="16" height="16">
0,0,0,0,0,0,0,0,0,0,0,0,0,0,0,0,
0,0,0,0,0,0,0,0,0,0,0,0,0,0,0,0,
0,0,0,0,0,0,0,0,0,0,0,0,0,0,0,0,
0,0,0,0,0,0,0,0,0,0,0,0,0,0,0,0,
0,0,0,0,0,0,0,0,0,0,0,0,0,0,0,0,
0,0,0,0,0,0,0,0,0,0,0,0,0,0,0,0,
0,0,0,0,0,0,0,0,0,0,0,0,0,0,0,0,
0,0,0,0,0,0,0,0,0,0,0,0,0,0,0,0,
0,0,0,0,0,0,0,0,0,0,0,0,0,0,0,0,
0,0,0,0,0,0,0,0,0,0,0,0,0,0,0,0,
0,0,1,2,1,2,1,2,1,2,1,2,0,0,0,0,
0,0,13,14,13,14,13,14,13,14,13,14,0,0,0,0,
0,0,1,2,62,63,63,63,63,64,1,2,1,2,0,0,
0,0,13,14,74,75,75,75,75,76,13,14,13,14,0,0,
1,2,1,2,86,87,87,87,75,75,63,64,1,2,0,0,
13,14,13,14,0,0,0,0,86,87,75,76,13,14,0,0
</chunk>
   <chunk x="0" y="-32" width="16" height="16">
1,2,0,0,0,0,0,0,1,2,0,0,1,2,0,0,
13,14,0,0,0,0,0,0,13,14,0,0,13,14,0,0,
1,2,0,0,0,0,0,0,1,2,0,0,1,2,1,2,
13,14,0,0,0,0,0,0,13,14,0,0,13,14,13,14,
1,2,0,0,0,0,0,0,1,2,0,0,0,0,0,0,
13,14,0,0,0,0,0,0,13,14,0,0,0,0,0,0,
1,2,1,2,0,0,0,0,1,2,0,0,1,2,0,0,
13,14,13,14,0,0,0,0,13,14,0,0,13,14,0,0,
0,0,1,2,0,0,1,2,1,2,1,2,1,2,1,2,
0,0,13,14,0,0,13,14,13,14,13,14,13,14,13,14,
0,0,1,2,0,0,1,2,0,0,0,0,0,0,0,0,
0,0,13,14,0,0,13,14,0,0,0,0,0,0,0,0,
1,2,1,2,0,0,1,2,1,2,1,2,1,2,1,2,
13,14,13,14,0,0,13,14,13,14,13,14,13,14,13,14,
1,2,0,0,0,0,0,0,29,31,32,0,0,0,34,35,
13,14,0,0,0,0,0,0,42,43,45,0,0,0,21,23
</chunk>
   <chunk x="16" y="-32" width="16" height="16">
13,14,0,0,0,0,0,0,1,2,0,0,0,0,0,0,
0,0,0,0,0,0,0,0,13,14,0,0,0,0,0,0,
1,2,1,2,0,0,0,0,1,2,0,0,0,0,0,0,
13,14,13,14,0,0,0,0,13,14,0,0,0,0,0,0,
0,0,0,0,0,0,1,2,1,2,1,2,1,2,1,2,
0,0,0,0,0,0,13,14,13,14,13,14,13,14,13,14,
0,0,0,0,0,0,0,0,0,0,0,0,1,2,0,0,
0,0,0,0,0,0,0,0,0,0,0,0,13,14,0,0,
1,2,1,2,1,2,1,2,1,2,1,2,1,2,0,0,
13,14,13,14,13,14,13,14,13,14,13,14,13,14,0,0,
0,0,0,0,0,0,0,0,0,0,0,0,0,0,0,0,
0,0,0,0,0,0,0,0,0,0,0,0,0,0,0,0,
1,2,1,2,0,0,0,0,0,0,0,0,0,0,0,0,
13,14,13,14,0,0,0,0,0,0,0,0,0,0,0,0,
0,0,1,2,0,0,0,0,0,0,0,0,0,0,0,0,
0,0,13,14,0,0,0,0,0,0,0,0,0,0,0,0
</chunk>
   <chunk x="32" y="-32" width="16" height="16">
0,0,0,0,0,0,0,0,0,0,74,76,1,2,0,0,
0,0,0,0,0,0,0,0,0,0,74,76,13,14,0,0,
0,0,0,0,0,0,0,0,0,0,74,76,1,2,0,0,
0,0,0,0,0,0,0,0,0,0,74,76,13,14,0,0,
1,2,1,2,0,0,0,0,62,63,75,76,1,2,0,0,
13,14,13,14,62,63,63,63,75,75,87,89,13,14,0,0,
0,0,1,2,74,75,75,75,75,76,1,2,1,2,0,0,
0,0,13,14,86,87,87,87,87,89,13,14,13,14,0,0,
0,0,1,2,1,2,1,2,1,2,1,2,0,0,0,0,
0,0,13,14,13,14,13,14,13,14,13,14,0,0,0,0,
0,0,0,0,0,0,0,0,0,0,0,0,0,0,0,0,
0,0,0,0,0,0,0,0,0,0,0,0,0,0,0,0,
0,0,0,0,0,0,0,0,0,0,0,0,0,0,0,0,
0,0,0,0,0,0,0,0,0,0,0,0,0,0,0,0,
0,0,0,0,0,0,0,0,0,0,0,0,0,0,0,0,
0,0,0,0,0,0,0,0,0,0,0,0,0,0,0,0
</chunk>
   <chunk x="0" y="-16" width="16" height="16">
1,2,0,0,0,0,0,0,54,56,57,0,0,0,58,59,
13,14,0,0,0,0,0,0,0,0,0,0,0,0,0,0,
1,2,0,0,0,0,0,0,0,0,0,0,0,0,0,0,
13,14,26,26,26,26,26,26,26,27,0,0,25,26,26,26,
1,2,0,0,0,0,0,0,38,39,0,0,37,38,0,0,
13,14,0,0,34,35,0,0,38,39,0,0,37,38,34,35,
1,2,0,0,8,9,0,51,51,52,0,0,49,51,46,47,
13,14,0,0,58,59,0,0,0,0,0,0,0,0,58,59,
1,2,0,0,0,0,0,0,0,0,0,0,0,0,0,0,
13,14,0,0,0,0,0,0,0,29,31,32,0,0,0,0,
1,2,0,0,0,0,0,0,0,42,43,45,0,0,0,0,
13,14,0,0,0,0,0,0,0,54,56,57,0,0,0,0,
1,2,0,0,0,0,0,0,0,0,0,0,0,0,0,0,
13,14,0,0,0,0,0,0,0,0,0,0,0,0,0,0,
1,2,1,2,1,2,1,2,1,2,1,2,0,0,0,0,
13,14,13,14,13,14,13,14,13,14,13,14,0,0,0,0
</chunk>
   <chunk x="16" y="-16" width="16" height="16">
0,0,1,2,0,0,0,0,0,0,0,0,0,0,0,0,
0,0,13,14,0,0,0,0,0,0,0,0,0,0,0,0,
0,0,1,2,0,0,0,0,0,0,0,0,0,0,0,0,
26,26,13,14,0,0,0,0,0,0,0,0,0,0,0,0,
0,0,1,2,0,0,0,0,0,0,0,0,0,0,0,0,
0,0,13,14,0,0,0,0,0,0,0,0,0,0,0,0,
0,0,1,2,0,0,0,0,0,0,0,0,0,0,0,0,
0,0,13,14,0,0,0,0,0,0,0,0,0,0,0,0,
0,0,1,2,0,0,0,0,0,0,0,0,0,0,0,0,
0,0,13,14,0,0,0,0,0,0,0,0,0,0,0,0,
0,0,1,2,0,0,0,0,0,0,0,0,0,0,0,0,
0,0,13,14,0,0,0,0,0,0,0,0,0,0,0,0,
0,0,1,2,0,0,0,0,0,0,0,0,0,0,0,0,
0,0,13,14,0,0,0,0,0,0,0,0,0,0,0,0,
1,2,1,2,0,0,0,0,0,0,0,0,0,0,0,0,
13,14,13,14,0,0,0,0,0,0,0,0,0,0,0,0
</chunk>
   <chunk x="0" y="0" width="16" height="16">
0,0,0,0,0,0,0,0,0,0,1,2,0,0,0,0,
0,0,0,0,0,0,0,0,0,0,13,14,0,0,0,0,
0,0,0,0,0,0,0,0,0,0,1,2,0,0,0,0,
0,0,0,0,0,0,0,0,0,0,13,14,0,0,0,0,
0,0,1,2,1,2,1,2,1,2,1,2,0,0,0,0,
0,0,13,14,13,14,13,14,13,14,13,14,0,0,0,0,
1,2,1,2,0,0,0,0,0,0,0,0,0,0,0,0,
13,14,13,14,0,0,0,0,0,0,0,0,0,0,0,0,
1,2,0,0,0,0,0,0,0,0,0,0,0,0,0,0,
13,14,0,0,0,0,0,0,0,0,0,0,0,0,0,0,
1,2,0,0,0,0,0,0,0,0,25,26,26,26,26,26,
13,14,0,0,0,0,0,29,31,32,37,0,0,38,0,0,
1,2,0,0,0,0,0,42,43,45,37,0,0,0,0,0,
13,14,0,0,0,0,0,54,56,57,49,51,51,51,51,51,
1,2,0,0,0,0,0,0,0,0,1,2,1,2,1,2,
13,14,0,0,0,0,0,0,0,0,13,14,13,14,13,14
</chunk>
   <chunk x="16" y="0" width="16" height="16">
1,2,0,0,0,0,0,0,0,0,0,0,0,0,0,0,
13,14,0,0,0,0,0,0,0,0,0,0,0,0,0,0,
1,2,1,2,0,0,0,0,0,0,0,0,0,0,0,0,
13,14,13,14,0,0,0,0,0,0,0,0,0,0,0,0,
0,0,1,2,0,0,0,0,0,0,0,0,0,0,0,0,
0,0,13,14,0,0,0,0,0,0,0,0,0,0,0,0,
0,0,1,2,0,0,0,0,0,0,0,0,0,0,0,0,
0,0,13,14,0,0,0,0,0,0,0,0,0,0,0,0,
0,0,1,2,0,0,0,0,0,0,0,0,0,0,0,0,
0,0,13,14,0,0,0,0,0,0,0,0,0,0,0,0,
26,27,1,2,0,0,0,0,0,0,0,0,0,0,0,0,
0,39,13,14,0,0,0,0,0,0,0,0,0,0,0,0,
0,39,1,2,0,0,0,0,0,0,0,0,0,0,0,0,
51,52,13,14,0,0,0,0,0,0,0,0,0,0,0,0,
1,2,0,0,0,0,0,0,0,0,0,0,0,0,0,0,
13,14,0,0,0,0,0,0,0,0,0,0,0,0,0,0
</chunk>
   <chunk x="-32" y="16" width="16" height="16">
0,0,0,0,0,0,0,0,0,0,0,0,0,0,0,0,
0,0,0,0,0,0,0,0,0,0,0,0,0,0,0,0,
0,0,0,0,0,0,0,0,0,0,0,0,0,0,0,0,
0,0,0,0,0,0,0,0,0,0,0,0,0,0,0,0,
0,0,0,0,0,0,0,0,0,0,0,0,0,0,0,0,
0,0,0,0,0,0,0,0,0,0,0,0,0,0,0,0,
0,0,0,0,0,0,0,0,0,0,0,0,0,0,0,0,
0,0,0,0,0,0,0,0,0,0,0,0,0,0,0,0,
0,0,0,0,0,0,0,0,0,0,0,0,0,0,0,0,
0,0,0,0,0,0,0,0,0,0,0,0,0,0,0,0,
0,0,0,0,0,0,0,0,0,0,0,0,0,0,0,0,
0,0,0,0,0,0,0,0,0,0,0,0,0,0,0,0,
0,0,0,0,0,0,0,0,0,0,0,0,0,0,0,0,
0,0,0,0,0,0,0,0,0,0,0,0,0,0,0,0,
0,0,0,0,0,0,0,0,1,2,0,0,0,0,1,2,
0,0,0,0,1,2,1,2,13,14,1,2,1,2,13,14
</chunk>
   <chunk x="-16" y="16" width="16" height="16">
0,0,0,0,0,0,0,0,0,0,0,0,0,0,0,0,
0,0,0,0,0,0,0,0,0,0,0,0,0,0,0,0,
0,0,0,0,0,0,0,0,0,0,0,0,0,0,0,0,
0,0,0,0,0,0,0,0,0,0,0,0,0,0,0,0,
0,0,0,0,0,0,1,2,1,2,1,2,1,2,1,2,
0,0,0,0,0,0,13,14,13,14,13,14,13,14,13,14,
0,0,0,0,0,0,1,2,0,0,0,0,0,0,62,63,
0,0,0,0,0,0,13,14,0,0,0,0,0,0,74,75,
0,0,0,0,0,0,1,2,0,0,0,0,0,0,74,75,
0,0,0,0,0,0,13,14,0,0,0,0,0,0,74,75,
0,0,0,0,0,0,1,2,0,0,0,0,0,0,86,75,
0,0,0,0,0,0,13,14,0,0,0,0,0,0,0,74,
0,0,0,0,0,0,1,2,0,0,0,0,0,0,0,86,
0,0,0,0,0,0,13,14,0,0,0,0,0,0,0,0,
1,2,1,2,1,2,1,2,0,0,0,0,0,0,0,0,
13,14,13,14,13,14,13,14,0,0,39,0,0,0,0,0
</chunk>
   <chunk x="0" y="16" width="16" height="16">
1,2,0,0,0,0,1,2,1,2,1,2,0,0,0,0,
13,14,0,0,0,0,13,14,13,14,13,14,0,0,0,0,
1,2,0,0,0,0,1,2,0,0,0,0,0,0,0,0,
13,14,0,0,0,0,13,14,0,0,0,0,0,0,0,0,
1,2,0,0,0,0,1,2,1,2,1,2,1,2,1,2,
13,14,0,0,0,0,13,14,13,14,13,14,13,14,13,14,
63,64,0,0,0,0,0,0,0,25,26,26,26,26,26,26,
75,76,0,0,0,0,0,0,0,37,38,0,0,29,31,32,
75,76,0,0,0,0,0,0,0,37,0,0,0,42,43,45,
75,76,0,0,0,0,0,0,0,37,0,0,0,54,56,57,
75,76,0,0,0,0,0,0,0,37,0,0,0,0,0,0,
75,75,64,0,0,0,0,0,0,37,38,0,0,0,0,0,
75,75,76,0,0,0,0,0,0,49,51,0,0,0,0,0,
86,75,75,64,0,0,0,0,0,0,0,0,0,0,0,0,
0,86,75,75,75,64,0,0,0,0,0,0,0,0,0,0,
0,0,74,75,75,75,64,0,0,0,0,0,0,0,0,0
</chunk>
   <chunk x="16" y="16" width="16" height="16">
0,0,0,0,0,0,0,0,0,0,0,0,0,0,0,0,
0,0,0,0,0,0,0,0,0,0,0,0,0,0,0,0,
0,0,0,0,0,0,0,0,0,0,0,0,0,0,0,0,
0,0,0,0,0,0,0,0,0,0,0,0,0,0,0,0,
1,2,1,2,0,0,0,0,0,0,0,0,0,0,0,0,
13,14,13,14,0,0,0,0,0,0,0,0,0,0,0,0,
26,27,1,2,0,0,0,0,0,0,0,0,0,0,0,0,
38,39,13,14,0,0,0,0,0,0,0,0,0,0,0,0,
0,39,1,2,0,0,0,0,0,0,0,0,0,0,0,0,
0,39,13,14,0,0,0,0,0,0,0,0,0,0,0,0,
38,39,1,2,0,0,0,0,0,0,0,0,0,0,0,0,
51,52,13,14,0,0,0,0,0,0,0,0,0,0,0,0,
0,0,1,2,0,0,0,0,0,0,0,0,0,0,0,0,
0,0,13,14,0,0,0,0,0,0,0,0,0,0,0,0,
0,0,1,2,0,0,0,0,1,2,1,2,1,2,1,2,
0,0,13,14,0,0,1,2,13,14,13,14,13,14,13,14
</chunk>
   <chunk x="32" y="16" width="16" height="16">
0,0,0,0,0,0,0,0,0,0,0,0,0,0,0,0,
0,0,0,0,0,0,0,0,0,0,0,0,0,0,0,0,
0,0,0,0,0,0,0,0,0,0,0,0,0,0,0,0,
0,0,0,0,0,0,0,0,0,0,0,0,0,0,0,0,
0,0,0,0,0,0,0,0,0,0,0,0,0,0,0,0,
0,0,0,0,0,0,0,0,0,0,0,0,0,0,0,0,
0,0,0,0,0,0,0,0,0,0,0,0,0,0,0,0,
0,0,0,0,0,0,0,0,0,0,0,0,0,0,0,0,
0,0,0,0,0,0,0,0,0,0,0,0,0,0,0,0,
0,0,0,0,0,0,0,0,0,0,0,0,0,0,0,0,
0,0,0,0,0,0,0,0,0,0,0,0,0,0,0,0,
0,0,0,0,0,0,0,0,0,0,0,0,0,0,0,0,
0,0,0,0,0,0,0,0,0,0,0,0,0,0,0,0,
0,0,0,0,0,0,0,0,0,0,0,0,0,0,0,0,
1,2,1,2,0,0,0,0,0,0,0,0,0,0,0,0,
13,14,13,14,1,2,0,0,0,0,0,0,0,0,0,0
</chunk>
   <chunk x="-32" y="32" width="16" height="16">
0,0,0,0,13,14,13,14,0,0,13,14,13,14,0,0,
0,0,0,0,1,2,0,0,0,0,0,0,0,0,0,0,
0,0,0,0,13,14,0,0,0,0,0,0,0,0,0,0,
0,0,0,1,2,0,0,0,0,0,0,0,0,0,0,0,
0,0,0,13,14,0,0,0,0,0,0,0,0,0,0,0,
0,0,0,1,2,0,0,0,0,0,0,0,0,0,0,0,
0,0,0,13,14,0,0,0,0,0,0,0,0,0,0,0,
0,0,0,1,2,0,0,0,0,0,0,0,0,0,0,0,
0,0,0,13,14,0,0,0,0,0,0,0,0,0,0,0,
0,0,1,2,0,0,0,0,0,0,0,0,0,0,0,0,
0,0,13,14,0,0,0,0,0,0,0,0,0,0,0,0,
0,0,1,2,0,0,0,0,0,0,0,0,0,0,0,0,
0,0,13,14,0,0,0,0,0,0,0,0,0,0,0,0,
0,0,1,2,0,0,0,0,0,0,0,0,0,0,0,0,
0,0,13,14,0,0,0,0,0,0,0,0,0,0,0,0,
0,0,1,2,0,0,0,0,0,0,0,0,0,0,0,0
</chunk>
   <chunk x="-16" y="32" width="16" height="16">
0,0,0,0,0,0,0,0,0,0,39,0,0,0,0,0,
0,0,0,0,0,0,0,0,38,38,39,0,0,0,0,0,
0,0,0,0,0,0,0,0,38,38,39,0,0,0,0,0,
0,0,0,0,0,0,0,25,51,51,52,0,0,0,0,62,
1,2,1,2,1,2,1,2,62,63,63,63,63,63,63,75,
13,14,13,14,13,14,13,14,74,75,75,75,75,75,75,75,
0,0,1,2,0,0,1,2,74,75,75,75,75,75,75,75,
0,0,13,14,0,0,13,14,74,75,75,75,75,75,75,87,
0,0,0,1,2,0,1,2,74,75,75,75,75,75,76,0,
0,0,0,13,14,0,13,14,74,75,75,75,75,87,89,25,
0,0,0,1,2,0,1,2,74,75,75,75,89,0,0,37,
0,0,0,13,14,0,13,14,74,75,75,89,0,0,0,49,
0,0,0,1,2,0,1,2,86,87,89,0,0,0,0,0,
0,0,0,13,14,0,13,14,0,0,0,0,0,0,0,0,
0,0,0,1,2,0,1,2,0,0,0,0,0,0,0,0,
0,1,2,13,14,0,13,14,0,0,0,0,0,0,0,0
</chunk>
   <chunk x="0" y="32" width="16" height="16">
0,0,74,75,75,75,75,64,0,0,0,0,0,0,0,0,
0,0,74,75,75,75,75,76,0,0,0,0,0,0,0,0,
0,62,75,75,75,75,75,75,64,0,0,0,0,0,0,0,
63,75,75,75,75,75,75,75,76,0,0,0,0,0,0,0,
75,75,75,75,75,75,75,75,76,0,0,0,0,0,0,0,
75,75,75,87,87,75,75,75,75,64,0,0,0,0,0,0,
75,87,89,0,0,86,87,75,75,76,0,0,0,0,0,0,
89,0,0,0,0,0,0,74,75,76,0,0,0,0,0,0,
0,29,31,32,0,0,0,86,75,76,0,0,0,0,0,0,
26,42,43,45,26,27,0,0,74,75,64,0,0,0,0,0,
38,54,56,57,38,39,0,0,74,75,76,0,0,0,0,0,
51,0,0,0,51,52,0,0,74,75,75,64,0,0,0,0,
0,0,0,0,0,0,0,0,74,75,75,76,0,0,0,0,
0,0,0,0,0,0,0,0,74,75,75,76,0,0,0,0,
0,0,0,0,0,0,0,0,74,75,75,76,0,0,0,0,
0,0,0,0,0,0,0,0,74,75,75,75,63,63,63,64
</chunk>
   <chunk x="16" y="32" width="16" height="16">
0,0,1,2,0,0,13,14,1,2,0,0,0,0,0,0,
0,0,13,14,0,0,1,2,13,14,0,0,0,0,0,0,
0,0,1,2,1,2,13,14,1,2,0,0,0,0,0,0,
0,0,13,14,13,14,0,0,13,14,0,0,0,0,0,0,
0,0,1,2,1,2,1,2,0,0,0,0,0,0,0,0,
0,0,13,14,13,14,13,14,0,0,0,0,0,0,0,0,
0,0,0,0,0,0,0,0,0,0,0,0,0,0,0,0,
0,0,0,0,0,0,0,0,0,0,0,0,0,0,0,0,
0,0,0,0,0,0,0,0,0,0,0,0,0,0,0,0,
0,0,0,0,0,0,0,0,0,0,0,0,0,0,0,0,
0,0,1,2,1,2,1,2,0,0,0,0,0,0,0,0,
0,0,13,14,13,14,13,14,1,2,0,0,0,0,0,0,
0,0,1,2,0,0,1,2,13,14,1,2,1,2,0,0,
0,0,13,14,1,2,13,14,1,2,13,14,13,14,0,0,
0,0,1,2,13,14,0,0,13,14,0,0,1,2,1,2,
0,0,13,14,0,0,0,0,0,1,2,0,13,14,13,14
</chunk>
   <chunk x="32" y="32" width="16" height="16">
0,0,1,2,13,14,1,2,0,0,0,0,0,0,0,0,
0,0,13,14,0,0,13,14,0,0,0,0,0,0,0,0,
0,0,1,2,1,2,1,2,0,0,0,0,0,0,0,0,
0,0,13,14,13,14,13,14,0,0,0,0,0,0,0,0,
0,0,0,0,0,0,0,0,0,0,0,0,0,0,0,0,
0,0,0,0,0,0,0,0,0,0,0,0,0,0,0,0,
0,0,0,0,0,0,0,0,0,0,0,0,0,0,0,0,
0,0,0,0,0,0,0,0,0,0,0,0,0,0,0,0,
0,0,1,2,1,2,1,2,0,0,0,0,0,0,0,0,
0,0,13,14,13,14,13,14,0,0,0,0,0,0,0,0,
0,0,1,2,0,1,2,0,0,0,0,0,0,0,0,0,
0,0,13,14,0,13,14,0,0,0,0,0,0,0,0,0,
0,0,1,2,1,2,0,0,0,0,0,0,0,0,0,0,
0,0,13,14,13,14,0,0,0,0,0,0,0,0,0,0,
1,2,0,1,2,0,0,0,0,0,0,0,0,0,0,0,
13,14,0,13,14,0,0,0,0,0,0,0,0,0,0,0
</chunk>
   <chunk x="-32" y="48" width="16" height="16">
0,0,13,14,0,0,0,0,0,0,0,0,0,0,0,1,
0,0,1,2,0,0,0,0,0,0,0,0,0,0,0,13,
0,0,13,14,1,2,0,0,0,0,0,0,0,1,2,1,
0,0,0,0,13,14,0,0,0,0,0,0,0,13,14,13,
0,0,1,2,0,0,0,0,0,0,0,0,0,1,2,0,
0,0,13,14,0,0,0,0,0,0,0,0,0,13,14,0,
0,0,0,1,2,0,0,0,0,0,0,0,0,0,1,2,
0,0,0,13,14,0,0,0,0,0,0,0,0,0,13,14,
0,0,1,2,0,0,0,0,0,0,0,0,0,1,2,0,
0,0,13,14,0,0,0,0,0,0,0,0,0,13,14,0,
0,0,0,1,2,1,2,1,2,1,2,1,2,1,2,0,
0,0,0,13,14,13,14,13,14,13,14,13,14,13,14,0,
0,0,0,0,0,0,0,0,0,0,0,0,0,0,0,0,
0,0,0,0,0,0,0,0,0,0,0,0,0,0,0,0,
0,0,0,0,0,0,0,0,0,0,0,0,0,0,0,0,
0,0,0,0,0,0,0,0,0,0,0,0,0,0,0,0
</chunk>
   <chunk x="-16" y="48" width="16" height="16">
2,13,14,0,0,0,1,2,1,2,1,2,1,2,1,2,
14,0,0,0,0,0,13,14,13,14,13,14,13,14,13,14,
2,0,0,0,0,0,0,0,0,0,0,0,0,0,0,0,
14,0,0,0,0,0,0,0,0,0,0,0,0,0,0,0,
0,0,0,0,0,0,0,0,0,0,0,0,0,0,0,0,
0,0,0,0,0,0,0,0,0,0,0,0,0,0,0,0,
0,0,0,0,0,0,0,0,0,0,0,0,0,0,0,0,
0,0,0,0,0,0,0,0,0,0,0,0,0,0,0,0,
0,0,0,0,0,0,0,0,0,0,0,0,0,0,0,0,
0,0,0,0,0,0,0,0,0,0,0,0,0,0,0,0,
0,0,0,0,0,0,0,0,0,0,0,0,0,0,0,0,
0,0,0,0,0,0,0,0,0,0,0,0,0,0,0,0,
0,0,0,0,0,0,0,0,0,0,0,0,0,0,0,0,
0,0,0,0,0,0,0,0,0,0,0,0,0,0,0,0,
0,0,0,0,0,0,0,0,0,0,0,0,0,0,0,0,
0,0,0,0,0,0,0,0,0,0,0,0,0,0,0,0
</chunk>
   <chunk x="0" y="48" width="16" height="16">
1,2,1,2,1,2,1,2,75,75,75,75,75,75,75,75,
13,14,13,14,13,14,13,14,75,75,75,75,75,75,75,75,
0,0,0,0,0,0,0,39,0,0,0,0,0,0,0,0,
0,0,0,0,0,0,0,39,0,0,0,0,0,0,0,0,
0,0,0,0,0,0,0,39,0,0,0,0,0,0,0,0,
0,0,0,0,0,0,0,39,0,0,0,0,0,0,0,0,
0,0,0,0,0,0,0,39,0,0,0,0,0,0,0,0,
0,0,0,0,0,0,38,39,0,0,0,0,0,0,0,0,
0,0,0,0,0,0,38,39,0,0,0,0,0,0,0,0,
0,0,0,0,25,26,51,52,0,0,0,0,0,0,0,0,
0,0,0,0,37,38,0,0,0,0,0,0,0,0,0,0,
0,0,0,0,37,0,0,0,0,0,0,0,0,0,0,0,
0,0,0,0,37,0,0,0,0,0,0,0,0,0,0,0,
0,0,0,0,37,38,0,0,0,0,0,0,0,0,0,0,
0,0,0,0,49,51,51,51,51,51,51,51,51,51,51,51,
0,0,0,0,0,0,0,0,0,0,0,0,0,0,0,0
</chunk>
   <chunk x="16" y="48" width="16" height="16">
1,2,1,2,0,0,0,0,0,13,14,1,2,0,0,1,
13,14,13,14,0,0,0,0,0,0,0,13,14,0,0,13,
39,0,0,0,0,0,0,0,0,0,0,0,0,0,0,0,
39,0,0,0,0,0,0,0,0,0,0,0,0,0,0,0,
39,0,0,0,0,0,0,0,0,0,0,0,0,0,0,0,
39,0,0,0,0,0,0,0,0,0,0,0,0,0,0,0,
39,0,0,0,0,0,0,0,0,0,0,0,0,0,0,0,
39,0,0,0,0,0,0,0,0,0,0,0,0,0,0,0,
37,38,0,0,0,0,0,0,0,0,0,0,0,0,0,0,
49,51,26,26,26,26,26,26,26,27,0,0,0,0,0,0,
0,0,0,0,0,0,0,0,38,39,0,0,0,0,0,0,
0,0,0,0,0,0,0,0,0,39,0,0,0,0,0,0,
0,0,0,0,0,0,0,0,0,39,0,0,0,0,0,0,
0,0,0,0,0,0,0,0,0,39,0,0,0,0,0,0,
51,51,51,51,27,0,0,0,0,39,0,0,0,0,0,0,
0,0,0,38,39,0,0,0,0,39,0,0,0,0,0,0
</chunk>
   <chunk x="32" y="48" width="16" height="16">
2,1,2,0,0,0,0,0,0,0,0,0,0,0,0,0,
14,13,14,0,0,0,0,0,0,0,0,0,0,0,0,0,
0,0,0,0,0,0,0,0,0,0,0,0,0,0,0,0,
0,0,0,0,0,0,0,0,0,0,0,0,0,0,0,0,
0,0,0,0,0,0,0,0,0,0,0,0,0,0,0,0,
0,0,0,0,0,0,0,0,0,0,0,0,0,0,0,0,
0,0,0,0,0,0,0,0,0,0,0,0,0,0,0,0,
0,0,0,0,0,0,0,0,0,0,0,0,0,0,0,0,
0,0,0,0,0,0,0,0,0,0,0,0,0,0,0,0,
0,0,0,0,0,0,0,0,0,0,0,0,0,0,0,0,
0,0,0,0,0,0,0,0,0,0,0,0,0,0,0,0,
0,0,0,0,0,0,0,0,0,0,0,0,0,0,0,0,
0,0,0,0,0,0,0,0,0,0,0,0,0,0,0,0,
0,0,0,0,0,0,0,0,0,0,0,0,0,0,0,0,
0,0,0,0,0,0,0,0,0,0,0,0,0,0,0,0,
0,0,0,0,0,0,0,0,0,0,0,0,0,0,0,0
</chunk>
   <chunk x="0" y="64" width="16" height="16">
0,0,0,0,0,0,0,0,0,0,0,0,0,0,0,0,
0,25,26,26,26,26,26,26,26,27,0,25,26,26,51,51,
0,37,38,38,38,38,38,1,2,39,0,37,38,0,0,0,
0,37,0,0,29,31,32,13,14,37,38,39,0,0,0,0,
0,37,0,0,42,43,45,0,0,49,51,52,0,0,0,0,
0,37,0,0,54,56,57,1,2,0,0,0,0,0,0,25,
0,37,0,0,0,0,0,13,14,0,0,0,0,0,0,37,
0,37,0,0,0,0,0,0,0,0,0,0,0,0,0,37,
0,37,0,0,0,0,0,0,0,0,0,0,0,0,25,37,
0,37,0,0,0,0,0,0,0,0,0,0,0,38,39,37,
0,37,0,0,0,0,0,0,0,0,0,25,26,51,52,49,
0,37,0,0,0,0,0,0,0,0,0,37,38,0,0,0,
0,37,0,0,0,0,0,0,0,0,0,37,0,0,0,0,
0,37,0,0,0,0,0,0,0,0,0,37,0,0,0,0,
0,37,0,0,0,0,0,0,0,0,0,37,0,0,0,0,
0,37,0,0,0,0,0,0,0,0,0,37,0,0,0,0
</chunk>
   <chunk x="16" y="64" width="16" height="16">
0,0,0,38,39,0,0,0,0,39,0,0,0,0,0,0,
51,51,51,51,52,0,0,0,0,39,0,0,0,0,0,0,
0,0,0,0,0,0,0,0,0,39,0,0,0,0,0,0,
0,0,0,0,0,0,0,0,0,39,0,0,0,0,0,0,
0,0,0,0,0,0,0,0,0,39,0,0,0,0,0,0,
26,26,26,26,27,0,0,0,0,39,0,0,0,0,0,0,
38,0,0,38,39,38,38,38,38,39,0,0,0,0,0,0,
0,0,0,0,49,51,51,51,51,52,0,0,0,0,0,0,
0,0,0,0,0,0,0,0,0,0,0,0,0,0,0,0,
38,0,0,0,0,0,0,0,0,0,0,0,0,0,0,0,
51,26,26,26,26,26,26,27,0,0,0,0,0,0,0,0,
0,0,0,0,0,0,38,39,0,0,0,0,0,0,0,0,
0,0,0,0,0,0,0,49,51,27,0,0,0,0,0,0,
0,0,0,0,0,0,0,0,38,39,0,0,0,0,0,0,
25,26,27,0,0,0,0,0,0,39,0,0,0,0,0,0,
37,38,39,0,0,0,0,0,0,39,0,0,0,0,0,0
</chunk>
   <chunk x="0" y="80" width="16" height="16">
0,37,0,0,0,0,0,0,0,0,0,49,27,0,0,0,
0,37,0,0,0,0,0,0,0,0,38,38,39,0,0,0,
0,37,0,0,0,0,0,0,25,26,51,27,52,0,0,0,
0,37,0,0,0,0,0,0,37,38,0,39,0,0,0,0,
0,37,0,0,0,0,0,0,37,38,0,39,0,0,0,0,
0,37,0,0,0,0,0,0,37,38,38,39,0,0,0,0,
0,37,0,0,0,0,0,0,49,51,51,52,0,0,0,0,
0,37,0,0,0,0,0,0,0,0,0,0,0,0,0,0,
0,37,0,0,0,0,0,0,0,0,0,0,0,0,0,0,
0,37,0,0,0,0,0,0,0,0,0,0,0,0,0,0,
0,37,0,0,0,0,0,0,0,0,0,0,0,0,0,0,
0,49,51,0,0,0,0,0,0,0,0,0,0,0,0,39,
0,0,49,51,51,51,51,51,51,51,51,51,51,51,51,52,
0,0,0,0,0,0,0,0,0,0,0,0,0,0,0,0,
0,0,0,0,25,26,26,26,26,26,26,26,26,26,26,26,
0,0,0,0,37,38,0,0,0,0,0,0,0,0,0,0
</chunk>
   <chunk x="16" y="80" width="16" height="16">
37,0,49,26,27,0,0,0,0,39,0,0,0,0,0,0,
37,0,0,0,39,0,0,0,0,39,0,0,0,0,0,0,
37,0,0,0,39,0,0,0,0,39,0,0,0,0,0,0,
37,0,0,0,39,0,0,0,0,39,0,0,0,0,0,0,
37,0,0,0,39,0,0,0,0,39,0,0,0,0,0,0,
37,0,0,0,39,0,0,0,0,39,0,0,0,0,0,0,
37,0,0,0,39,0,0,0,0,39,0,0,0,0,0,0,
37,0,0,0,39,0,0,0,0,39,0,0,0,0,0,0,
37,0,0,0,39,0,0,0,0,39,0,0,0,0,0,0,
37,0,0,0,39,0,0,0,0,39,0,0,0,0,0,0,
39,0,0,0,39,0,0,0,0,39,0,0,0,0,0,0,
52,0,0,0,39,0,0,0,0,39,0,0,0,0,0,0,
0,0,0,0,39,0,0,0,0,39,0,0,0,0,0,0,
0,0,0,38,39,0,0,0,0,39,0,0,0,0,0,0,
26,26,51,51,52,0,0,0,0,39,0,0,0,0,0,0,
0,0,0,0,0,0,0,0,0,39,0,0,0,0,0,0
</chunk>
   <chunk x="0" y="96" width="16" height="16">
0,0,0,0,37,0,0,0,0,0,0,0,0,0,0,0,
0,0,0,0,37,0,0,0,1,2,0,0,0,0,0,0,
0,0,0,0,37,0,0,0,13,14,0,0,34,35,0,0,
0,0,0,0,37,0,0,0,0,0,0,0,46,47,0,0,
0,0,0,0,37,0,0,0,0,0,0,0,58,59,0,0,
0,0,0,0,37,0,0,0,0,0,0,0,0,0,0,0,
0,0,0,0,37,0,0,0,0,0,0,0,0,0,0,0,
0,0,0,0,37,0,0,0,0,0,0,0,0,0,0,0,
0,0,0,0,37,38,0,0,0,0,0,0,0,0,0,0,
0,0,0,0,49,51,51,51,51,51,51,51,51,51,51,51,
0,0,0,0,0,0,0,0,0,0,0,0,0,0,0,0,
0,0,0,0,0,0,0,0,0,0,0,0,0,0,0,0,
0,0,0,0,0,0,0,0,0,0,0,0,0,0,0,0,
0,0,0,0,0,0,0,0,0,0,0,0,0,0,0,0,
0,0,0,0,0,0,0,0,0,0,0,0,0,0,0,0,
0,0,0,0,0,0,0,0,0,0,0,0,0,0,0,0
</chunk>
   <chunk x="16" y="96" width="16" height="16">
0,0,0,0,0,0,0,0,0,39,0,0,0,0,0,0,
1,2,0,0,0,0,0,0,0,39,0,0,0,0,0,0,
13,14,0,0,0,0,0,0,0,39,0,0,0,0,0,0,
0,0,0,0,0,0,0,0,0,39,0,0,0,0,0,0,
0,0,0,0,0,0,0,0,0,39,0,0,0,0,0,0,
0,0,0,0,0,0,0,0,0,39,0,0,0,0,0,0,
0,0,0,0,0,0,0,0,0,39,0,0,0,0,0,0,
0,0,0,0,0,0,0,0,0,39,0,0,0,0,0,0,
0,0,0,0,0,0,0,0,38,39,0,0,0,0,0,0,
51,51,51,51,51,51,51,51,51,52,0,0,0,0,0,0,
0,0,0,0,0,0,0,0,0,0,0,0,0,0,0,0,
0,0,0,0,0,0,0,0,0,0,0,0,0,0,0,0,
0,0,0,0,0,0,0,0,0,0,0,0,0,0,0,0,
0,0,0,0,0,0,0,0,0,0,0,0,0,0,0,0,
0,0,0,0,0,0,0,0,0,0,0,0,0,0,0,0,
0,0,0,0,0,0,0,0,0,0,0,0,0,0,0,0
</chunk>
  </data>
 </layer>
 <group id="4" name="town_1">
  <layer id="5" name="bottom_layer" width="40" height="60">
   <data encoding="csv">
    <chunk x="-80" y="-80" width="16" height="16">
0,0,0,0,0,0,0,0,0,0,0,0,0,0,0,0,
0,0,0,0,0,0,0,0,0,0,0,0,0,0,0,0,
0,0,0,0,0,0,0,0,0,0,0,0,0,0,0,0,
0,0,0,0,0,0,0,0,0,0,0,0,0,0,0,0,
0,0,0,0,0,0,0,0,0,0,0,0,0,0,0,0,
0,0,0,0,0,0,0,0,0,0,0,0,0,0,0,0,
0,0,0,0,0,0,0,0,0,0,0,0,0,0,0,0,
0,0,0,0,0,0,0,0,0,0,0,0,0,0,0,0,
0,0,0,0,0,0,0,0,0,0,0,0,0,0,0,0,
0,0,0,0,0,0,0,0,0,0,0,0,0,0,0,0,
0,0,0,0,0,0,0,0,0,0,0,0,0,0,0,0,
0,0,0,0,0,0,0,0,0,0,0,0,0,0,0,0,
0,0,0,0,0,0,0,0,0,0,0,0,0,0,0,0,
0,0,0,0,0,0,0,0,0,0,0,0,0,0,0,0,
0,0,0,0,0,0,0,0,0,0,0,0,0,0,77,77,
0,0,0,0,0,0,0,0,0,0,0,0,0,0,77,77
</chunk>
    <chunk x="-64" y="-80" width="16" height="16">
0,0,0,0,0,0,0,0,0,0,0,0,0,0,0,0,
0,0,0,0,0,0,0,0,0,0,0,0,0,0,0,0,
0,0,0,0,0,0,0,0,0,0,0,0,0,0,0,0,
0,0,0,0,0,0,0,0,0,0,0,0,0,0,0,0,
0,0,0,0,0,0,0,0,0,0,0,0,0,0,0,0,
0,0,0,0,0,0,0,0,0,0,0,0,0,0,0,0,
0,0,0,0,0,0,0,0,0,0,0,0,0,0,0,0,
0,0,0,0,0,0,0,0,0,0,0,0,0,0,0,0,
0,0,0,0,0,0,0,0,0,0,0,0,0,0,0,0,
0,0,0,0,0,0,0,0,0,0,0,0,0,0,0,0,
0,0,0,0,0,0,0,0,0,0,0,0,0,0,0,0,
0,0,0,0,0,0,0,0,0,0,0,0,0,0,0,0,
0,0,0,0,0,0,0,0,0,0,0,0,0,0,0,0,
0,0,0,0,0,0,0,0,0,0,0,0,0,0,0,0,
77,77,77,77,77,77,76,77,77,77,77,77,77,77,77,77,
77,77,77,77,77,77,76,76,76,77,77,77,77,77,77,77
</chunk>
    <chunk x="-48" y="-80" width="16" height="16">
0,0,0,0,0,0,0,0,0,0,0,0,0,0,0,0,
0,0,0,0,0,0,0,0,0,0,0,0,0,0,0,0,
0,0,0,0,0,0,0,0,0,0,0,0,0,0,0,0,
0,0,0,0,0,0,0,0,0,0,0,0,0,0,0,0,
0,0,0,0,0,0,0,0,0,0,0,0,0,0,0,0,
0,0,0,0,0,0,0,0,0,0,0,0,0,0,0,0,
0,0,0,0,0,0,0,0,0,0,0,0,0,0,0,0,
0,0,0,0,0,0,0,0,0,0,0,0,0,0,0,0,
0,0,0,0,0,0,0,0,0,0,0,0,0,0,0,0,
0,0,0,0,0,0,0,0,0,0,0,0,0,0,0,0,
0,0,0,0,0,0,0,0,0,0,0,0,0,0,0,0,
0,0,0,0,0,0,0,0,0,0,0,0,0,0,0,0,
0,0,0,0,0,0,0,0,0,0,0,0,0,0,0,0,
0,0,0,0,0,0,0,0,0,0,0,0,0,0,0,0,
77,77,77,77,77,77,77,77,77,77,77,77,77,77,0,0,
77,77,77,77,77,77,77,77,77,77,77,77,77,77,0,0
</chunk>
    <chunk x="-80" y="-64" width="16" height="16">
0,0,0,0,0,0,0,0,0,0,0,0,0,0,77,77,
0,0,0,0,0,0,0,0,0,0,0,0,0,0,77,77,
0,0,0,0,0,0,0,0,0,0,0,0,0,0,77,77,
0,0,0,0,0,0,0,0,0,0,0,0,0,0,77,77,
0,0,0,0,0,0,0,0,0,0,0,0,0,0,77,77,
0,0,0,0,0,0,0,0,0,0,0,0,0,0,77,77,
0,0,0,0,0,0,0,0,0,0,0,0,0,0,77,77,
0,0,0,0,0,0,0,0,0,0,0,0,0,0,77,77,
0,0,0,0,0,0,0,0,0,0,0,0,0,0,77,77,
0,0,0,0,0,0,0,0,0,0,0,0,0,0,77,77,
0,0,0,0,0,0,0,0,0,0,0,0,0,0,77,77,
0,0,0,0,0,0,0,0,0,0,0,0,0,0,77,77,
0,0,0,0,0,0,0,0,0,0,0,0,0,0,77,77,
0,0,0,0,0,0,0,0,0,0,0,0,0,0,77,77,
0,0,0,0,0,0,0,0,0,0,0,0,0,0,77,77,
0,0,0,0,0,0,0,0,0,0,0,0,0,0,77,77
</chunk>
    <chunk x="-64" y="-64" width="16" height="16">
77,77,77,77,77,77,77,77,76,76,77,77,77,77,77,77,
77,77,77,77,77,77,77,77,77,76,76,76,76,77,77,77,
77,77,77,77,77,77,77,77,77,77,77,77,77,77,77,77,
77,77,77,77,77,77,77,77,76,76,77,77,77,77,77,77,
77,77,77,77,77,77,76,76,57,58,76,76,76,76,76,76,
77,77,77,77,77,77,76,76,67,68,76,76,76,76,76,76,
77,77,77,77,77,77,76,76,77,76,76,76,76,76,76,76,
77,77,77,77,77,77,76,76,77,77,76,76,76,76,76,76,
77,77,77,77,77,77,76,76,77,77,76,76,76,76,76,76,
77,77,77,77,77,77,76,76,77,76,76,76,76,76,76,76,
77,77,77,77,77,77,76,76,77,77,77,76,77,77,77,77,
77,77,77,77,77,77,76,76,76,76,76,76,76,76,77,76,
77,77,77,77,77,77,76,76,77,77,77,76,77,77,77,77,
77,77,77,77,77,77,76,77,77,76,76,76,76,77,77,77,
77,77,77,77,77,77,76,77,77,76,76,76,76,77,77,76,
77,77,77,77,77,77,76,77,77,77,76,77,77,77,77,77
</chunk>
    <chunk x="-48" y="-64" width="16" height="16">
77,77,77,77,77,77,77,77,77,77,77,77,77,77,0,0,
77,77,77,77,77,77,77,77,77,77,77,77,77,77,0,0,
77,77,77,77,77,77,77,77,77,77,77,77,77,77,0,0,
77,77,77,77,77,77,77,77,77,77,77,77,77,77,0,0,
76,76,76,76,76,76,76,77,77,77,77,77,77,77,0,0,
76,76,76,76,76,76,76,77,77,77,77,77,77,77,0,0,
76,76,76,76,76,76,76,77,77,77,77,77,77,77,0,0,
76,76,76,76,76,76,76,77,77,77,77,77,77,77,0,0,
76,76,76,76,76,76,76,77,77,77,77,77,77,77,0,0,
76,76,76,76,76,76,76,77,77,77,77,77,77,77,0,0,
77,77,77,76,76,76,76,77,77,77,77,77,77,77,0,0,
76,76,76,76,76,76,76,77,77,77,77,77,77,77,0,0,
76,76,76,76,76,76,76,77,77,77,77,77,77,77,0,0,
76,76,76,76,76,76,76,77,77,77,77,77,77,77,0,0,
76,76,76,76,76,76,76,77,77,77,77,77,77,77,0,0,
76,76,76,76,76,76,76,77,77,77,77,77,77,77,0,0
</chunk>
    <chunk x="-80" y="-48" width="16" height="16">
0,0,0,0,0,0,0,0,0,0,0,0,0,0,77,77,
0,0,0,0,0,0,0,0,0,0,0,0,0,0,77,77,
0,0,0,0,0,0,0,0,0,0,0,0,0,0,77,77,
0,0,0,0,0,0,0,0,0,0,0,0,0,0,77,77,
0,0,0,0,0,0,0,0,0,0,0,0,0,0,77,77,
0,0,0,0,0,0,0,0,0,0,0,0,0,0,77,77,
0,0,0,0,0,0,0,0,0,0,0,0,0,0,77,77,
0,0,0,0,0,0,0,0,0,0,0,0,0,0,77,77,
0,0,0,0,0,0,0,0,0,0,0,0,0,0,77,77,
0,0,0,0,0,0,0,0,0,0,0,0,0,0,77,77,
0,0,0,0,0,0,0,0,0,0,0,0,0,0,77,77,
0,0,0,0,0,0,0,0,0,0,0,0,0,0,77,77,
0,0,0,0,0,0,0,0,0,0,0,0,0,0,77,77,
0,0,0,0,0,0,0,0,0,0,0,0,0,0,77,77,
0,0,0,0,0,0,0,0,0,0,0,0,0,0,0,0,
0,0,0,0,0,0,0,0,0,0,0,0,0,0,0,0
</chunk>
    <chunk x="-64" y="-48" width="16" height="16">
77,77,77,77,77,77,76,76,76,76,77,77,76,76,77,77,
77,77,77,77,77,77,76,76,77,77,77,76,76,76,76,76,
77,77,77,77,77,77,76,76,77,77,77,76,76,76,76,76,
77,77,77,77,77,77,76,76,77,77,77,76,76,76,76,76,
77,77,77,77,77,77,76,76,76,76,76,76,76,76,76,76,
77,77,77,77,77,77,76,76,76,76,76,76,76,76,76,76,
77,77,77,77,77,77,76,76,76,76,76,76,76,76,76,76,
77,77,77,77,77,77,76,76,76,76,76,76,76,76,76,76,
77,77,77,77,77,77,77,77,77,77,77,77,77,77,77,77,
77,77,77,77,77,77,77,77,77,77,77,77,77,77,77,77,
77,77,77,77,77,77,77,77,77,77,77,77,77,77,77,77,
77,77,77,77,77,77,77,77,77,77,77,77,77,77,77,77,
77,77,77,77,77,77,77,77,77,77,77,77,77,77,77,77,
77,77,77,77,77,77,77,77,77,77,77,77,77,77,77,77,
0,0,0,0,0,0,0,0,0,0,0,0,0,0,0,0,
0,0,0,0,0,0,0,0,0,0,0,0,0,0,0,0
</chunk>
    <chunk x="-48" y="-48" width="16" height="16">
77,77,77,77,76,76,76,77,77,77,77,77,77,77,0,0,
76,76,76,77,76,76,76,77,77,77,77,77,77,77,0,0,
76,76,76,77,76,76,76,77,77,77,77,77,77,77,0,0,
76,76,76,77,76,76,76,77,77,77,77,77,77,77,0,0,
76,76,76,77,76,76,76,77,77,77,77,77,77,77,0,0,
76,76,76,77,76,76,76,77,77,77,77,77,77,77,0,0,
76,76,76,57,58,76,76,77,77,77,77,77,77,77,0,0,
76,76,76,67,68,76,76,77,77,77,77,77,77,77,0,0,
77,77,77,77,76,77,77,77,77,77,77,77,77,77,0,0,
77,77,76,77,77,77,77,77,77,77,77,77,77,77,0,0,
77,77,76,76,77,77,77,77,77,77,77,77,77,77,0,0,
77,77,77,77,76,77,77,77,77,77,77,77,77,77,0,0,
77,77,76,76,77,77,77,77,77,77,77,77,77,77,0,0,
77,77,77,76,77,77,77,77,77,77,77,77,77,77,0,0,
0,0,0,0,0,0,0,0,0,0,0,0,0,0,0,0,
0,0,0,0,0,0,0,0,0,0,0,0,0,0,0,0
</chunk>
   </data>
  </layer>
  <layer id="3" name="top_layer" width="40" height="60">
   <data encoding="csv">
    <chunk x="-80" y="-80" width="16" height="16">
0,0,0,0,0,0,0,0,0,0,0,0,0,0,0,0,
0,0,0,0,0,0,0,0,0,0,0,0,0,0,0,0,
0,0,0,0,0,0,0,0,0,0,0,0,0,0,0,0,
0,0,0,0,0,0,0,0,0,0,0,0,0,0,0,0,
0,0,0,0,0,0,0,0,0,0,0,0,0,0,0,0,
0,0,0,0,0,0,0,0,0,0,0,0,0,0,0,0,
0,0,0,0,0,0,0,0,0,0,0,0,0,0,0,0,
0,0,0,0,0,0,0,0,0,0,0,0,0,0,0,0,
0,0,0,0,0,0,0,0,0,0,0,0,0,0,0,0,
0,0,0,0,0,0,0,0,0,0,0,0,0,0,0,0,
0,0,0,0,0,0,0,0,0,0,0,0,0,0,0,0,
0,0,0,0,0,0,0,0,0,0,0,0,0,0,0,0,
0,0,0,0,0,0,0,0,0,0,0,0,0,0,0,0,
0,0,0,0,0,0,0,0,0,0,0,0,0,0,0,0,
0,0,0,0,0,0,0,0,0,0,0,0,0,0,122,123,
0,0,0,0,0,0,0,0,0,0,0,0,0,0,132,133
</chunk>
    <chunk x="-64" y="-80" width="16" height="16">
0,0,0,0,0,0,0,0,0,0,0,0,0,0,0,0,
0,0,0,0,0,0,0,0,0,0,0,0,0,0,0,0,
0,0,0,0,0,0,0,0,0,0,0,0,0,0,0,0,
0,0,0,0,0,0,0,0,0,0,0,0,0,0,0,0,
0,0,0,0,0,0,0,0,0,0,0,0,0,0,0,0,
0,0,0,0,0,0,0,0,0,0,0,0,0,0,0,0,
0,0,0,0,0,0,0,0,0,0,0,0,0,0,0,0,
0,0,0,0,0,0,0,0,0,0,0,0,0,0,0,0,
0,0,0,0,0,0,0,0,0,0,0,0,0,0,0,0,
0,0,0,0,0,0,0,0,0,0,0,0,0,0,0,0,
0,0,0,0,0,0,0,0,0,0,0,0,0,0,0,0,
0,0,0,0,0,0,0,0,0,0,0,0,0,0,0,0,
0,0,0,0,0,0,0,0,0,0,0,0,0,0,0,0,
0,0,0,0,0,0,0,0,0,0,0,0,0,0,0,0,
124,125,122,123,124,125,115,0,0,0,0,112,124,125,122,123,
134,135,132,133,134,135,125,126,0,0,121,122,134,135,132,133
</chunk>
    <chunk x="-48" y="-80" width="16" height="16">
0,0,0,0,0,0,0,0,0,0,0,0,0,0,0,0,
0,0,0,0,0,0,0,0,0,0,0,0,0,0,0,0,
0,0,0,0,0,0,0,0,0,0,0,0,0,0,0,0,
0,0,0,0,0,0,0,0,0,0,0,0,0,0,0,0,
0,0,0,0,0,0,0,0,0,0,0,0,0,0,0,0,
0,0,0,0,0,0,0,0,0,0,0,0,0,0,0,0,
0,0,0,0,0,0,0,0,0,0,0,0,0,0,0,0,
0,0,0,0,0,0,0,0,0,0,0,0,0,0,0,0,
0,0,0,0,0,0,0,0,0,0,0,0,0,0,0,0,
0,0,0,0,0,0,0,0,0,0,0,0,0,0,0,0,
0,0,0,0,0,0,0,0,0,0,0,0,0,0,0,0,
0,0,0,0,0,0,0,0,0,0,0,0,0,0,0,0,
0,0,0,0,0,0,0,0,0,0,0,0,0,0,0,0,
0,0,0,0,0,0,0,0,0,0,0,0,0,0,0,0,
124,125,122,123,124,125,122,123,124,125,122,123,124,125,0,0,
134,135,132,133,134,135,132,133,134,135,132,133,134,135,0,0
</chunk>
    <chunk x="-80" y="-64" width="16" height="16">
0,0,0,0,0,0,0,0,0,0,0,0,0,0,142,143,
0,0,0,0,0,0,0,0,0,0,0,0,0,0,152,153,
0,0,0,0,0,0,0,0,0,0,0,0,0,0,122,123,
0,0,0,0,0,0,0,0,0,0,0,0,0,0,132,133,
0,0,0,0,0,0,0,0,0,0,0,0,0,0,142,143,
0,0,0,0,0,0,0,0,0,0,0,0,0,0,152,153,
0,0,0,0,0,0,0,0,0,0,0,0,0,0,122,123,
0,0,0,0,0,0,0,0,0,0,0,0,0,0,132,133,
0,0,0,0,0,0,0,0,0,0,0,0,0,0,122,123,
0,0,0,0,0,0,0,0,0,0,0,0,0,0,132,133,
0,0,0,0,0,0,0,0,0,0,0,0,0,0,142,143,
0,0,0,0,0,0,0,0,0,0,0,0,0,0,152,153,
0,0,0,0,0,0,0,0,0,0,0,0,0,0,122,123,
0,0,0,0,0,0,0,0,0,0,0,0,0,0,132,133,
0,0,0,0,0,0,0,0,0,0,0,0,0,0,142,143,
0,0,0,0,0,0,0,0,0,0,0,0,0,0,152,153
</chunk>
    <chunk x="-64" y="-64" width="16" height="16">
144,145,142,143,144,145,142,136,0,0,131,143,144,145,142,143,
154,155,152,153,154,155,152,146,0,0,121,153,154,155,152,153,
124,125,122,123,124,125,122,156,0,0,131,132,133,134,142,143,
134,135,132,133,134,135,132,146,0,0,141,142,143,144,152,153,
144,145,142,143,144,145,142,156,57,58,151,152,153,154,155,156,
154,155,152,153,154,155,152,126,67,68,0,162,163,164,165,0,
124,125,122,123,124,125,122,136,0,0,1,2,28,29,30,0,
134,135,132,133,134,135,132,146,0,0,11,12,18,19,20,0,
124,125,122,123,124,125,155,156,0,0,3,0,48,49,50,0,
134,135,132,133,134,135,165,0,0,0,13,0,0,67,0,0,
144,145,142,143,144,145,146,0,0,0,0,59,0,0,0,0,
154,155,152,153,154,155,156,0,0,0,0,0,0,0,0,77,
124,125,122,123,124,125,146,0,0,0,0,0,0,0,0,77,
134,135,132,133,134,135,156,0,0,0,0,0,0,0,0,77,
144,145,142,143,144,145,126,0,0,0,127,128,129,130,0,77,
154,155,152,153,154,155,136,0,0,0,137,138,139,140,0,77
</chunk>
    <chunk x="-48" y="-64" width="16" height="16">
144,145,142,143,122,123,124,125,122,145,142,143,144,145,0,0,
154,155,152,153,132,133,134,135,132,155,152,153,154,155,0,0,
144,145,133,134,142,143,144,145,142,125,122,123,124,125,0,0,
154,155,143,144,152,153,154,155,152,135,132,133,134,135,0,0,
151,152,153,154,122,123,124,125,122,145,142,143,144,145,0,0,
0,162,163,164,132,133,134,135,132,155,152,153,154,155,0,0,
55,28,29,30,151,152,122,123,124,125,122,123,124,125,0,0,
0,8,9,10,0,162,132,133,134,135,132,133,134,135,0,0,
0,48,49,50,0,121,122,143,144,145,142,143,144,145,0,0,
0,0,68,0,0,131,132,153,154,155,152,153,154,155,0,0,
0,0,0,69,0,141,142,123,124,125,122,123,124,125,0,0,
0,0,0,0,0,151,152,133,134,135,132,133,134,135,0,0,
0,3,25,26,27,121,142,143,144,145,142,143,144,145,0,0,
0,13,35,36,37,131,152,153,154,155,152,153,154,155,0,0,
0,0,45,46,47,121,122,123,124,125,122,123,124,125,0,0,
0,0,0,58,0,131,132,133,134,135,132,133,134,135,0,0
</chunk>
    <chunk x="-80" y="-48" width="16" height="16">
0,0,0,0,0,0,0,0,0,0,0,0,0,0,122,123,
0,0,0,0,0,0,0,0,0,0,0,0,0,0,132,133,
0,0,0,0,0,0,0,0,0,0,0,0,0,0,142,143,
0,0,0,0,0,0,0,0,0,0,0,0,0,0,152,153,
0,0,0,0,0,0,0,0,0,0,0,0,0,0,122,123,
0,0,0,0,0,0,0,0,0,0,0,0,0,0,132,133,
0,0,0,0,0,0,0,0,0,0,0,0,0,0,122,123,
0,0,0,0,0,0,0,0,0,0,0,0,0,0,132,133,
0,0,0,0,0,0,0,0,0,0,0,0,0,0,142,143,
0,0,0,0,0,0,0,0,0,0,0,0,0,0,152,153,
0,0,0,0,0,0,0,0,0,0,0,0,0,0,122,123,
0,0,0,0,0,0,0,0,0,0,0,0,0,0,132,133,
0,0,0,0,0,0,0,0,0,0,0,0,0,0,142,143,
0,0,0,0,0,0,0,0,0,0,0,0,0,0,152,153,
0,0,0,0,0,0,0,0,0,0,0,0,0,0,0,0,
0,0,0,0,0,0,0,0,0,0,0,0,0,0,0,0
</chunk>
    <chunk x="-64" y="-48" width="16" height="16">
124,125,122,123,124,125,146,0,86,87,38,39,39,40,65,0,
134,135,132,133,134,135,156,0,96,97,48,54,49,50,0,77,
144,145,142,143,144,145,126,0,0,0,0,77,77,77,77,77,
154,155,152,153,154,155,136,0,0,0,0,77,77,77,0,0,
124,125,122,123,124,125,115,0,0,0,0,0,59,0,57,76,
134,135,132,133,134,135,125,126,112,113,114,115,112,113,114,115,
124,125,122,123,124,125,122,123,124,125,122,123,124,125,122,123,
134,135,132,133,134,135,132,133,134,135,132,133,134,135,132,133,
144,145,142,143,144,145,142,143,144,145,142,143,144,145,142,143,
154,155,152,153,154,155,152,153,154,155,152,153,154,155,152,153,
124,125,122,123,124,125,122,123,124,125,122,123,124,125,122,123,
134,135,132,133,134,135,132,133,134,135,132,133,134,135,132,133,
144,145,142,143,144,145,142,143,144,145,142,143,144,145,142,143,
154,155,152,153,154,155,152,153,154,155,152,153,154,155,152,153,
0,0,0,0,0,0,0,0,0,0,0,0,0,0,0,0,
0,0,0,0,0,0,0,0,0,0,0,0,0,0,0,0
</chunk>
    <chunk x="-48" y="-48" width="16" height="16">
0,0,0,0,0,141,142,143,144,145,142,143,144,145,0,0,
77,77,0,0,0,151,152,153,154,155,152,153,154,155,0,0,
77,0,0,0,0,141,122,123,124,125,122,123,124,125,0,0,
109,110,0,0,14,151,132,133,134,135,132,133,134,135,0,0,
119,120,0,0,0,121,142,143,144,145,142,143,144,145,0,0,
114,115,0,0,0,131,152,153,154,155,152,153,154,155,0,0,
124,125,126,58,0,121,122,123,124,125,122,123,124,125,0,0,
134,135,136,68,0,131,132,133,134,135,132,133,134,135,0,0,
144,145,146,0,0,141,142,143,144,145,142,143,144,145,0,0,
154,155,156,0,0,151,152,153,154,155,152,153,154,155,0,0,
124,125,126,0,0,121,122,123,124,125,122,123,124,125,0,0,
134,135,136,0,0,131,132,133,134,135,132,133,134,135,0,0,
144,145,146,0,0,141,142,143,144,145,142,143,144,145,0,0,
154,155,156,0,0,151,152,153,154,155,152,153,154,155,0,0,
0,0,0,0,0,0,0,0,0,0,0,0,0,0,0,0,
0,0,0,0,0,0,0,0,0,0,0,0,0,0,0,0
</chunk>
   </data>
  </layer>
  <layer id="13" name="blocker_layer" width="40" height="60" visible="0">
   <data encoding="csv">
    <chunk x="-80" y="-80" width="16" height="16">
0,0,0,0,0,0,0,0,0,0,0,0,0,0,0,0,
0,0,0,0,0,0,0,0,0,0,0,0,0,0,0,0,
0,0,0,0,0,0,0,0,0,0,0,0,0,0,0,0,
0,0,0,0,0,0,0,0,0,0,0,0,0,0,0,0,
0,0,0,0,0,0,0,0,0,0,0,0,0,0,0,0,
0,0,0,0,0,0,0,0,0,0,0,0,0,0,0,0,
0,0,0,0,0,0,0,0,0,0,0,0,0,0,0,0,
0,0,0,0,0,0,0,0,0,0,0,0,0,0,0,0,
0,0,0,0,0,0,0,0,0,0,0,0,0,0,0,0,
0,0,0,0,0,0,0,0,0,0,0,0,0,0,0,0,
0,0,0,0,0,0,0,0,0,0,0,0,0,0,0,0,
0,0,0,0,0,0,0,0,0,0,0,0,0,0,0,0,
0,0,0,0,0,0,0,0,0,0,0,0,0,0,0,0,
0,0,0,0,0,0,0,0,0,0,0,0,0,0,0,0,
0,0,0,0,0,0,0,0,0,0,0,0,0,0,7,7,
0,0,0,0,0,0,0,0,0,0,0,0,0,0,7,7
</chunk>
    <chunk x="-64" y="-80" width="16" height="16">
0,0,0,0,0,0,0,0,0,0,0,0,0,0,0,0,
0,0,0,0,0,0,0,0,0,0,0,0,0,0,0,0,
0,0,0,0,0,0,0,0,0,0,0,0,0,0,0,0,
0,0,0,0,0,0,0,0,0,0,0,0,0,0,0,0,
0,0,0,0,0,0,0,0,0,0,0,0,0,0,0,0,
0,0,0,0,0,0,0,0,0,0,0,0,0,0,0,0,
0,0,0,0,0,0,0,0,0,0,0,0,0,0,0,0,
0,0,0,0,0,0,0,0,0,0,0,0,0,0,0,0,
0,0,0,0,0,0,0,0,0,0,0,0,0,0,0,0,
0,0,0,0,0,0,0,0,0,0,0,0,0,0,0,0,
0,0,0,0,0,0,0,0,0,0,0,0,0,0,0,0,
0,0,0,0,0,0,0,0,0,0,0,0,0,0,0,0,
0,0,0,0,0,0,0,0,0,0,0,0,0,0,0,0,
0,0,0,0,0,0,0,0,0,0,0,0,0,0,0,0,
7,7,7,7,7,7,7,7,0,0,7,7,7,7,7,7,
7,7,7,7,7,7,7,7,0,0,7,7,7,7,7,7
</chunk>
    <chunk x="-48" y="-80" width="16" height="16">
0,0,0,0,0,0,0,0,0,0,0,0,0,0,0,0,
0,0,0,0,0,0,0,0,0,0,0,0,0,0,0,0,
0,0,0,0,0,0,0,0,0,0,0,0,0,0,0,0,
0,0,0,0,0,0,0,0,0,0,0,0,0,0,0,0,
0,0,0,0,0,0,0,0,0,0,0,0,0,0,0,0,
0,0,0,0,0,0,0,0,0,0,0,0,0,0,0,0,
0,0,0,0,0,0,0,0,0,0,0,0,0,0,0,0,
0,0,0,0,0,0,0,0,0,0,0,0,0,0,0,0,
0,0,0,0,0,0,0,0,0,0,0,0,0,0,0,0,
0,0,0,0,0,0,0,0,0,0,0,0,0,0,0,0,
0,0,0,0,0,0,0,0,0,0,0,0,0,0,0,0,
0,0,0,0,0,0,0,0,0,0,0,0,0,0,0,0,
0,0,0,0,0,0,0,0,0,0,0,0,0,0,0,0,
0,0,0,0,0,0,0,0,0,0,0,0,0,0,0,0,
7,7,7,7,7,7,7,7,7,7,7,7,7,7,0,0,
7,7,7,7,7,7,7,7,7,7,7,7,7,7,0,0
</chunk>
    <chunk x="-80" y="-64" width="16" height="16">
0,0,0,0,0,0,0,0,0,0,0,0,0,0,7,7,
0,0,0,0,0,0,0,0,0,0,0,0,0,0,7,7,
0,0,0,0,0,0,0,0,0,0,0,0,0,0,7,7,
0,0,0,0,0,0,0,0,0,0,0,0,0,0,7,7,
0,0,0,0,0,0,0,0,0,0,0,0,0,0,7,7,
0,0,0,0,0,0,0,0,0,0,0,0,0,0,7,7,
0,0,0,0,0,0,0,0,0,0,0,0,0,0,7,7,
0,0,0,0,0,0,0,0,0,0,0,0,0,0,7,7,
0,0,0,0,0,0,0,0,0,0,0,0,0,0,7,7,
0,0,0,0,0,0,0,0,0,0,0,0,0,0,7,7,
0,0,0,0,0,0,0,0,0,0,0,0,0,0,7,7,
0,0,0,0,0,0,0,0,0,0,0,0,0,0,7,7,
0,0,0,0,0,0,0,0,0,0,0,0,0,0,7,7,
0,0,0,0,0,0,0,0,0,0,0,0,0,0,7,7,
0,0,0,0,0,0,0,0,0,0,0,0,0,0,7,7,
0,0,0,0,0,0,0,0,0,0,0,0,0,0,7,7
</chunk>
    <chunk x="-64" y="-64" width="16" height="16">
7,7,7,7,7,7,7,7,0,0,7,7,7,7,7,7,
7,7,7,7,7,7,7,7,0,0,7,7,7,7,7,7,
7,7,7,7,7,7,7,7,0,0,7,7,7,7,7,7,
7,7,7,7,7,7,7,7,0,0,7,7,7,7,7,7,
7,7,7,7,7,7,7,7,0,0,7,7,7,7,7,7,
7,7,7,7,7,7,7,7,0,0,7,7,7,7,7,7,
7,7,7,7,7,7,7,7,0,0,7,7,0,0,7,0,
7,7,7,7,7,7,7,7,0,0,7,7,7,7,7,7,
7,7,7,7,7,7,0,0,0,0,7,0,7,0,7,7,
7,7,7,7,7,7,0,0,0,0,7,0,0,0,0,0,
7,7,7,7,7,7,0,0,0,0,0,0,0,0,0,0,
7,7,7,7,7,7,0,0,0,0,0,0,0,0,0,0,
7,7,7,7,7,7,0,0,0,0,0,0,0,0,0,0,
7,7,7,7,7,7,0,0,0,0,0,0,0,0,0,0,
7,7,7,7,7,7,0,0,0,0,0,0,0,0,0,0,
7,7,7,7,7,7,0,0,0,0,0,0,0,0,0,0
</chunk>
    <chunk x="-48" y="-64" width="16" height="16">
7,7,7,7,7,7,7,7,7,7,7,7,7,7,0,0,
7,7,7,7,7,7,7,7,7,7,7,7,7,7,0,0,
7,7,7,7,7,7,7,7,7,7,7,7,7,7,0,0,
7,7,7,7,7,7,7,7,7,7,7,7,7,7,0,0,
7,7,7,7,7,7,7,7,7,7,7,7,7,7,0,0,
7,7,7,7,7,7,7,7,7,7,7,7,7,7,0,0,
0,7,0,0,0,0,7,7,7,7,7,7,7,7,0,0,
0,7,7,7,7,0,7,7,7,7,7,7,7,7,0,0,
0,7,0,7,7,0,7,7,7,7,7,7,7,7,0,0,
0,0,0,0,0,0,7,7,7,7,7,7,7,7,0,0,
0,0,0,0,0,0,7,7,7,7,7,7,7,7,0,0,
7,7,7,7,7,7,7,7,7,7,7,7,7,7,0,0,
7,7,7,7,7,0,7,7,7,7,7,7,7,7,0,0,
7,7,7,0,7,0,7,7,7,7,7,7,7,7,0,0,
7,0,7,0,7,0,7,7,7,7,7,7,7,7,0,0,
0,0,0,0,0,0,7,7,7,7,7,7,7,7,0,0
</chunk>
    <chunk x="-80" y="-48" width="16" height="16">
0,0,0,0,0,0,0,0,0,0,0,0,0,0,7,7,
0,0,0,0,0,0,0,0,0,0,0,0,0,0,7,7,
0,0,0,0,0,0,0,0,0,0,0,0,0,0,7,7,
0,0,0,0,0,0,0,0,0,0,0,0,0,0,7,7,
0,0,0,0,0,0,0,0,0,0,0,0,0,0,7,7,
0,0,0,0,0,0,0,0,0,0,0,0,0,0,7,7,
0,0,0,0,0,0,0,0,0,0,0,0,0,0,7,7,
0,0,0,0,0,0,0,0,0,0,0,0,0,0,7,7,
0,0,0,0,0,0,0,0,0,0,0,0,0,0,7,7,
0,0,0,0,0,0,0,0,0,0,0,0,0,0,7,7,
0,0,0,0,0,0,0,0,0,0,0,0,0,0,7,7,
0,0,0,0,0,0,0,0,0,0,0,0,0,0,7,7,
0,0,0,0,0,0,0,0,0,0,0,0,0,0,7,7,
0,0,0,0,0,0,0,0,0,0,0,0,0,0,7,7,
0,0,0,0,0,0,0,0,0,0,0,0,0,0,0,0,
0,0,0,0,0,0,0,0,0,0,0,0,0,0,0,0
</chunk>
    <chunk x="-64" y="-48" width="16" height="16">
7,7,7,7,7,7,0,0,0,0,0,0,0,0,0,0,
7,7,7,7,7,7,0,0,0,0,0,0,0,7,7,7,
7,7,7,7,7,7,0,0,0,7,0,0,7,7,7,7,
7,7,7,7,7,7,7,7,7,7,0,0,7,7,0,7,
7,7,7,7,7,7,0,0,7,0,0,0,0,0,0,0,
7,7,7,7,7,7,0,0,7,0,0,0,0,0,0,0,
7,7,7,7,7,7,7,7,7,7,7,7,7,7,7,7,
7,7,7,7,7,7,7,7,7,7,7,7,7,7,7,7,
7,7,7,7,7,7,7,7,7,7,7,7,7,7,7,7,
7,7,7,7,7,7,7,7,7,7,7,7,7,7,7,7,
7,7,7,7,7,7,7,7,7,7,7,7,7,7,7,7,
7,7,7,7,7,7,7,7,7,7,7,7,7,7,7,7,
7,7,7,7,7,7,7,7,7,7,7,7,7,7,7,7,
7,7,7,7,7,7,7,7,7,7,7,7,7,7,7,7,
0,0,0,0,0,0,0,0,0,0,0,0,0,0,0,0,
0,0,0,0,0,0,0,0,0,0,0,0,0,0,0,0
</chunk>
    <chunk x="-48" y="-48" width="16" height="16">
0,0,0,0,0,0,7,7,7,7,7,7,7,7,0,0,
0,0,0,0,0,0,7,7,7,7,7,7,7,7,0,0,
7,7,0,0,0,0,7,7,7,7,7,7,7,7,0,0,
7,7,0,0,7,0,7,7,7,7,7,7,7,7,0,0,
7,7,0,0,7,7,7,7,7,7,7,7,7,7,0,0,
7,7,0,0,7,7,7,7,7,7,7,7,7,7,0,0,
7,7,0,0,7,7,7,7,7,7,7,7,7,7,0,0,
0,7,0,0,7,7,7,7,7,7,7,7,7,7,0,0,
7,7,0,0,7,7,7,7,7,7,7,7,7,7,0,0,
7,7,0,0,7,7,7,7,7,7,7,7,7,7,0,0,
7,7,0,0,7,7,7,7,7,7,7,7,7,7,0,0,
7,7,0,0,7,7,7,7,7,7,7,7,7,7,0,0,
7,7,0,0,7,7,7,7,7,7,7,7,7,7,0,0,
7,7,0,0,7,7,7,7,7,7,7,7,7,7,0,0,
0,0,0,0,0,0,0,0,0,0,0,0,0,0,0,0,
0,0,0,0,0,0,0,0,0,0,0,0,0,0,0,0
</chunk>
   </data>
  </layer>
 </group>
 <layer id="12" name="invisible" width="40" height="60" visible="0">
  <data encoding="csv">
   <chunk x="-64" y="-64" width="16" height="16">
0,0,0,0,0,0,0,0,0,0,0,0,0,0,0,0,
0,0,0,0,0,0,0,0,0,0,0,0,0,0,0,0,
0,0,0,0,0,0,0,0,0,0,0,0,0,0,0,0,
0,0,0,0,0,0,0,0,0,0,0,0,0,0,0,0,
0,0,0,0,171,171,171,171,172,172,171,171,171,171,171,171,
0,0,0,0,171,171,171,171,172,172,171,171,171,171,171,171,
0,0,0,0,171,171,0,0,0,0,0,0,0,0,0,0,
0,0,0,0,171,171,0,0,0,0,0,0,0,0,0,0,
0,0,0,0,171,171,0,0,0,0,0,0,0,0,0,0,
0,0,0,0,171,171,0,0,0,0,0,0,0,0,0,0,
0,0,0,0,171,171,0,0,0,0,0,0,0,0,0,0,
0,0,0,0,171,171,0,0,0,0,0,0,0,0,0,0,
0,0,0,0,171,171,0,0,0,0,0,0,0,0,0,0,
0,0,0,0,171,171,0,0,0,0,0,0,0,0,0,0,
0,0,0,0,171,171,0,0,0,0,0,0,0,0,0,0,
0,0,0,0,171,171,0,0,0,0,0,0,0,0,0,0
</chunk>
   <chunk x="-48" y="-64" width="16" height="16">
0,0,0,0,0,0,0,0,0,0,0,0,0,0,0,0,
0,0,0,0,0,0,0,0,0,0,0,0,0,0,0,0,
0,0,0,0,0,0,0,0,0,0,0,0,0,0,0,0,
0,0,0,0,0,0,0,0,0,0,0,0,0,0,0,0,
171,171,171,171,171,171,171,171,0,0,0,0,0,0,0,0,
171,171,171,171,171,171,171,171,0,0,0,0,0,0,0,0,
0,0,0,0,0,0,171,171,0,0,0,0,0,0,0,0,
0,0,0,0,0,0,171,171,0,0,0,0,0,0,0,0,
0,0,0,0,0,0,171,171,0,0,0,0,0,0,0,0,
0,0,0,0,0,0,171,171,0,0,0,0,0,0,0,0,
0,0,0,0,0,0,171,171,0,0,0,0,0,0,0,0,
0,0,0,0,0,0,171,171,0,0,0,0,0,0,0,0,
0,0,0,0,0,0,171,171,0,0,0,0,0,0,0,0,
0,0,0,0,0,0,171,171,0,0,0,0,0,0,0,0,
0,0,0,0,0,0,171,171,0,0,0,0,0,0,0,0,
0,0,0,0,0,0,171,171,0,0,0,0,0,0,0,0
</chunk>
   <chunk x="-64" y="-48" width="16" height="16">
0,0,0,0,171,171,0,0,0,0,0,0,0,0,0,0,
0,0,0,0,171,171,0,0,0,0,0,0,0,0,0,0,
0,0,0,0,171,171,0,0,0,0,0,0,0,0,0,0,
0,0,0,0,171,171,0,0,0,0,0,0,0,0,0,0,
0,0,0,0,171,171,0,0,0,0,0,0,0,0,0,0,
0,0,0,0,171,171,0,0,0,0,0,0,0,0,0,0,
0,0,0,0,171,171,171,171,171,171,171,171,171,171,171,171,
0,0,0,0,171,171,171,171,171,171,171,171,171,171,171,171,
0,0,0,0,0,0,0,0,0,0,0,0,0,0,0,0,
0,0,0,0,0,0,0,0,0,0,0,0,0,0,0,0,
0,0,0,0,0,0,0,0,0,0,0,0,0,0,0,0,
0,0,0,0,0,0,0,0,0,0,0,0,0,0,0,0,
0,0,0,0,0,0,0,0,0,0,0,0,0,0,0,0,
0,0,0,0,0,0,0,0,0,0,0,0,0,0,0,0,
0,0,0,0,0,0,0,0,0,0,0,0,0,0,0,0,
0,0,0,0,0,0,0,0,0,0,0,0,0,0,0,0
</chunk>
   <chunk x="-48" y="-48" width="16" height="16">
0,0,0,0,0,0,171,171,0,0,0,0,0,0,0,0,
0,0,0,0,0,0,171,171,0,0,0,0,0,0,0,0,
0,0,0,0,0,0,171,171,0,0,0,0,0,0,0,0,
0,0,0,0,0,0,171,171,0,0,0,0,0,0,0,0,
0,0,0,0,0,0,171,171,0,0,0,0,0,0,0,0,
0,0,0,0,0,0,171,171,0,0,0,0,0,0,0,0,
173,173,173,173,171,171,171,171,0,0,0,0,0,0,0,0,
173,173,173,173,171,171,171,171,0,0,0,0,0,0,0,0,
0,0,0,0,0,0,0,0,0,0,0,0,0,0,0,0,
0,0,0,0,0,0,0,0,0,0,0,0,0,0,0,0,
0,0,0,0,0,0,0,0,0,0,0,0,0,0,0,0,
0,0,0,0,0,0,0,0,0,0,0,0,0,0,0,0,
0,0,0,0,0,0,0,0,0,0,0,0,0,0,0,0,
0,0,0,0,0,0,0,0,0,0,0,0,0,0,0,0,
0,0,0,0,0,0,0,0,0,0,0,0,0,0,0,0,
0,0,0,0,0,0,0,0,0,0,0,0,0,0,0,0
</chunk>
  </data>
 </layer>
 <group id="16" name="town_2">
  <layer id="17" name="bottom" width="40" height="60">
   <data encoding="csv">
    <chunk x="-16" y="48" width="16" height="16">
0,0,0,0,0,0,0,0,0,0,0,0,0,0,0,0,
0,0,0,0,0,0,0,0,0,0,0,0,0,0,0,0,
0,0,0,0,0,0,91,91,91,91,91,91,91,91,91,91,
0,0,0,0,0,0,91,91,91,91,91,91,91,91,91,91,
0,0,0,0,0,0,91,91,91,91,91,91,91,91,91,91,
0,0,0,0,0,0,91,91,91,91,91,91,91,91,91,91,
0,0,0,0,0,0,91,91,91,91,91,91,91,91,91,91,
0,0,0,0,0,0,91,91,91,91,91,91,91,91,91,91,
0,0,0,0,0,0,91,91,91,91,91,91,91,91,91,91,
0,0,0,0,0,0,91,91,91,91,91,91,91,91,91,91,
0,0,0,0,0,0,91,91,91,91,91,91,91,91,91,91,
0,0,0,0,0,0,91,91,91,91,91,91,91,91,91,91,
0,0,0,0,0,0,91,91,91,91,91,91,91,91,91,91,
0,0,0,0,0,0,91,91,91,91,91,91,91,91,91,91,
0,0,0,0,0,0,91,91,91,91,91,91,91,91,91,91,
0,0,0,0,0,0,91,91,91,91,91,91,91,91,91,91
</chunk>
    <chunk x="0" y="48" width="16" height="16">
0,0,0,0,0,0,0,0,0,0,0,0,0,0,0,0,
0,0,0,0,0,0,0,0,0,0,0,0,0,0,0,0,
91,91,91,93,76,76,76,76,76,76,91,93,93,93,93,93,
91,91,101,103,76,76,76,76,76,76,91,93,93,93,93,93,
91,91,92,92,76,76,76,76,76,76,91,93,93,93,93,93,
91,91,92,92,76,76,76,76,76,76,101,103,93,93,93,93,
91,91,81,83,76,76,76,76,76,76,92,92,93,93,93,93,
91,91,91,93,77,77,77,77,77,77,92,92,93,93,93,93,
91,91,91,93,77,77,77,77,77,77,81,83,93,93,93,93,
91,91,101,103,77,77,77,77,77,77,101,103,93,93,93,93,
91,91,92,92,77,77,77,77,77,77,92,92,93,93,93,93,
91,91,92,92,77,77,77,77,77,77,92,92,93,93,93,93,
91,91,92,92,92,77,77,77,77,92,92,92,93,93,93,93,
91,91,92,92,92,77,77,77,77,92,92,92,93,93,93,93,
91,91,81,83,92,92,77,77,92,92,81,83,93,93,93,93,
91,91,91,93,92,92,92,92,92,92,91,93,93,93,93,93
</chunk>
    <chunk x="16" y="48" width="16" height="16">
0,0,0,0,0,0,0,0,0,0,0,0,0,0,0,0,
0,0,0,0,0,0,0,0,0,0,0,0,0,0,0,0,
93,93,93,93,93,93,93,93,93,93,93,93,93,93,0,0,
93,93,93,93,93,93,93,93,93,93,93,93,93,93,0,0,
93,93,93,93,93,93,93,93,93,93,93,93,93,93,0,0,
93,93,93,93,93,93,93,93,93,93,93,93,93,93,0,0,
93,93,93,93,93,93,93,93,93,93,93,93,93,93,0,0,
93,93,93,93,93,93,93,93,93,93,93,93,93,93,0,0,
93,93,93,93,93,93,93,93,93,93,93,93,93,93,0,0,
93,93,93,93,93,93,93,93,93,93,93,93,93,93,0,0,
93,93,93,93,93,93,93,93,93,93,93,93,93,93,0,0,
93,93,93,93,93,93,93,93,93,93,93,93,93,93,0,0,
93,93,93,93,93,93,93,93,93,93,93,93,93,93,0,0,
93,93,93,93,93,93,93,93,93,93,93,93,93,93,0,0,
93,93,93,93,93,93,93,93,93,93,93,93,93,93,0,0,
93,93,93,93,93,93,93,93,93,93,93,93,93,93,0,0
</chunk>
    <chunk x="-16" y="64" width="16" height="16">
0,0,0,0,0,0,91,91,91,91,91,91,91,91,91,91,
0,0,0,0,0,0,91,91,91,91,91,91,91,91,91,91,
0,0,0,0,0,0,91,91,91,91,91,91,91,91,91,91,
0,0,0,0,0,0,91,91,91,91,91,91,91,91,91,91,
0,0,0,0,0,0,91,91,91,91,91,91,91,91,91,91,
0,0,0,0,0,0,91,91,91,91,91,91,91,91,91,91,
0,0,0,0,0,0,91,91,91,91,91,91,91,91,91,91,
0,0,0,0,0,0,91,91,91,91,91,91,91,91,91,91,
0,0,0,0,0,0,91,91,91,91,91,91,91,91,91,91,
0,0,0,0,0,0,91,91,91,91,91,91,91,91,91,91,
0,0,0,0,0,0,91,91,91,91,91,91,91,91,91,91,
0,0,0,0,0,0,91,91,91,91,91,91,91,91,91,91,
0,0,0,0,0,0,91,91,91,91,91,91,91,91,91,91,
0,0,0,0,0,0,91,91,91,91,91,91,91,91,91,91,
0,0,0,0,0,0,91,91,91,91,91,91,91,91,91,91,
0,0,0,0,0,0,91,91,91,91,91,91,91,91,91,91
</chunk>
    <chunk x="0" y="64" width="16" height="16">
91,91,91,93,92,92,92,92,92,92,91,93,93,93,93,93,
91,91,91,93,92,92,92,92,92,92,91,93,93,93,93,93,
91,91,91,93,92,92,92,92,92,92,91,93,93,93,93,93,
91,91,91,93,92,92,92,92,92,92,91,93,93,93,93,93,
91,91,91,93,92,92,92,92,92,92,91,93,93,93,93,93,
91,91,91,93,92,92,92,92,92,92,91,93,93,93,93,93,
91,91,91,93,92,92,92,92,92,92,91,93,93,93,93,93,
91,91,91,93,92,92,92,92,92,92,91,93,93,93,93,93,
91,91,91,93,92,92,92,92,92,92,91,93,93,93,93,93,
91,91,91,93,92,92,92,92,92,92,91,93,93,93,93,93,
91,91,91,93,92,92,92,92,92,92,91,93,93,93,93,93,
91,91,91,93,92,92,92,92,92,92,91,93,93,93,93,93,
91,91,91,93,92,92,92,92,92,92,91,93,93,93,93,93,
91,91,91,93,92,92,92,92,92,92,91,93,93,93,93,93,
91,91,91,93,92,92,92,92,92,92,91,93,93,93,93,93,
91,91,91,93,92,92,92,92,92,92,91,93,93,93,93,93
</chunk>
    <chunk x="16" y="64" width="16" height="16">
93,93,93,93,93,93,93,93,93,93,93,93,93,93,0,0,
93,93,93,93,93,93,93,93,93,93,93,93,93,93,0,0,
93,93,93,93,93,93,93,93,93,93,93,93,93,93,0,0,
93,93,93,93,93,93,93,93,93,93,93,93,93,93,0,0,
93,93,93,93,93,93,93,93,93,93,93,93,93,93,0,0,
93,93,93,93,93,93,93,93,93,93,93,93,93,93,0,0,
93,93,93,93,93,93,93,93,93,93,93,93,93,93,0,0,
93,93,93,93,93,93,93,93,93,93,93,93,93,93,0,0,
93,93,93,93,93,93,93,93,93,93,93,93,93,93,0,0,
93,93,93,93,93,93,93,93,93,93,93,93,93,93,0,0,
93,93,93,93,93,93,93,93,93,93,93,93,93,93,0,0,
93,93,93,93,93,93,93,93,93,93,93,93,93,93,0,0,
93,93,93,93,93,93,93,93,93,93,93,93,93,93,0,0,
93,93,93,93,93,93,93,93,93,93,93,93,93,93,0,0,
93,93,93,93,93,93,93,93,93,93,93,93,93,93,0,0,
93,93,93,93,93,93,93,93,93,93,93,93,93,93,0,0
</chunk>
    <chunk x="-16" y="80" width="16" height="16">
0,0,0,0,0,0,91,91,91,91,91,91,91,91,91,91,
0,0,0,0,0,0,91,91,91,91,91,91,91,91,91,91,
0,0,0,0,0,0,91,91,91,91,91,91,91,91,91,91,
0,0,0,0,0,0,91,91,91,91,91,91,91,91,91,91,
0,0,0,0,0,0,91,91,91,91,91,91,91,91,91,91,
0,0,0,0,0,0,91,91,91,91,91,91,91,91,91,91,
0,0,0,0,0,0,91,91,91,91,91,91,91,91,91,91,
0,0,0,0,0,0,91,91,91,91,91,91,91,91,91,91,
0,0,0,0,0,0,91,91,91,91,91,91,91,91,91,82,
0,0,0,0,0,0,82,82,82,82,82,82,82,82,82,82,
0,0,0,0,0,0,81,82,82,82,82,82,82,82,82,82,
0,0,0,0,0,0,91,92,92,92,92,92,92,92,92,92,
0,0,0,0,0,0,91,92,92,92,92,92,92,92,92,92,
0,0,0,0,0,0,91,92,92,92,92,92,92,92,92,92,
0,0,0,0,0,0,91,92,92,92,92,92,92,92,92,92,
0,0,0,0,0,0,91,92,92,92,92,92,92,92,92,92
</chunk>
    <chunk x="0" y="80" width="16" height="16">
91,91,91,93,92,92,92,92,92,92,91,93,93,93,93,93,
91,91,101,103,92,92,92,92,92,92,101,103,93,93,93,93,
91,91,92,92,92,92,92,92,92,92,92,92,93,93,93,93,
91,91,92,92,92,92,92,92,92,92,92,92,93,93,93,93,
91,91,81,83,92,92,92,92,92,92,81,83,93,93,93,93,
91,91,91,93,92,92,92,92,92,92,91,93,93,93,93,93,
91,91,91,93,92,92,92,92,92,92,91,93,93,93,93,93,
91,91,101,103,92,92,92,92,92,92,101,103,93,93,93,93,
91,101,102,102,92,92,92,92,92,92,102,102,103,93,82,93,
101,102,102,102,92,92,92,92,92,92,102,102,102,103,82,82,
82,82,82,82,92,92,92,92,92,92,82,82,82,82,82,82,
92,92,92,92,92,92,92,92,92,92,92,92,92,92,92,92,
92,92,92,92,92,92,92,92,92,92,92,92,92,92,92,92,
92,92,92,92,92,92,92,92,92,92,92,92,92,92,92,92,
92,92,92,92,92,92,92,92,92,92,92,92,92,92,92,92,
92,92,92,92,92,92,92,92,92,92,92,92,92,92,92,92
</chunk>
    <chunk x="16" y="80" width="16" height="16">
93,93,93,93,93,93,93,93,93,93,93,93,93,93,0,0,
93,93,93,93,93,93,93,93,93,93,93,93,93,93,0,0,
93,93,93,93,93,93,93,93,93,93,93,93,93,93,0,0,
93,93,93,93,93,93,93,93,93,93,93,93,93,93,0,0,
93,93,93,93,93,93,93,93,93,93,93,93,93,93,0,0,
93,93,93,93,93,93,93,93,93,93,93,93,93,93,0,0,
93,93,93,93,93,93,93,93,93,93,93,93,93,93,0,0,
93,93,93,93,93,93,93,93,93,93,93,93,93,93,0,0,
93,93,93,93,93,93,93,93,93,93,93,93,93,93,0,0,
82,82,82,82,82,82,82,82,82,82,82,82,82,82,0,0,
82,82,82,82,82,82,82,82,82,82,82,82,82,83,0,0,
92,92,92,92,92,92,92,92,92,92,92,92,92,93,0,0,
92,92,92,92,92,92,92,92,92,92,92,92,92,93,0,0,
92,92,92,92,92,92,92,92,92,92,92,92,92,5,0,0,
92,92,92,92,92,92,92,92,92,92,92,92,5,5,0,0,
92,92,92,92,92,92,92,5,5,5,5,5,5,5,0,0
</chunk>
    <chunk x="-16" y="96" width="16" height="16">
0,0,0,0,0,0,91,92,92,92,92,92,92,92,92,92,
0,0,0,0,0,0,91,92,92,92,92,92,92,92,92,92,
0,0,0,0,0,0,91,92,92,92,92,92,92,92,92,92,
0,0,0,0,0,0,91,92,92,92,92,92,92,92,92,92,
0,0,0,0,0,0,91,92,92,92,92,92,92,92,92,92,
0,0,0,0,0,0,91,92,92,92,92,92,92,92,92,92,
0,0,0,0,0,0,101,102,102,102,103,92,92,92,92,83,
0,0,0,0,0,0,102,102,102,102,91,92,92,92,92,93,
0,0,0,0,0,0,102,102,102,102,91,92,92,92,92,93,
0,0,0,0,0,0,102,102,102,102,91,92,92,92,92,93,
0,0,0,0,0,0,102,102,102,102,91,92,92,92,92,93,
0,0,0,0,0,0,102,102,102,102,91,92,92,92,92,93,
0,0,0,0,0,0,102,102,102,102,91,92,92,92,92,93,
0,0,0,0,0,0,102,102,102,102,91,92,92,92,92,93,
0,0,0,0,0,0,0,0,0,0,0,0,0,0,0,0,
0,0,0,0,0,0,0,0,0,0,0,0,0,0,0,0
</chunk>
    <chunk x="0" y="96" width="16" height="16">
92,92,92,92,92,92,92,92,92,92,92,92,92,92,92,92,
92,92,92,92,92,92,92,92,92,92,92,92,92,92,92,92,
92,92,92,92,92,92,92,92,92,92,92,92,92,92,92,92,
92,92,92,92,92,92,92,92,92,92,92,92,92,92,92,92,
92,92,92,92,92,92,92,92,92,92,92,92,92,92,92,92,
92,92,92,92,92,92,92,92,92,92,92,92,92,92,92,92,
102,102,102,102,102,102,102,102,102,102,102,91,92,92,92,93,
102,102,102,102,102,102,102,102,102,102,102,101,102,102,102,103,
102,102,102,102,102,102,102,102,102,102,102,102,102,102,102,102,
102,102,102,102,102,102,102,102,102,102,102,102,102,102,102,102,
102,102,102,102,102,102,102,102,102,102,102,102,102,102,102,102,
102,102,102,102,102,102,102,102,102,102,102,102,102,102,102,102,
102,102,102,102,102,102,102,102,102,102,102,102,102,102,102,102,
102,102,102,102,102,102,102,102,102,102,102,102,102,102,102,102,
0,0,0,0,0,0,0,0,0,0,0,0,0,0,0,0,
0,0,0,0,0,0,0,0,0,0,0,0,0,0,0,0
</chunk>
    <chunk x="16" y="96" width="16" height="16">
92,92,92,92,92,92,92,5,5,5,5,5,5,5,0,0,
92,92,92,92,92,92,92,5,5,5,5,5,5,5,0,0,
92,92,92,92,92,92,92,92,92,92,92,92,5,5,0,0,
92,92,92,92,92,92,92,92,92,92,92,92,92,5,0,0,
92,92,92,92,92,92,92,92,92,92,92,92,92,92,0,0,
92,92,92,92,92,92,92,92,92,92,92,92,92,92,0,0,
102,102,102,91,92,92,93,102,102,102,102,102,102,92,0,0,
102,102,102,91,92,92,93,102,102,102,102,102,102,102,0,0,
102,102,102,91,92,92,93,102,102,102,102,102,102,102,0,0,
102,102,102,101,102,102,103,102,102,102,102,102,102,102,0,0,
102,102,102,102,102,102,102,102,102,102,102,102,102,102,0,0,
102,102,102,102,102,102,102,102,102,102,102,102,102,102,0,0,
102,102,102,102,102,102,102,102,102,102,102,102,102,102,0,0,
102,102,102,102,102,102,102,102,102,102,102,102,102,102,0,0,
0,0,0,0,0,0,0,0,0,0,0,0,0,0,0,0,
0,0,0,0,0,0,0,0,0,0,0,0,0,0,0,0
</chunk>
   </data>
  </layer>
  <layer id="18" name="top" width="40" height="60">
   <data encoding="csv">
    <chunk x="-16" y="48" width="16" height="16">
0,0,0,0,0,0,0,0,0,0,0,0,0,0,0,0,
0,0,0,0,0,0,0,0,0,0,0,0,0,0,0,0,
0,0,0,0,0,0,62,62,62,62,62,62,62,62,62,63,
0,0,0,0,0,0,62,62,62,62,62,62,62,62,62,63,
0,0,0,0,0,0,62,62,62,62,62,62,62,62,62,63,
0,0,0,0,0,0,62,62,62,62,62,62,62,62,62,63,
0,0,0,0,0,0,62,62,62,62,62,62,62,62,62,63,
0,0,0,0,0,0,62,62,62,62,62,62,62,62,62,63,
0,0,0,0,0,0,62,62,62,62,62,62,62,62,62,63,
0,0,0,0,0,0,62,62,62,62,62,62,62,62,62,63,
0,0,0,0,0,0,62,62,62,62,62,62,62,62,62,63,
0,0,0,0,0,0,62,62,62,62,62,62,62,62,62,63,
0,0,0,0,0,0,62,62,62,62,62,62,62,62,62,63,
0,0,0,0,0,0,62,62,62,62,62,62,62,62,62,63,
0,0,0,0,0,0,62,62,62,62,62,62,62,62,62,63,
0,0,0,0,0,0,62,62,62,62,62,62,62,62,62,63
</chunk>
    <chunk x="0" y="48" width="16" height="16">
0,0,0,0,0,0,0,0,0,0,0,0,0,0,0,0,
0,0,0,0,0,0,0,0,0,0,0,0,0,0,0,0,
0,0,0,0,1,2,0,0,1,2,0,0,0,0,61,62,
0,0,0,0,11,12,0,0,11,12,0,0,0,0,61,62,
0,0,1,2,0,0,0,0,0,0,0,0,0,0,61,62,
0,0,11,12,0,0,0,0,0,0,0,0,0,0,61,62,
0,0,0,0,0,0,0,0,0,0,1,2,0,0,61,62,
0,0,0,0,0,76,76,76,76,0,11,12,0,0,61,62,
0,0,0,0,0,76,76,76,76,0,0,0,0,0,61,62,
0,0,0,0,0,0,76,76,0,0,0,0,0,0,61,62,
0,0,1,2,0,0,76,76,0,0,1,2,0,0,61,62,
0,0,11,12,0,0,0,0,0,0,11,12,0,0,61,62,
0,0,1,2,0,0,0,0,0,0,1,2,0,0,61,62,
0,0,11,12,0,0,0,0,0,0,11,12,0,0,61,62,
0,0,0,0,0,0,0,0,14,0,0,0,0,0,61,62,
0,0,0,0,0,0,0,0,0,0,0,0,0,0,61,62
</chunk>
    <chunk x="16" y="48" width="16" height="16">
0,0,0,0,0,0,0,0,0,0,0,0,0,0,0,0,
0,0,0,0,0,0,0,0,0,0,0,0,0,0,0,0,
62,62,62,62,62,62,62,62,62,62,62,62,62,62,0,0,
62,62,62,62,62,62,62,62,62,62,62,62,62,62,0,0,
62,62,62,62,62,62,62,62,62,62,62,62,62,62,0,0,
62,62,62,62,62,62,62,62,62,62,62,62,62,62,0,0,
62,62,62,62,62,62,62,62,62,62,62,62,62,62,0,0,
62,62,62,62,62,62,62,62,62,62,62,62,62,62,0,0,
62,62,62,62,62,62,62,62,62,62,62,62,62,62,0,0,
62,62,62,62,62,62,62,62,62,62,62,62,62,62,0,0,
62,62,62,62,62,62,62,62,62,62,62,62,62,62,0,0,
62,62,62,62,62,62,62,62,62,62,62,62,62,62,0,0,
62,62,62,62,62,62,62,62,62,62,62,62,62,62,0,0,
62,62,62,62,62,62,62,62,62,62,62,62,62,62,0,0,
62,62,62,62,62,62,62,62,62,62,62,62,62,62,0,0,
62,62,62,62,62,62,62,62,62,62,62,62,62,62,0,0
</chunk>
    <chunk x="-16" y="64" width="16" height="16">
0,0,0,0,0,0,62,62,62,62,62,62,62,62,62,63,
0,0,0,0,0,0,62,62,62,62,62,62,62,62,62,63,
0,0,0,0,0,0,62,62,62,62,62,62,62,62,62,63,
0,0,0,0,0,0,62,62,62,62,62,62,62,62,62,63,
0,0,0,0,0,0,62,62,62,62,62,62,62,62,62,63,
0,0,0,0,0,0,62,62,62,62,62,62,62,62,62,63,
0,0,0,0,0,0,62,62,62,62,62,62,62,62,62,63,
0,0,0,0,0,0,62,62,62,62,62,62,62,62,62,63,
0,0,0,0,0,0,62,62,62,62,62,62,62,62,62,63,
0,0,0,0,0,0,62,62,62,62,62,62,62,62,62,63,
0,0,0,0,0,0,62,62,62,62,62,62,62,62,62,63,
0,0,0,0,0,0,62,62,62,62,62,62,62,62,62,63,
0,0,0,0,0,0,62,62,62,62,62,62,62,62,62,63,
0,0,0,0,0,0,62,62,62,62,62,62,62,62,62,63,
0,0,0,0,0,0,62,62,62,62,62,62,62,62,62,63,
0,0,0,0,0,0,62,62,62,62,62,62,62,62,62,63
</chunk>
    <chunk x="0" y="64" width="16" height="16">
0,0,0,0,0,0,0,0,0,0,0,0,0,0,61,62,
0,0,0,0,0,0,0,0,0,0,0,0,0,0,61,62,
0,0,0,0,0,0,0,0,0,0,0,0,0,0,61,62,
0,0,0,0,0,0,0,0,0,0,0,0,0,0,61,62,
0,0,0,0,0,0,0,0,0,0,0,0,0,0,61,62,
0,0,0,0,0,0,0,0,0,0,0,0,0,0,61,62,
0,0,0,0,0,0,0,0,0,0,0,0,0,0,61,62,
0,0,0,0,0,0,0,0,0,0,0,0,0,0,61,62,
0,0,0,0,0,0,0,0,0,0,0,0,0,0,61,62,
0,0,0,0,0,0,0,0,0,0,0,0,0,0,61,62,
0,0,0,0,0,0,0,0,0,0,0,0,0,0,61,62,
0,0,0,0,0,0,0,0,0,0,0,0,0,0,61,62,
0,0,0,0,0,0,0,0,0,0,0,0,0,0,61,62,
0,0,0,0,0,0,0,0,0,0,0,0,0,0,61,62,
0,0,0,0,0,0,0,0,0,0,0,0,0,0,61,62,
0,0,0,0,0,0,0,0,0,0,0,0,0,0,61,62
</chunk>
    <chunk x="16" y="64" width="16" height="16">
62,62,62,62,62,62,62,62,62,62,62,62,62,62,0,0,
62,62,62,62,62,62,62,62,62,62,62,62,62,62,0,0,
62,62,62,62,62,62,62,62,62,62,62,62,62,62,0,0,
62,62,62,62,62,62,62,62,62,62,62,62,62,62,0,0,
62,62,62,62,62,62,62,62,62,62,62,62,62,62,0,0,
62,62,62,62,62,62,62,62,62,62,62,62,62,62,0,0,
62,62,62,62,62,62,62,62,62,62,62,62,62,62,0,0,
62,62,62,62,62,62,62,62,62,62,62,62,62,62,0,0,
62,62,62,62,62,62,62,62,62,62,62,62,62,62,0,0,
62,62,62,62,62,62,62,62,62,62,62,62,62,62,0,0,
62,62,62,62,62,62,62,62,62,62,62,62,62,62,0,0,
62,62,62,62,62,62,62,62,62,62,62,62,62,62,0,0,
62,62,62,62,62,62,62,62,62,62,62,62,62,62,0,0,
62,62,62,62,62,62,62,62,62,62,62,62,62,62,0,0,
62,62,62,62,62,62,62,62,62,62,62,62,62,62,0,0,
62,62,62,62,62,62,62,62,62,62,62,62,62,62,0,0
</chunk>
    <chunk x="-16" y="80" width="16" height="16">
0,0,0,0,0,0,62,62,62,62,62,62,62,62,62,63,
0,0,0,0,0,0,62,62,62,62,62,62,62,62,62,63,
0,0,0,0,0,0,62,62,62,62,62,62,62,62,62,63,
0,0,0,0,0,0,62,62,62,62,62,62,62,62,62,63,
0,0,0,0,0,0,62,62,62,62,62,62,62,62,62,63,
0,0,0,0,0,0,62,62,62,62,62,62,62,62,62,63,
0,0,0,0,0,0,62,62,62,62,62,62,62,62,62,63,
0,0,0,0,0,0,62,62,62,62,62,62,62,62,62,63,
0,0,0,0,0,0,72,72,72,72,72,72,72,72,72,73,
0,0,0,0,0,0,0,0,0,0,0,0,0,0,0,0,
0,0,0,0,0,0,0,0,0,0,0,0,0,0,0,0,
0,0,0,0,0,0,0,81,82,82,83,0,0,0,25,26,
0,0,0,0,0,0,91,91,92,92,93,0,0,4,35,36,
0,0,0,0,0,0,91,91,92,92,93,0,0,0,45,46,
0,0,0,0,0,0,0,91,92,92,93,0,0,0,0,0,
0,0,0,0,0,0,0,91,92,92,93,0,0,0,0,0
</chunk>
    <chunk x="0" y="80" width="16" height="16">
0,0,0,0,0,0,0,0,0,0,0,0,0,0,61,62,
0,0,0,0,0,0,0,0,0,0,0,0,0,0,61,62,
0,0,1,2,0,0,0,0,0,0,1,2,0,0,61,62,
0,0,11,12,0,0,0,0,0,0,11,12,0,0,61,62,
0,0,0,0,23,0,0,0,0,21,0,0,0,0,61,62,
0,0,0,0,31,32,0,0,32,33,0,0,0,0,61,62,
0,0,0,0,41,0,0,0,0,43,0,0,0,0,61,62,
0,0,0,0,15,16,16,16,16,17,0,0,0,0,61,62,
0,0,0,0,15,16,16,16,16,17,0,0,0,0,71,72,
0,0,0,0,15,16,16,16,16,17,0,0,0,0,0,0,
0,0,0,0,15,16,16,16,16,17,0,0,0,0,0,0,
27,81,82,83,0,0,0,0,0,0,0,28,29,30,0,81,
37,91,92,93,0,0,0,0,0,0,0,18,19,20,4,91,
47,91,92,93,0,0,0,0,0,0,4,48,49,50,0,101,
0,101,102,103,0,0,0,0,0,0,0,0,0,0,0,0,
0,0,0,0,0,0,0,0,0,0,0,0,0,0,0,0
</chunk>
    <chunk x="16" y="80" width="16" height="16">
62,62,62,62,62,62,62,62,62,62,62,62,62,62,0,0,
62,62,62,62,62,62,62,62,62,62,62,62,62,62,0,0,
62,62,62,62,62,62,62,62,62,62,62,62,62,62,0,0,
62,62,62,62,62,62,62,62,62,62,62,62,62,62,0,0,
62,62,62,62,62,62,62,62,62,62,62,62,62,62,0,0,
62,62,62,62,62,62,62,62,62,62,62,62,62,62,0,0,
62,62,62,62,62,62,62,62,62,62,62,62,62,62,0,0,
62,62,62,62,62,62,62,62,62,62,62,62,62,62,0,0,
72,72,72,72,72,72,72,72,72,72,72,72,72,72,0,0,
0,0,0,0,0,0,0,0,0,0,0,0,0,0,0,0,
0,0,0,0,0,0,0,0,0,0,0,0,0,82,0,0,
83,28,29,30,0,0,0,81,82,82,82,82,82,83,0,0,
93,38,39,40,0,0,0,91,92,92,92,92,92,93,0,0,
103,48,49,50,0,0,4,101,102,102,102,102,102,103,0,0,
0,0,0,0,0,0,0,14,41,42,42,42,42,42,0,0,
0,0,0,0,0,0,0,0,0,0,5,5,5,5,0,0
</chunk>
    <chunk x="-16" y="96" width="16" height="16">
0,0,0,0,0,0,0,91,92,92,93,0,0,0,0,0,
0,0,0,0,0,0,0,91,92,92,93,0,0,0,0,0,
0,0,0,0,0,0,0,91,92,92,93,0,0,0,0,0,
0,0,0,0,0,0,0,91,92,92,93,0,0,0,0,0,
0,0,0,0,0,0,0,91,92,92,93,0,0,0,0,0,
0,0,0,0,0,0,0,101,102,102,103,0,0,0,0,0,
0,0,0,0,0,0,0,0,0,0,0,15,16,16,17,101,
0,0,0,0,0,0,0,0,0,0,103,15,16,16,17,101,
0,0,0,0,0,0,52,53,102,102,81,0,0,0,0,83,
0,0,0,0,0,0,62,63,102,102,0,33,0,0,33,0,
0,0,0,0,0,0,62,63,102,102,0,33,0,0,33,0,
0,0,0,0,0,0,62,63,102,102,0,33,0,0,33,0,
0,0,0,0,0,0,62,63,102,102,0,33,0,0,33,0,
0,0,0,0,0,0,62,63,102,102,0,33,0,0,33,0,
0,0,0,0,0,0,0,0,0,0,0,0,0,0,0,0,
0,0,0,0,0,0,0,0,0,0,0,0,0,0,0,0
</chunk>
    <chunk x="0" y="96" width="16" height="16">
0,0,0,0,0,0,0,0,0,0,0,0,0,0,0,0,
0,127,128,129,130,0,0,0,0,0,28,29,30,0,0,0,
0,137,138,139,140,0,0,0,0,0,8,9,10,0,0,4,
0,38,39,39,40,0,0,0,0,0,48,49,50,0,4,0,
0,48,49,54,50,0,0,0,0,0,0,0,0,0,0,0,
0,0,0,0,0,0,0,0,0,0,0,0,0,0,0,0,
0,0,0,0,0,0,0,0,0,0,0,81,82,82,82,83,
0,0,0,0,0,0,0,0,0,0,0,0,0,0,0,0,
102,102,51,52,52,52,52,52,52,53,102,102,102,102,102,102,
102,102,61,62,62,62,62,62,62,63,102,102,102,102,102,102,
102,102,61,62,62,62,62,62,62,94,52,52,52,52,52,52,
102,102,61,62,62,62,62,62,62,62,62,62,62,62,62,62,
102,102,61,62,62,62,62,62,62,62,62,62,62,62,62,62,
102,102,61,62,62,62,62,62,62,62,62,62,62,62,62,62,
0,0,0,0,0,0,0,0,0,0,0,0,0,0,0,0,
0,0,0,0,0,0,0,0,0,0,0,0,0,0,0,0
</chunk>
    <chunk x="16" y="96" width="16" height="16">
0,0,0,0,0,0,0,0,0,0,5,5,5,5,0,0,
81,82,83,0,0,0,0,0,0,0,5,5,5,5,0,0,
91,92,93,4,0,0,0,0,41,42,42,42,42,42,0,0,
91,92,93,0,4,0,0,81,82,82,82,82,82,83,0,0,
91,92,93,0,0,0,0,91,92,92,92,92,92,93,0,0,
91,92,93,0,0,0,0,91,92,92,92,92,92,93,0,0,
91,92,93,81,82,82,83,101,102,102,102,102,102,103,0,0,
101,102,103,0,0,0,0,0,0,0,0,0,0,0,0,0,
102,102,102,0,0,0,0,102,102,102,102,102,102,102,0,0,
102,102,102,0,0,0,0,102,102,51,52,52,52,52,0,0,
53,102,102,102,102,102,102,102,102,61,62,62,62,62,0,0,
63,102,102,102,102,102,102,102,102,61,62,62,62,62,0,0,
94,52,52,52,52,52,52,52,52,95,62,62,62,62,0,0,
62,62,62,62,62,62,62,62,62,62,62,62,62,62,0,0,
0,0,0,0,0,0,0,0,0,0,0,0,0,0,0,0,
0,0,0,0,0,0,0,0,0,0,0,0,0,0,0,0
</chunk>
   </data>
  </layer>
  <layer id="19" name="blockers" width="40" height="60">
   <data encoding="csv">
    <chunk x="-16" y="48" width="16" height="16">
0,0,0,0,0,0,0,0,0,0,0,0,0,0,0,0,
0,0,0,0,0,0,0,0,0,0,0,0,0,0,0,0,
0,0,0,0,0,0,7,7,7,7,7,7,7,7,7,7,
0,0,0,0,0,0,7,7,7,7,7,7,7,7,7,7,
0,0,0,0,0,0,7,7,7,7,7,7,7,7,7,7,
0,0,0,0,0,0,7,7,7,7,7,7,7,7,7,7,
0,0,0,0,0,0,7,7,7,7,7,7,7,7,7,7,
0,0,0,0,0,0,7,7,7,7,7,7,7,7,7,7,
0,0,0,0,0,0,7,7,7,7,7,7,7,7,7,7,
0,0,0,0,0,0,7,7,7,7,7,7,7,7,7,7,
0,0,0,0,0,0,7,7,7,7,7,7,7,7,7,7,
0,0,0,0,0,0,7,7,7,7,7,7,7,7,7,7,
0,0,0,0,0,0,7,7,7,7,7,7,7,7,7,7,
0,0,0,0,0,0,7,7,7,7,7,7,7,7,7,7,
0,0,0,0,0,0,7,7,7,7,7,7,7,7,7,7,
0,0,0,0,0,0,7,7,7,7,7,7,7,7,7,7
</chunk>
    <chunk x="0" y="48" width="16" height="16">
0,0,0,0,0,0,0,0,0,0,0,0,0,0,0,0,
0,0,0,0,0,0,0,0,0,0,0,0,0,0,0,0,
7,7,7,7,0,0,0,0,0,0,7,7,7,7,7,7,
7,7,7,7,0,0,0,0,0,0,7,7,7,7,7,7,
7,7,7,7,0,0,0,0,0,0,7,7,7,7,7,7,
7,7,7,7,0,0,0,0,0,0,7,7,7,7,7,7,
7,7,7,7,0,0,0,0,0,0,7,7,7,7,7,7,
7,7,7,7,0,0,0,0,0,0,7,7,7,7,7,7,
7,7,7,7,0,0,0,0,0,0,7,7,7,7,7,7,
7,7,7,7,0,0,0,0,0,0,7,7,7,7,7,7,
7,7,7,7,0,0,0,0,0,0,7,7,7,7,7,7,
7,7,7,7,0,0,0,0,0,0,7,7,7,7,7,7,
7,7,7,7,0,0,0,0,0,0,7,7,7,7,7,7,
7,7,7,7,0,0,0,0,0,0,7,7,7,7,7,7,
7,7,7,7,0,0,0,0,0,0,7,7,7,7,7,7,
7,7,7,7,0,0,0,0,0,0,7,7,7,7,7,7
</chunk>
    <chunk x="16" y="48" width="16" height="16">
0,0,0,0,0,0,0,0,0,0,0,0,0,0,0,0,
0,0,0,0,0,0,0,0,0,0,0,0,0,0,0,0,
7,7,7,7,7,7,7,7,7,7,7,7,7,7,0,0,
7,7,7,7,7,7,7,7,7,7,7,7,7,7,0,0,
7,7,7,7,7,7,7,7,7,7,7,7,7,7,0,0,
7,7,7,7,7,7,7,7,7,7,7,7,7,7,0,0,
7,7,7,7,7,7,7,7,7,7,7,7,7,7,0,0,
7,7,7,7,7,7,7,7,7,7,7,7,7,7,0,0,
7,7,7,7,7,7,7,7,7,7,7,7,7,7,0,0,
7,7,7,7,7,7,7,7,7,7,7,7,7,7,0,0,
7,7,7,7,7,7,7,7,7,7,7,7,7,7,0,0,
7,7,7,7,7,7,7,7,7,7,7,7,7,7,0,0,
7,7,7,7,7,7,7,7,7,7,7,7,7,7,0,0,
7,7,7,7,7,7,7,7,7,7,7,7,7,7,0,0,
7,7,7,7,7,7,7,7,7,7,7,7,7,7,0,0,
7,7,7,7,7,7,7,7,7,7,7,7,7,7,0,0
</chunk>
    <chunk x="-16" y="64" width="16" height="16">
0,0,0,0,0,0,7,7,7,7,7,7,7,7,7,7,
0,0,0,0,0,0,7,7,7,7,7,7,7,7,7,7,
0,0,0,0,0,0,7,7,7,7,7,7,7,7,7,7,
0,0,0,0,0,0,7,7,7,7,7,7,7,7,7,7,
0,0,0,0,0,0,7,7,7,7,7,7,7,7,7,7,
0,0,0,0,0,0,7,7,7,7,7,7,7,7,7,7,
0,0,0,0,0,0,7,7,7,7,7,7,7,7,7,7,
0,0,0,0,0,0,7,7,7,7,7,7,7,7,7,7,
0,0,0,0,0,0,7,7,7,7,7,7,7,7,7,7,
0,0,0,0,0,0,7,7,7,7,7,7,7,7,7,7,
0,0,0,0,0,0,7,7,7,7,7,7,7,7,7,7,
0,0,0,0,0,0,7,7,7,7,7,7,7,7,7,7,
0,0,0,0,0,0,7,7,7,7,7,7,7,7,7,7,
0,0,0,0,0,0,7,7,7,7,7,7,7,7,7,7,
0,0,0,0,0,0,7,7,7,7,7,7,7,7,7,7,
0,0,0,0,0,0,7,7,7,7,7,7,7,7,7,7
</chunk>
    <chunk x="0" y="64" width="16" height="16">
7,7,7,7,0,0,0,0,0,0,7,7,7,7,7,7,
7,7,7,7,0,0,0,0,0,0,7,7,7,7,7,7,
7,7,7,7,0,0,0,0,0,0,7,7,7,7,7,7,
7,7,7,7,0,0,0,0,0,0,7,7,7,7,7,7,
7,7,7,7,0,0,0,0,0,0,7,7,7,7,7,7,
7,7,7,7,0,0,0,0,0,0,7,7,7,7,7,7,
7,7,7,7,0,0,0,0,0,0,7,7,7,7,7,7,
7,7,7,7,0,0,0,0,0,0,7,7,7,7,7,7,
7,7,7,7,0,0,0,0,0,0,7,7,7,7,7,7,
7,7,7,7,0,0,0,0,0,0,7,7,7,7,7,7,
7,7,7,7,0,0,0,0,0,0,7,7,7,7,7,7,
7,7,7,7,0,0,0,0,0,0,7,7,7,7,7,7,
7,7,7,7,0,0,0,0,0,0,7,7,7,7,7,7,
7,7,7,7,0,0,0,0,0,0,7,7,7,7,7,7,
7,7,7,7,0,0,0,0,0,0,7,7,7,7,7,7,
7,7,7,7,0,0,0,0,0,0,7,7,7,7,7,7
</chunk>
    <chunk x="16" y="64" width="16" height="16">
7,7,7,7,7,7,7,7,7,7,7,7,7,7,0,0,
7,7,7,7,7,7,7,7,7,7,7,7,7,7,0,0,
7,7,7,7,7,7,7,7,7,7,7,7,7,7,0,0,
7,7,7,7,7,7,7,7,7,7,7,7,7,7,0,0,
7,7,7,7,7,7,7,7,7,7,7,7,7,7,0,0,
7,7,7,7,7,7,7,7,7,7,7,7,7,7,0,0,
7,7,7,7,7,7,7,7,7,7,7,7,7,7,0,0,
7,7,7,7,7,7,7,7,7,7,7,7,7,7,0,0,
7,7,7,7,7,7,7,7,7,7,7,7,7,7,0,0,
7,7,7,7,7,7,7,7,7,7,7,7,7,7,0,0,
7,7,7,7,7,7,7,7,7,7,7,7,7,7,0,0,
7,7,7,7,7,7,7,7,7,7,7,7,7,7,0,0,
7,7,7,7,7,7,7,7,7,7,7,7,7,7,0,0,
7,7,7,7,7,7,7,7,7,7,7,7,7,7,0,0,
7,7,7,7,7,7,7,7,7,7,7,7,7,7,0,0,
7,7,7,7,7,7,7,7,7,7,7,7,7,7,0,0
</chunk>
    <chunk x="-16" y="80" width="16" height="16">
0,0,0,0,0,0,7,7,7,7,7,7,7,7,7,7,
0,0,0,0,0,0,7,7,7,7,7,7,7,7,7,7,
0,0,0,0,0,0,7,7,7,7,7,7,7,7,7,7,
0,0,0,0,0,0,7,7,7,7,7,7,7,7,7,7,
0,0,0,0,0,0,7,7,7,7,7,7,7,7,7,7,
0,0,0,0,0,0,7,7,7,7,7,7,7,7,7,7,
0,0,0,0,0,0,7,7,7,7,7,7,7,7,7,7,
0,0,0,0,0,0,7,7,7,7,7,7,7,7,7,7,
0,0,0,0,0,0,7,7,7,7,7,7,7,7,7,7,
0,0,0,0,0,0,7,7,7,7,7,7,7,7,7,7,
0,0,0,0,0,0,7,7,7,7,7,7,7,7,7,7,
0,0,0,0,0,0,7,7,7,7,7,0,0,0,7,7,
0,0,0,0,0,0,7,7,7,7,7,0,0,0,7,7,
0,0,0,0,0,0,7,7,7,7,7,0,0,0,7,0,
0,0,0,0,0,0,7,7,7,7,7,0,0,0,0,0,
0,0,0,0,0,0,7,7,7,7,7,0,0,0,0,0
</chunk>
    <chunk x="0" y="80" width="16" height="16">
7,7,7,7,0,0,0,0,0,0,7,7,7,7,7,7,
7,7,7,7,0,0,0,0,0,0,7,7,7,7,7,7,
7,7,7,7,0,0,0,0,0,0,7,7,7,7,7,7,
7,7,7,7,0,0,0,0,0,0,7,7,7,7,7,7,
7,7,7,7,7,0,0,0,0,7,7,7,7,7,7,7,
7,7,7,7,7,0,0,0,0,7,7,7,7,7,7,7,
7,7,7,7,7,0,0,0,0,7,7,7,7,7,7,7,
7,7,7,7,7,0,0,0,0,7,7,7,7,7,7,7,
7,7,7,7,7,0,0,0,0,7,7,7,7,7,7,7,
7,7,7,7,7,0,0,0,0,7,7,7,7,7,7,7,
7,7,7,7,7,0,0,0,0,7,7,7,7,7,7,7,
7,7,7,7,0,0,0,0,0,0,0,7,7,7,0,7,
7,7,7,7,0,0,0,0,0,0,0,7,7,7,0,7,
7,7,7,7,0,0,0,0,0,0,0,7,0,7,0,7,
0,7,7,7,0,0,0,0,0,0,0,0,0,0,0,0,
0,0,0,0,0,0,0,0,0,0,0,0,0,0,0,0
</chunk>
    <chunk x="16" y="80" width="16" height="16">
7,7,7,7,7,7,7,7,7,7,7,7,7,7,0,0,
7,7,7,7,7,7,7,7,7,7,7,7,7,7,0,0,
7,7,7,7,7,7,7,7,7,7,7,7,7,7,0,0,
7,7,7,7,7,7,7,7,7,7,7,7,7,7,0,0,
7,7,7,7,7,7,7,7,7,7,7,7,7,7,0,0,
7,7,7,7,7,7,7,7,7,7,7,7,7,7,0,0,
7,7,7,7,7,7,7,7,7,7,7,7,7,7,0,0,
7,7,7,7,7,7,7,7,7,7,7,7,7,7,0,0,
7,7,7,7,7,7,7,7,7,7,7,7,7,7,0,0,
7,7,7,7,7,7,7,7,7,7,7,7,7,7,0,0,
7,7,7,7,7,7,7,7,7,7,7,7,7,7,0,0,
7,7,7,7,0,0,0,7,7,7,7,7,7,7,0,0,
7,7,7,7,0,0,0,7,7,7,7,7,7,7,0,0,
7,7,0,7,0,0,0,7,0,7,7,7,7,7,0,0,
0,0,0,0,0,0,0,0,7,7,7,7,7,7,0,0,
0,0,0,0,0,0,0,0,0,0,0,0,0,0,0,0
</chunk>
    <chunk x="-16" y="96" width="16" height="16">
0,0,0,0,0,0,7,7,7,7,7,0,0,0,0,0,
0,0,0,0,0,0,7,7,7,7,7,0,0,0,0,0,
0,0,0,0,0,0,7,7,7,7,7,0,0,0,0,0,
0,0,0,0,0,0,7,7,7,7,7,0,0,0,0,0,
0,0,0,0,0,0,7,7,7,7,7,0,0,0,0,0,
0,0,0,0,0,0,7,7,7,7,7,0,0,0,0,0,
0,0,0,0,0,0,7,7,7,7,7,0,0,0,0,7,
0,0,0,0,0,0,7,7,7,7,7,0,0,0,0,7,
0,0,0,0,0,0,7,7,7,7,7,0,0,0,0,7,
0,0,0,0,0,0,7,7,7,7,7,7,0,0,7,7,
0,0,0,0,0,0,7,7,7,7,7,7,0,0,7,7,
0,0,0,0,0,0,7,7,7,7,7,7,0,0,7,7,
0,0,0,0,0,0,7,7,7,7,7,7,0,0,7,7,
0,0,0,0,0,0,7,7,7,7,7,7,0,0,7,7,
0,0,0,0,0,0,0,0,0,0,0,0,0,0,0,0,
0,0,0,0,0,0,0,0,0,0,0,0,0,0,0,0
</chunk>
    <chunk x="0" y="96" width="16" height="16">
0,0,0,0,0,0,0,0,0,0,0,0,0,0,0,0,
0,0,0,0,0,0,0,0,0,0,7,7,7,0,0,0,
0,0,0,0,0,0,0,0,0,0,7,7,7,0,0,0,
0,0,0,0,0,0,0,0,0,0,7,0,7,0,0,0,
0,0,0,0,0,0,0,0,0,0,0,0,0,0,0,0,
0,0,0,0,0,0,0,0,0,0,0,0,0,0,0,0,
7,7,7,7,7,7,7,7,7,7,7,7,7,7,7,7,
7,7,7,7,7,7,7,7,7,7,7,7,7,7,7,7,
7,7,7,7,7,7,7,7,7,7,7,7,7,7,7,7,
7,7,7,7,7,7,7,7,7,7,7,7,7,7,7,7,
7,7,7,7,7,7,7,7,7,7,7,7,7,7,7,7,
7,7,7,7,7,7,7,7,7,7,7,7,7,7,7,7,
7,7,7,7,7,7,7,7,7,7,7,7,7,7,7,7,
7,7,7,7,7,7,7,7,7,7,7,7,7,7,7,7,
0,0,0,0,0,0,0,0,0,0,0,0,0,0,0,0,
0,0,0,0,0,0,0,0,0,0,0,0,0,0,0,0
</chunk>
    <chunk x="16" y="96" width="16" height="16">
0,0,0,0,0,0,0,0,0,0,0,0,0,0,0,0,
7,7,7,0,0,0,0,0,0,0,0,0,0,0,0,0,
7,7,7,0,0,0,0,0,7,7,7,7,7,7,0,0,
7,7,7,0,0,0,0,7,7,7,7,7,7,7,0,0,
7,7,7,0,0,0,0,7,7,7,0,0,7,7,0,0,
7,7,7,0,0,0,0,7,7,7,0,0,7,7,0,0,
7,7,7,7,7,7,7,7,7,7,7,7,7,7,0,0,
7,7,7,7,7,7,7,7,7,7,7,7,7,7,0,0,
7,7,7,7,7,7,7,7,7,7,7,7,7,7,0,0,
7,7,7,7,7,7,7,7,7,7,7,7,7,7,0,0,
7,7,7,7,7,7,7,7,7,7,7,7,7,7,0,0,
7,7,7,7,7,7,7,7,7,7,7,7,7,7,0,0,
7,7,7,7,7,7,7,7,7,7,7,7,7,7,0,0,
7,7,7,7,7,7,7,7,7,7,7,7,7,7,0,0,
0,0,0,0,0,0,0,0,0,0,0,0,0,0,0,0,
0,0,0,0,0,0,0,0,0,0,0,0,0,0,0,0
</chunk>
   </data>
  </layer>
 </group>
</map>
